%
(001 - Face Outline Rough Inner)
(T1 D=0.25 CR=0 - ZMIN=-0.76 - flat end mill)
G90
G17
G20
(When using Fusion for Personal Use, the feedrate of rapid)
(moves is reduced to match the feedrate of cutting moves,)
(which can increase machining time. Unrestricted rapid moves)
(are available with a Fusion Subscription.)
G28 G91 Z0
G90

(Face)
T1 M6
S19700 M3
G17 G90
G54
G0 X5.6754 Y-2.8526
Z0.6
G1 Z0.2 F65
Z0.005 F32
G18 G3 X5.6504 Z-0.02 I-0.025 K0 F65
G1 X-5.6504
G17 G2 Y-2.6818 I0 J0.0854
G1 X5.6504 Y-2.6819
G3 Y-2.5113 I0 J0.0853
G1 X-5.6504 Y-2.5112
G2 Y-2.3406 I0 J0.0853
G1 X5.6504
G3 Y-2.1698 I0 J0.0854
G1 X-5.6504 Y-2.1699
G2 Y-1.9993 I0 J0.0853
G1 X5.6504 Y-1.9992
G3 Y-1.8286 I0 J0.0853
G1 X-5.6504
G2 Y-1.6578 I0 J0.0854
G1 X5.6504 Y-1.6579
G3 Y-1.4873 I0 J0.0853
G1 X-5.6504 Y-1.4872
G2 Y-1.3166 I0 J0.0853
G1 X5.6504
G3 Y-1.1458 I0 J0.0854
G1 X-5.6504 Y-1.1459
G2 Y-0.9753 I0 J0.0853
G1 X5.6504 Y-0.9752
G3 Y-0.8046 I0 J0.0853
G1 X-5.6504
G2 Y-0.6338 I0 J0.0854
G1 X5.6504 Y-0.6339
G3 Y-0.4631 I0 J0.0854
G1 X-5.6504 Y-0.4632
G2 Y-0.2926 I0 J0.0853
G1 X5.6504 Y-0.2925
G3 Y-0.1219 I0 J0.0853
G1 X-5.6504
G2 Y0.0489 I0 J0.0854
G1 X5.6504 Y0.0488
G3 Y0.2194 I0 J0.0853
G1 X-5.6504 Y0.2195
G2 Y0.3901 I0 J0.0853
G1 X5.6504
G3 Y0.5609 I0 J0.0854
G1 X-5.6504 Y0.5608
G2 Y0.7314 I0 J0.0853
G1 X5.6504 Y0.7315
G3 Y0.9021 I0 J0.0853
G1 X-5.6504
G2 Y1.0729 I0 J0.0854
G1 X5.6504 Y1.0728
G3 Y1.2434 I0 J0.0853
G1 X-5.6504 Y1.2435
G2 Y1.4141 I0 J0.0853
G1 X5.6504
G3 Y1.5849 I0 J0.0854
G1 X-5.6504 Y1.5848
G2 Y1.7556 I0 J0.0854
G1 X5.6504 Y1.7555
G3 Y1.9261 I0 J0.0853
G1 X-5.6504 Y1.9262
G2 Y2.0968 I0 J0.0853
G1 X5.6504
G3 Y2.2676 I0 J0.0854
G1 X-5.6504 Y2.2675
G2 Y2.4381 I0 J0.0853
G1 X5.6504 Y2.4382
G3 Y2.6088 I0 J0.0853
G1 X-5.6504
G2 Y2.7796 I0 J0.0854
G1 X5.6504 Y2.7795
G18 G2 X5.6754 Z0.005 I0 K0.025
G1 Z0.6
G17
(When using Fusion for Personal Use, the feedrate of rapid)
(moves is reduced to match the feedrate of cutting moves,)
(which can increase machining time. Unrestricted rapid moves)
(are available with a Fusion Subscription.)

(Outline)
G0 X-3.9925 Y2.6775
G1 Z0.58 F65
Z0.18
Z-0.145 F32
G19 G2 Y2.6525 Z-0.17 J-0.025 K0 F65
G1 Y2.6275
G17 G3 X-3.9675 Y2.6025 I0.025 J0
G1 X3.9675
G2 X5.3575 Y1.2125 I0 J-1.39
G1 Y-1.2125
G2 X3.9675 Y-2.6025 I-1.39 J0
G1 X-3.9675
G2 X-5.3575 Y-1.2125 I0 J1.39
G1 Y1.2125
G2 X-3.9675 Y2.6025 I1.39 J0
G3 X-3.9425 Y2.6275 I0 J0.025
G1 Y2.6525
G19 G3 Y2.6775 Z-0.145 J0 K0.025
G1 Z0.18
X-3.9925
Z-0.295 F32
G2 Y2.6525 Z-0.32 J-0.025 K0 F65
G1 Y2.6275
G17 G3 X-3.9675 Y2.6025 I0.025 J0
G1 X3.9675
G2 X5.3575 Y1.2125 I0 J-1.39
G1 Y-1.2125
G2 X3.9675 Y-2.6025 I-1.39 J0
G1 X-3.9675
G2 X-5.3575 Y-1.2125 I0 J1.39
G1 Y1.2125
G2 X-3.9675 Y2.6025 I1.39 J0
G3 X-3.9425 Y2.6275 I0 J0.025
G1 Y2.6525
G19 G3 Y2.6775 Z-0.295 J0 K0.025
G1 Z0.18
X-3.9925
Z-0.445 F32
G2 Y2.6525 Z-0.47 J-0.025 K0 F65
G1 Y2.6275
G17 G3 X-3.9675 Y2.6025 I0.025 J0
G1 X3.9675
G2 X5.3575 Y1.2125 I0 J-1.39
G1 Y-1.2125
G2 X3.9675 Y-2.6025 I-1.39 J0
G1 X-3.9675
G2 X-5.3575 Y-1.2125 I0 J1.39
G1 Y1.2125
G2 X-3.9675 Y2.6025 I1.39 J0
G3 X-3.9425 Y2.6275 I0 J0.025
G1 Y2.6525
G19 G3 Y2.6775 Z-0.445 J0 K0.025
G1 Z0.18
X-3.9925
Z-0.595 F32
G2 Y2.6525 Z-0.62 J-0.025 K0 F65
G1 Y2.6275
G17 G3 X-3.9675 Y2.6025 I0.025 J0
G1 X3.9675
G2 X5.3575 Y1.2125 I0 J-1.39
G1 Y-1.2125
G2 X3.9675 Y-2.6025 I-1.39 J0
G1 X-3.9675
G2 X-5.3575 Y-1.2125 I0 J1.39
G1 Y1.2125
G2 X-3.9675 Y2.6025 I1.39 J0
G3 X-3.9425 Y2.6275 I0 J0.025
G1 Y2.6525
G19 G3 Y2.6775 Z-0.595 J0 K0.025
G1 Z0.18
X-3.9925
Z-0.727 F32
G2 Y2.6525 Z-0.752 J-0.025 K0 F65
G1 Y2.6275
G17 G3 X-3.9675 Y2.6025 I0.025 J0
G1 X3.9675
G2 X5.3575 Y1.2125 I0 J-1.39
G1 Y-1.2125
G2 X3.9675 Y-2.6025 I-1.39 J0
G1 X-3.9675
G2 X-5.3575 Y-1.2125 I0 J1.39
G1 Y1.2125
G2 X-3.9675 Y2.6025 I1.39 J0
G3 X-3.9425 Y2.6275 I0 J0.025
G1 Y2.6525
G19 G3 Y2.6775 Z-0.727 J0 K0.025
G1 Z0.18
X-3.9925
Z-0.735 F32
G2 Y2.6525 Z-0.76 J-0.025 K0 F65
G1 Y2.6275
G17 G3 X-3.9675 Y2.6025 I0.025 J0
G1 X3.9675
G2 X5.3575 Y1.2125 I0 J-1.39
G1 Y-1.2125
G2 X3.9675 Y-2.6025 I-1.39 J0
G1 X-3.9675
G2 X-5.3575 Y-1.2125 I0 J1.39
G1 Y1.2125
G2 X-3.9675 Y2.6025 I1.39 J0
G3 X-3.9425 Y2.6275 I0 J0.025
G1 Y2.6525
G19 G3 Y2.6775 Z-0.735 J0 K0.025
G1 Z0.58
G17
(When using Fusion for Personal Use, the feedrate of rapid)
(moves is reduced to match the feedrate of cutting moves,)
(which can increase machining time. Unrestricted rapid moves)
(are available with a Fusion Subscription.)

(Rough Inner Cavity)
G0 Z0.6
X2.7502 Y0
G1 Z0.6 F65
Z0.1
Z-0.14 F32
Y0.0015 F65
X2.7487 Y0.0012 F58.5
X2.748 Y-0.0001
X2.7484 Y-0.0016
X2.7497 Y-0.0025
X2.7512
X2.7525 Y-0.0018
X2.7535 Y-0.0007
X2.7541 Y0.0007
X2.754 Y0.0022
X2.7535 Y0.0036
X2.7525 Y0.0047
X2.7513 Y0.0056
X2.7484 Y0.0065
X2.7455 Y0.006
X2.743 Y0.0042
X2.7413 Y0.0017
X2.7407 Y-0.0012
X2.7409 Y-0.0042
X2.7421 Y-0.0069
X2.746 Y-0.0115
X2.7516 Y-0.0136
X2.7576 Y-0.013 F65
X2.7629 Y-0.0102
X2.7668 Y-0.0056
G3 X2.7489 Y0.0254 I-0.0197 J0.0093
X2.718 Y-0.0097 I-0.0023 J-0.0291
X2.7732 Y-0.0378 I0.038 J0.0063
X2.7976 Y0.0278 I-0.0195 J0.0446
X2.7171 Y0.0578 I-0.0547 J-0.0237
X2.6792 Y-0.0336 I0.0288 J-0.0655
X2.7784 Y-0.0871 I0.0791 J0.0279
X2.854 Y0.0189 I-0.0209 J0.0949
X2.7543 Y0.1193 I-0.1102 J-0.0097
X2.6208 Y0.0325 I-0.0144 J-0.1239
X2.6851 Y-0.1332 I0.1322 J-0.044
X2.8794 Y-0.1009 I0.0776 J0.1337
X2.8883 Y0.1157 I-0.1266 J0.1137
X2.6878 Y0.1843 I-0.1494 J-0.1093
X2.5407 Y-0.0249 I0.0536 J-0.194
X2.7119 Y-0.2237 I0.2167 J0.0135
X2.9588 Y-0.124 I0.0518 J0.2272
X2.9536 Y0.1596 I-0.2068 J0.1381
X2.6703 Y0.2622 I-0.2156 J-0.1528
X2.4649 Y0.0437 I0.0692 J-0.2709
X2.4879 Y-0.1399 I0.2837 J-0.0577
X2.7889 Y-0.311 I0.2743 J0.1323
X3.0519 Y-0.1288 I-0.0257 J0.318
X3.0254 Y0.2042 I-0.3009 J0.1436
X2.7398 Y0.3557 I-0.2867 J-0.1956
X2.4414 Y0.2017 I-0.0027 J-0.3609
X2.3733 Y-0.0241 I0.3029 J-0.2146
X2.548 Y-0.3347 I0.3834 J0.0113
X2.8849 Y-0.3805 I0.2167 J0.3318
X3.1282 Y-0.1722 I-0.1225 J0.3894
X3.1478 Y0.1563 I-0.3757 J0.1872
X2.9502 Y0.3892 I-0.4058 J-0.144
X2.676 Y0.4405 I-0.2139 J-0.3851
X2.3964 Y0.2888 I0.0612 J-0.4463
X2.2839 Y-0.0095 I0.3479 J-0.3015
X2.4133 Y-0.338 I0.472 J-0.0038
X2.6973 Y-0.484 I0.3483 J0.3282
X3.0983 Y-0.3586 I0.0678 J0.4872
X3.2225 Y-0.1827 I-0.3377 J0.3702
X3.1942 Y0.2704 I-0.4728 J0.1979
X2.8198 Y0.5282 I-0.4551 J-0.2601
X2.3822 Y0.4022 I-0.0843 J-0.5301
X2.1946 Y0.0233 I0.3596 J-0.414
X2.2036 Y-0.1206 I0.5397 J-0.0386
X2.5962 Y-0.5545 I0.5564 J0.1089
X3.1671 Y-0.4191 I0.1693 J0.5572
X3.3533 Y-0.0006 I-0.4077 J0.4321
X3.2928 Y0.2795 I-0.602 J0.0166
X2.7044 Y0.6257 I-0.5551 J-0.2704
X2.1966 Y0.3235 I0.0317 J-0.6311
X2.1673 Y-0.2997 I0.5516 J-0.3382
X2.7821 Y-0.6715 I0.5951 J0.2899
X3.263 Y-0.4534 I-0.016 J0.6745
X3.4248 Y0.1855 I-0.5069 J0.4683
X2.948 Y0.687 I-0.6837 J-0.1726
X2.1914 Y0.4721 I-0.2131 J-0.6892
X2.0148 Y0.0827 I0.5479 J-0.4833
X2.3718 Y-0.6556 I0.7418 J-0.0968
X3.1936 Y-0.6345 I0.3943 J0.6548
X3.3776 Y-0.4623 I-0.4255 J0.6393
X3.4448 Y0.3903 I-0.6254 J0.4782
X2.6624 Y0.8094 I-0.7075 J-0.381
X2.5202 Y0.7839 I0.065 J-0.7705
X1.9259 Y0.1213 I0.2186 J-0.7939
X2.2135 Y-0.6572 I0.8285 J-0.1363
X2.3628 Y-0.7586 I0.5402 J0.6346
X3.3925 Y-0.5889 I0.4035 J0.7606
X3.6105 Y0.2151 I-0.635 J0.6037
X2.9956 Y0.8687 I-0.8691 J-0.2016
X2.0682 Y0.6161 I-0.261 J-0.8705
G1 X2.0437 Y0.5896
G3 X1.9328 Y-0.4592 I0.7042 J-0.6047
X2.6176 Y-0.9422 I0.8283 J0.4474
X3.5987 Y-0.47 I0.1481 J0.9477
X3.6754 Y0.3334 I-0.8433 J0.4858
X2.7364 Y1.002 I-0.937 J-0.3223
X2.0465 Y0.7293 I-0.0022 J-1.0033
X1.8304 Y-0.4675 I0.6996 J-0.7442
X2.3084 Y-0.9438 I0.9265 J0.4518
X3.537 Y-0.7126 I0.4581 J0.9457
X3.8131 Y-0.134 I-0.7737 J0.7244
X3.1996 Y0.9938 I-1.0689 J0.1493
X2.6002 Y1.0891 I-0.4636 J-0.9834
X1.6412 Y0.1438 I0.1376 J-1.0987
X1.6945 Y-0.3909 I1.1011 J-0.1602
X2.8532 Y-1.1407 I1.0685 J0.381
X3.3337 Y-0.9938 I-0.0832 J1.1317
X3.8974 Y0.2388 I-0.575 J1.0082
X3.6768 Y0.7294 I-1.1445 J-0.2197
X2.2454 Y1.0877 I-0.9417 J-0.7237
X1.9156 Y0.8682 I0.4775 J-1.0751
X1.6478 Y-0.5285 I0.8303 J-0.8832
X1.9217 Y-0.9073 I1.099 J0.5062
X3.4285 Y-1.0483 I0.8447 J0.9047
X3.703 Y-0.8145 I-0.6484 J1.0394
X3.7947 Y0.7292 I-0.9502 J0.831
X3.5796 Y0.9725 I-1.0269 J-0.6914
X2.0326 Y1.0809 I-0.8452 J-0.9695
X1.784 Y0.8719 I0.6794 J-1.0602
X1.6151 Y-0.6737 I0.9633 J-0.8873
X1.8108 Y-0.933 I1.111 J0.6349
X3.3779 Y-1.1877 I0.9553 J0.9292
X3.6193 Y-1.0291 I-0.5844 J1.153
X4.0037 Y0.5451 I-0.8635 J1.0449
X3.8847 Y0.7682 I-1.2021 J-0.4981
X2.2931 Y1.3124 I-1.1491 J-0.7612
X2.1257 Y1.2441 I0.3955 J-1.2088
X1.3703 Y-0.2952 I0.6164 J-1.2575
X1.4059 Y-0.4354 I1.2246 J0.2365
X2.8425 Y-1.4301 I1.3571 J0.4253
G1 X2.8786 Y-1.428
X2.9146 Y-1.4247
X2.9506 Y-1.4204
G3 X4.1929 Y-0.1864 I-0.1879 J1.4315
G1 X4.1979 Y-0.1505
X4.2016 Y-0.1145
X4.2044 Y-0.0785
G3 X3.2106 Y1.4027 I-1.462 J0.0931
G1 X3.1763 Y1.4142
X3.1416 Y1.4246
G3 X1.4372 Y0.7192 I-0.4066 J-1.4293
X1.5685 Y-0.9476 I1.312 J-0.7352
X1.7141 Y-1.1084 I1.1221 J0.8694
X3.5552 Y-1.3095 I1.0523 J1.1058
X4.283 Y0.2681 I-0.7953 J1.3236
X4.2533 Y0.4097 I-1.3379 J-0.2069
X2.8061 Y1.5762 I-1.5147 J-0.3982
X1.2655 Y0.5844 I-0.0709 J-1.5823
G1 X1.252 Y0.5509
G3 X1.7302 Y-1.2517 I1.5019 J-0.5663
X3.5918 Y-1.4002 I1.0363 J1.2484
X4.3761 Y0.2975 I-0.8319 J1.4143
X3.1062 Y1.6328 I-1.6347 J-0.2831
G1 X3.0709 Y1.6409
G3 X1.337 Y0.9258 I-0.3358 J-1.6455
X1.3334 Y-0.9519 I1.4113 J-0.9416
X2.9159 Y-1.7156 I1.4302 J0.9422
X3.0594 Y-1.6973 I-0.1172 J1.4925
X4.4421 Y-0.4199 I-0.2965 J1.708
X3.8557 Y1.3709 I-1.6946 J0.4365
X1.9839 Y1.6047 I-1.1211 J-1.366
X0.9555 Y0.021 I0.7554 J-1.6163
X1.9149 Y-1.6076 I1.8011 J-0.0359
X3.8035 Y-1.495 I0.8519 J1.6066
X4.5817 Y0.2314 I-1.044 J1.5092
X3.428 Y1.7352 I-1.839 J-0.2164
X1.5528 Y1.4481 I-0.694 J-1.7345
X0.8843 Y-0.3289 I1.1893 J-1.4617
X2.0936 Y-1.7944 I1.8743 J0.3149
X2.4336 Y-1.8873 I0.6561 J1.7322
G1 X2.4371 Y-1.8875
X2.9969
X3.033 Y-1.8857
G3 X3.2473 Y-1.8538 I-0.0373 J0.9861
X3.8387 Y-1.5891 I-0.4502 J1.7987
X4.5265 Y-0.768 I-1.0735 J1.5979
X4.6427 Y-0.4181 I-1.7175 J0.7647
G1 X4.6425 Y-0.4134
Y0.3492
G3 X4.6106 Y0.5634 I-0.8529 J-0.0177
X4.4273 Y0.9951 I-1.7154 J-0.4736
X3.4578 Y1.8285 I-1.6857 J-0.9804
X3.2891 Y1.8865 I-0.6635 J-1.6539
G1 X3.2834 Y1.8872
X3.2777 Y1.8875
X2.2898
G3 X2.1115 Y1.8599 I0.0111 J-0.6618
X1.7794 Y1.7185 I0.4549 J-1.5288
X0.8695 Y0.6347 I0.956 J-1.7265
X1.1865 Y-1.247 I1.8819 J-0.6505
X2.0598 Y-1.8862 I1.5728 J1.2326
G1 X2.0667 Y-1.8871
X2.0735 Y-1.8875
X2.4371
G3 X2.4601 Y-1.8699 I-0.0009 J0.025
G1 X2.4612 Y-1.8661 Z-0.1397
X2.4624 Y-1.8625 Z-0.1388
X2.4634 Y-1.859 Z-0.1373
X2.4644 Y-1.8558 Z-0.1352
X2.4653 Y-1.853 Z-0.1327
X2.466 Y-1.8506 Z-0.1297
X2.4667 Y-1.8486 Z-0.1263
X2.4671 Y-1.8472 Z-0.1227
X2.4674 Y-1.8463 Z-0.1189
X2.4675 Y-1.846 Z-0.115
Z0.2
X4.621 Y0.2981
Z-0.09
Z-0.115
X4.6212 Y0.2984 Z-0.1189
X4.6216 Y0.2991 Z-0.1227
X4.6224 Y0.3004 Z-0.1263
X4.6234 Y0.3022 Z-0.1297
X4.6248 Y0.3044 Z-0.1327
X4.6263 Y0.3069 Z-0.1352
X4.628 Y0.3098 Z-0.1373
X4.6298 Y0.3129 Z-0.1388
X4.6318 Y0.3162 Z-0.1397
X4.6338 Y0.3196 Z-0.14
G3 X4.6425 Y0.3492 I-0.0536 J0.0318
G1 Y0.6697
X4.6407 Y0.7058
X4.6364 Y0.7383
G3 X4.5939 Y0.8764 I-0.6529 J-0.1253
X4.417 Y1.1911 I-1.516 J-0.6452
X3.5803 Y1.8823 I-1.673 J-1.1731
G1 X3.5726 Y1.8852
X3.5646 Y1.8869
X3.5565 Y1.8875
X3.2777
G3 X3.2547 Y1.8699 I0.0009 J-0.025
G1 X3.2536 Y1.8661 Z-0.1397
X3.2524 Y1.8625 Z-0.1388
X3.2514 Y1.859 Z-0.1373
X3.2504 Y1.8558 Z-0.1352
X3.2495 Y1.853 Z-0.1327
X3.2487 Y1.8506 Z-0.1297
X3.2481 Y1.8486 Z-0.1263
X3.2477 Y1.8472 Z-0.1227
X3.2474 Y1.8463 Z-0.1189
X3.2473 Y1.846 Z-0.115
Z0.2
X4.621 Y0.6185
Z-0.09
Z-0.115
X4.6212 Y0.6188 Z-0.1189
X4.6216 Y0.6196 Z-0.1227
X4.6224 Y0.6209 Z-0.1263
X4.6234 Y0.6226 Z-0.1297
X4.6248 Y0.6248 Z-0.1327
X4.6263 Y0.6274 Z-0.1352
X4.628 Y0.6303 Z-0.1373
X4.6298 Y0.6334 Z-0.1388
X4.6318 Y0.6367 Z-0.1397
X4.6338 Y0.64 Z-0.14
G3 X4.6425 Y0.6697 I-0.0536 J0.0319
G1 Y0.8998
X4.6412 Y0.9255
X4.638 Y0.9499
X4.6316 Y0.9799
X4.6212 Y1.0145
G3 X4.5413 Y1.1765 I-0.8026 J-0.2951
X4.2727 Y1.5163 I-1.6137 J-0.9995
X3.8006 Y1.8799 I-1.5162 J-1.4806
G1 X3.7915 Y1.8841
X3.7817 Y1.8866
X3.7718 Y1.8875
X3.5565
G3 X3.5335 Y1.8699 I0.0009 J-0.025
G1 X3.5323 Y1.8661 Z-0.1397
X3.5312 Y1.8625 Z-0.1388
X3.5301 Y1.859 Z-0.1373
X3.5292 Y1.8558 Z-0.1352
X3.5283 Y1.853 Z-0.1327
X3.5275 Y1.8506 Z-0.1297
X3.5269 Y1.8486 Z-0.1263
X3.5265 Y1.8472 Z-0.1227
X3.5262 Y1.8463 Z-0.1189
X3.5261 Y1.846 Z-0.115
Z0.2
X4.621 Y0.8486
Z-0.09
Z-0.115
X4.6212 Y0.8489 Z-0.1189
X4.6216 Y0.8497 Z-0.1227
X4.6224 Y0.851 Z-0.1263
X4.6234 Y0.8527 Z-0.1297
X4.6248 Y0.8549 Z-0.1327
X4.6263 Y0.8575 Z-0.1352
X4.628 Y0.8603 Z-0.1373
X4.6298 Y0.8635 Z-0.1388
X4.6318 Y0.8667 Z-0.1397
X4.6338 Y0.8701 Z-0.14
G3 X4.6425 Y0.8998 I-0.0536 J0.0318
G1 Y1.0888
X4.6412 Y1.1138
X4.6386 Y1.1339
X4.6334 Y1.1584
X4.6245 Y1.1881
G3 X4.5596 Y1.3171 I-0.5811 J-0.2116
X4.3559 Y1.5705 I-1.366 J-0.8896
X3.9897 Y1.8778 I-1.5796 J-1.5106
G1 X3.9805 Y1.8827
X3.9706 Y1.886
X3.9603 Y1.8874
X3.9588 Y1.8875
X3.7718
G3 X3.7468 Y1.8625 Z-0.132 I0 J-0.025
X3.7546 Y1.8443 I0.025 J0
G1 X4.5952 Y1.0537
G3 X4.6286 Y1.053 I0.0171 J0.0182
G1 X4.6306 Y1.0548 Z-0.1325
X4.6323 Y1.0569 Z-0.1331
X4.6338 Y1.0591 Z-0.1336
X4.6343 Y1.0599 Z-0.1338
G3 X4.6425 Y1.0888 Z-0.14 I-0.0541 J0.031
G1 Y1.2038
X4.6421 Y1.212
X4.6417 Y1.2202
X4.638 Y1.2777
X4.635 Y1.3034
X4.6309 Y1.3239
X4.6242 Y1.3477
X4.6134 Y1.3767
G3 X4.5402 Y1.5012 I-0.5658 J-0.2489
X4.3206 Y1.741 I-1.3296 J-0.9968
X4.203 Y1.8422 I-1.2337 J-1.3151
G1 X4.197 Y1.8452
X4.1908 Y1.8477
G3 X4.1233 Y1.8681 I-0.1977 J-0.5336
G1 X4.0739 Y1.8778
X4.0575 Y1.8803
G3 X3.9603 Y1.8874 I-0.1336 J-1.1648
G1 X3.9565 Y1.8871 Z-0.1392
X3.9528 Y1.8863 Z-0.1385
X3.9493 Y1.885 Z-0.1377
X3.946 Y1.8831 Z-0.1369
X3.9431 Y1.8808 Z-0.1361
X3.9405 Y1.8781 Z-0.1354
X3.9383 Y1.8749 Z-0.1346
X3.9367 Y1.8715 Z-0.1338
X3.9357 Y1.8687 Z-0.1332
X3.9352 Y1.8658 Z-0.1326
X3.9349 Y1.8628 Z-0.132
G3 X3.9432 Y1.8438 I0.025 J-0.0004
G1 X4.5963 Y1.2584
G3 X4.6137 Y1.252 I0.0167 J0.0186
X4.638 Y1.2777 Z-0.14 I-0.0007 J0.025
X4.633 Y1.318 I-0.382 J-0.0271
G1 X4.623 Y1.3681
G3 X4.5847 Y1.4832 I-0.703 J-0.17
G1 X4.5564 Y1.5407
G3 X4.4961 Y1.6312 I-0.8944 J-0.5307
G1 X4.4521 Y1.681
X4.4452 Y1.6886
G3 X4.3791 Y1.7461 I-0.7969 J-0.8489
X4.296 Y1.8014 I-0.6193 J-0.8414
X4.2137 Y1.84 I-0.4721 J-0.9003
G1 X4.1908 Y1.8477
G3 X4.1633 Y1.8385 I-0.0073 J-0.0239
G1 X4.161 Y1.8353 Z-0.1397
X4.1588 Y1.8322 Z-0.1388
X4.1566 Y1.8293 Z-0.1373
X4.1547 Y1.8265 Z-0.1352
X4.1529 Y1.8241 Z-0.1327
X4.1514 Y1.8221 Z-0.1297
X4.1502 Y1.8204 Z-0.1263
X4.1494 Y1.8192 Z-0.1227
X4.1488 Y1.8184 Z-0.1189
X4.1486 Y1.8182 Z-0.115
Z0.2
X2.3409 Y1.866
Z-0.09
Z-0.115
X2.3407 Y1.8662 Z-0.1189
X2.3399 Y1.8666 Z-0.1227
X2.3386 Y1.8674 Z-0.1263
X2.3368 Y1.8685 Z-0.1297
X2.3346 Y1.8698 Z-0.1327
X2.3321 Y1.8713 Z-0.1352
X2.3292 Y1.873 Z-0.1373
X2.3261 Y1.8748 Z-0.1388
X2.3228 Y1.8768 Z-0.1397
X2.3194 Y1.8788 Z-0.14
G3 X2.2898 Y1.8875 I-0.0318 J-0.0536
G1 X2.0102
X1.9747 Y1.8857
X1.9455 Y1.8819
X1.9101 Y1.8743
G3 X1.7427 Y1.8066 I0.2255 J-0.799
X1.3853 Y1.5619 I0.8565 J-1.6345
X0.7281 Y0.5025 I1.351 J-1.5716
X1.1566 Y-1.3646 I2.0247 J-0.518
X1.8073 Y-1.8812 I1.6008 J1.3481
G1 X1.8156 Y-1.8847
X1.8244 Y-1.8868
X1.8334 Y-1.8875
X2.0735
G3 X2.0966 Y-1.8699 I-0.0008 J0.025
G1 X2.0977 Y-1.8661 Z-0.1397
X2.0988 Y-1.8625 Z-0.1388
X2.0999 Y-1.859 Z-0.1373
X2.1009 Y-1.8558 Z-0.1352
X2.1018 Y-1.853 Z-0.1327
X2.1025 Y-1.8506 Z-0.1297
X2.1031 Y-1.8486 Z-0.1263
X2.1036 Y-1.8472 Z-0.1227
X2.1038 Y-1.8463 Z-0.1189
X2.1039 Y-1.846 Z-0.115
Z0.2
X2.0614 Y1.866
Z-0.09
Z-0.115
X2.0611 Y1.8662 Z-0.1189
X2.0603 Y1.8666 Z-0.1227
X2.059 Y1.8674 Z-0.1263
X2.0573 Y1.8685 Z-0.1297
X2.0551 Y1.8698 Z-0.1327
X2.0525 Y1.8713 Z-0.1352
X2.0497 Y1.873 Z-0.1373
X2.0465 Y1.8748 Z-0.1388
X2.0433 Y1.8768 Z-0.1397
X2.0399 Y1.8788 Z-0.14
G3 X2.0102 Y1.8875 I-0.0318 J-0.0536
G1 X1.7965
X1.767 Y1.886
X1.7441 Y1.883
X1.7166 Y1.8771
X1.6822 Y1.8668
G3 X1.5522 Y1.8038 I0.2518 J-0.6853
X1.2648 Y1.585 I0.9088 J-1.4918
X0.606 Y0.4044 I1.4704 J-1.5946
X1.1032 Y-1.4522 I2.1468 J-0.42
X1.6046 Y-1.8788 I1.6466 J1.4274
G1 X1.6141 Y-1.8836
X1.6244 Y-1.8865
X1.6351 Y-1.8875
X1.8334
G3 X1.8564 Y-1.8699 I-0.0009 J0.025
G1 X1.8576 Y-1.8661 Z-0.1397
X1.8587 Y-1.8625 Z-0.1388
X1.8598 Y-1.859 Z-0.1373
X1.8608 Y-1.8558 Z-0.1352
X1.8616 Y-1.853 Z-0.1327
X1.8624 Y-1.8506 Z-0.1297
X1.863 Y-1.8486 Z-0.1263
X1.8634 Y-1.8472 Z-0.1227
X1.8637 Y-1.8463 Z-0.1189
X1.8638 Y-1.846 Z-0.115
Z0.2
X1.8476 Y1.866
Z-0.09
Z-0.115
X1.8474 Y1.8662 Z-0.1189
X1.8466 Y1.8666 Z-0.1227
X1.8453 Y1.8674 Z-0.1263
X1.8435 Y1.8685 Z-0.1297
X1.8413 Y1.8698 Z-0.1327
X1.8388 Y1.8713 Z-0.1352
X1.8359 Y1.873 Z-0.1373
X1.8328 Y1.8748 Z-0.1388
X1.8295 Y1.8768 Z-0.1397
X1.8261 Y1.8788 Z-0.14
G3 X1.7965 Y1.8875 I-0.0318 J-0.0536
G1 X1.6074
X1.5868 Y1.8865
X1.5674 Y1.8839
X1.5439 Y1.8789
X1.5159 Y1.8705
X1.4822 Y1.8574
G3 X1.3573 Y1.7847 I0.3122 J-0.6794
X1.0864 Y1.5458 I1.0452 J-1.4582
X0.4993 Y0.3642 I1.6485 J-1.5558
X1.0106 Y-1.4945 I2.2537 J-0.3797
X1.425 Y-1.8766 I1.7348 J1.4658
G1 X1.4355 Y-1.8825
X1.4471 Y-1.8862
X1.4591 Y-1.8875
X1.6351
G3 X1.6581 Y-1.8699 I-0.0009 J0.025
G1 X1.6592 Y-1.8661 Z-0.1397
X1.6604 Y-1.8625 Z-0.1388
X1.6614 Y-1.859 Z-0.1373
X1.6624 Y-1.8558 Z-0.1352
X1.6633 Y-1.853 Z-0.1327
X1.664 Y-1.8506 Z-0.1297
X1.6647 Y-1.8486 Z-0.1263
X1.6651 Y-1.8472 Z-0.1227
X1.6654 Y-1.8463 Z-0.1189
X1.6655 Y-1.846 Z-0.115
Z0.2
X1.6585 Y1.866
Z-0.09
Z-0.115
X1.6583 Y1.8662 Z-0.1189
X1.6575 Y1.8666 Z-0.1227
X1.6562 Y1.8674 Z-0.1263
X1.6544 Y1.8685 Z-0.1297
X1.6522 Y1.8698 Z-0.1327
X1.6497 Y1.8713 Z-0.1352
X1.6468 Y1.873 Z-0.1373
X1.6437 Y1.8748 Z-0.1388
X1.6404 Y1.8768 Z-0.1397
X1.637 Y1.8788 Z-0.14
G3 X1.6074 Y1.8875 I-0.0318 J-0.0536
G1 X1.4429
G3 X1.3602 Y1.8725 I0.0032 J-0.2534
G1 X1.3309 Y1.8611
G3 X1.2075 Y1.7862 I0.26 J-0.5674
X0.9706 Y1.5635 I1.0144 J-1.3168
X0.396 Y0.3358 I1.7608 J-1.5724
G1 X0.3907 Y0.3
G3 X0.9336 Y-1.5549 I2.3633 J-0.3152
X1.2608 Y-1.8746 I1.8025 J1.5176
X1.2975 Y-1.8876 I0.0367 J0.0455
G1 X1.4591 Y-1.8875
G3 X1.4821 Y-1.8699 I-0.0009 J0.025
G1 X1.4833 Y-1.8661 Z-0.1397
X1.4844 Y-1.8625 Z-0.1388
X1.4855 Y-1.859 Z-0.1373
X1.4864 Y-1.8558 Z-0.1352
X1.4873 Y-1.853 Z-0.1327
X1.4881 Y-1.8506 Z-0.1297
X1.4887 Y-1.8486 Z-0.1263
X1.4891 Y-1.8472 Z-0.1227
X1.4894 Y-1.8463 Z-0.1189
X1.4895 Y-1.846 Z-0.115
Z0.2
X1.4941 Y1.866
Z-0.09
Z-0.115
X1.4938 Y1.8662 Z-0.1189
X1.493 Y1.8666 Z-0.1227
X1.4917 Y1.8674 Z-0.1263
X1.49 Y1.8685 Z-0.1297
X1.4878 Y1.8698 Z-0.1327
X1.4852 Y1.8713 Z-0.1352
X1.4824 Y1.873 Z-0.1373
X1.4792 Y1.8748 Z-0.1388
X1.476 Y1.8768 Z-0.1397
X1.4726 Y1.8788 Z-0.14
G3 X1.4429 Y1.8875 I-0.0318 J-0.0536
G1 X1.2867
G3 X1.2131 Y1.874 I0.004 J-0.2285
G1 X1.187 Y1.8638
X1.1557 Y1.8487
G3 X1.0378 Y1.7652 I0.3394 J-0.6043
X0.8138 Y1.5295 I1.1411 J-1.309
X0.2895 Y0.2778 I1.9168 J-1.5386
X0.8295 Y-1.5824 I2.4625 J-0.2937
X1.1075 Y-1.873 I1.8903 J1.5304
X1.1459 Y-1.8875 I0.0384 J0.0437
G1 X1.2975
G3 X1.3205 Y-1.8699 I-0.0009 J0.025
G1 X1.3217 Y-1.8661 Z-0.1397
X1.3228 Y-1.8625 Z-0.1388
X1.3239 Y-1.859 Z-0.1373
X1.3248 Y-1.8558 Z-0.1352
X1.3257 Y-1.853 Z-0.1327
X1.3265 Y-1.8506 Z-0.1297
X1.3271 Y-1.8486 Z-0.1263
X1.3275 Y-1.8472 Z-0.1227
X1.3278 Y-1.8463 Z-0.1189
X1.3279 Y-1.846 Z-0.115
Z0.2
X1.3379 Y1.866
Z-0.09
Z-0.115
X1.3376 Y1.8662 Z-0.1189
X1.3368 Y1.8666 Z-0.1227
X1.3355 Y1.8674 Z-0.1263
X1.3338 Y1.8685 Z-0.1297
X1.3316 Y1.8698 Z-0.1327
X1.329 Y1.8713 Z-0.1352
X1.3261 Y1.873 Z-0.1373
X1.323 Y1.8748 Z-0.1388
X1.3197 Y1.8768 Z-0.1397
X1.3164 Y1.8788 Z-0.14
G3 X1.2867 Y1.8875 I-0.0319 J-0.0536
G1 X1.1387
G3 X1.0725 Y1.875 I0.0053 J-0.2099
G1 X1.0486 Y1.8657
X1.0208 Y1.8523
G3 X0.9039 Y1.7675 I0.2971 J-0.5321
X0.709 Y1.554 I1.0828 J-1.1845
X0.2215 Y0.4761 I2.007 J-1.557
X0.1889 Y0.2615 I2.3624 J-0.4689
X0.722 Y-1.6049 I2.565 J-0.2767
X0.9611 Y-1.8709 I1.9989 J1.5567
X1.0019 Y-1.8876 I0.0408 J0.0416
G1 X1.1459 Y-1.8875
G3 X1.169 Y-1.8699 I-0.0008 J0.025
G1 X1.1701 Y-1.8661 Z-0.1397
X1.1712 Y-1.8625 Z-0.1388
X1.1723 Y-1.859 Z-0.1373
X1.1733 Y-1.8558 Z-0.1352
X1.1742 Y-1.853 Z-0.1327
X1.1749 Y-1.8506 Z-0.1297
X1.1755 Y-1.8486 Z-0.1263
X1.176 Y-1.8472 Z-0.1227
X1.1762 Y-1.8463 Z-0.1189
X1.1763 Y-1.846 Z-0.115
Z0.2
X1.1899 Y1.866
Z-0.09
Z-0.115
X1.1896 Y1.8662 Z-0.1189
X1.1888 Y1.8666 Z-0.1227
X1.1875 Y1.8674 Z-0.1263
X1.1858 Y1.8685 Z-0.1297
X1.1836 Y1.8698 Z-0.1327
X1.181 Y1.8713 Z-0.1352
X1.1781 Y1.873 Z-0.1373
X1.175 Y1.8748 Z-0.1388
X1.1718 Y1.8768 Z-0.1397
X1.1684 Y1.8788 Z-0.14
G3 X1.1387 Y1.8875 I-0.0319 J-0.0536
G1 X0.999
G3 X0.9152 Y1.8671 I0.0083 J-0.2167
G1 X0.8897 Y1.8549
X0.8592 Y1.8369
G3 X0.7483 Y1.7443 I0.3913 J-0.5816
X0.543 Y1.4922 I1.2765 J-1.2492
X0.0859 Y0.2118 I2.1806 J-1.5002
X0.6356 Y-1.6533 I2.6656 J-0.2279
X0.8214 Y-1.8693 I2.0397 J1.5667
X0.8637 Y-1.8875 I0.0422 J0.0399
G1 X1.0019
G3 X1.025 Y-1.8699 I-0.0008 J0.025
G1 X1.0261 Y-1.8661 Z-0.1397
X1.0272 Y-1.8625 Z-0.1388
X1.0283 Y-1.859 Z-0.1373
X1.0293 Y-1.8558 Z-0.1352
X1.0301 Y-1.853 Z-0.1327
X1.0309 Y-1.8506 Z-0.1297
X1.0315 Y-1.8486 Z-0.1263
X1.0319 Y-1.8472 Z-0.1227
X1.0322 Y-1.8463 Z-0.1189
X1.0323 Y-1.846 Z-0.115
Z0.2
X1.0501 Y1.866
Z-0.09
Z-0.115
X1.0498 Y1.8662 Z-0.1189
X1.0491 Y1.8666 Z-0.1227
X1.0478 Y1.8674 Z-0.1263
X1.046 Y1.8685 Z-0.1297
X1.0438 Y1.8698 Z-0.1327
X1.0412 Y1.8713 Z-0.1352
X1.0384 Y1.873 Z-0.1373
X1.0353 Y1.8748 Z-0.1388
X1.032 Y1.8768 Z-0.1397
X1.0286 Y1.8788 Z-0.14
G3 X0.999 Y1.8875 I-0.0318 J-0.0536
G1 X0.8674
G3 X0.7855 Y1.8681 I0.0058 J-0.2069
G1 X0.7618 Y1.8567
X0.7337 Y1.8401
G3 X0.6236 Y1.7466 I0.354 J-0.5284
X0.444 Y1.5201 I1.2032 J-1.1387
X0.0545 Y0.63 I2.2427 J-1.5118
X-0.0135 Y0.2017 I2.6184 J-0.6351
X0.5252 Y-1.67 I2.7681 J-0.2167
X0.6874 Y-1.8689 I2.1676 J1.6025
X0.7301 Y-1.8874 I0.0427 J0.04
G1 X0.8637 Y-1.8875
G3 X0.8867 Y-1.8699 I-0.0009 J0.025
G1 X0.8879 Y-1.8661 Z-0.1397
X0.889 Y-1.8625 Z-0.1388
X0.89 Y-1.859 Z-0.1373
X0.891 Y-1.8558 Z-0.1352
X0.8919 Y-1.853 Z-0.1327
X0.8927 Y-1.8506 Z-0.1297
X0.8933 Y-1.8486 Z-0.1263
X0.8937 Y-1.8472 Z-0.1227
X0.894 Y-1.8463 Z-0.1189
X0.8941 Y-1.846 Z-0.115
Z0.2
X0.9186 Y1.866
Z-0.09
Z-0.115
X0.9183 Y1.8662 Z-0.1189
X0.9175 Y1.8666 Z-0.1227
X0.9162 Y1.8674 Z-0.1263
X0.9145 Y1.8685 Z-0.1297
X0.9123 Y1.8698 Z-0.1327
X0.9097 Y1.8713 Z-0.1352
X0.9068 Y1.873 Z-0.1373
X0.9037 Y1.8748 Z-0.1388
X0.9004 Y1.8768 Z-0.1397
X0.8971 Y1.8788 Z-0.14
G3 X0.8674 Y1.8875 I-0.0319 J-0.0536
G1 X0.7359
G3 X0.6593 Y1.869 I0.0072 J-0.1976
G1 X0.6369 Y1.8582
X0.6105 Y1.8427
X0.5809 Y1.8219
G3 X0.4768 Y1.7217 I0.4617 J-0.5834
X0.2876 Y1.4572 I1.4146 J-1.2116
X-0.0771 Y0.4797 I2.4165 J-1.4583
X-0.1128 Y0.1926 I2.6539 J-0.4758
X0.4147 Y-1.6853 I2.8674 J-0.2076
X0.5561 Y-1.8675 I2.2107 J1.5696
X0.6003 Y-1.8876 I0.0444 J0.0389
G1 X0.7301 Y-1.8875
G3 X0.7531 Y-1.8699 I-0.0009 J0.025
G1 X0.7542 Y-1.8661 Z-0.1397
X0.7554 Y-1.8625 Z-0.1388
X0.7564 Y-1.859 Z-0.1373
X0.7574 Y-1.8558 Z-0.1352
X0.7583 Y-1.853 Z-0.1327
X0.759 Y-1.8506 Z-0.1297
X0.7597 Y-1.8486 Z-0.1263
X0.7601 Y-1.8472 Z-0.1227
X0.7604 Y-1.8463 Z-0.1189
X0.7605 Y-1.846 Z-0.115
Z0.2
X0.787 Y1.866
Z-0.09
Z-0.115
X0.7867 Y1.8662 Z-0.1189
X0.786 Y1.8666 Z-0.1227
X0.7847 Y1.8674 Z-0.1263
X0.7829 Y1.8685 Z-0.1297
X0.7807 Y1.8698 Z-0.1327
X0.7782 Y1.8713 Z-0.1352
X0.7753 Y1.873 Z-0.1373
X0.7722 Y1.8748 Z-0.1388
X0.7689 Y1.8768 Z-0.1397
X0.7655 Y1.8788 Z-0.14
G3 X0.7359 Y1.8875 I-0.0318 J-0.0536
G1 X0.6125
G3 X0.5356 Y1.8695 I0.0044 J-0.1924
G1 X0.5142 Y1.8593
X0.4893 Y1.8446
X0.4601 Y1.8241
G3 X0.357 Y1.7229 I0.4337 J-0.5449
X0.1728 Y1.4549 I1.3942 J-1.1558
X-0.1428 Y0.6495 I2.5039 J-1.4456
X-0.2117 Y0.1847 I2.8095 J-0.654
X0.3045 Y-1.6989 I2.9659 J-0.1998
X0.4279 Y-1.8656 I2.2618 J1.5447
X0.4734 Y-1.8874 I0.0456 J0.0367
G1 X0.6003 Y-1.8875
G3 X0.6234 Y-1.8699 I-0.0008 J0.025
G1 X0.6245 Y-1.8661 Z-0.1397
X0.6256 Y-1.8625 Z-0.1388
X0.6267 Y-1.859 Z-0.1373
X0.6277 Y-1.8558 Z-0.1352
X0.6286 Y-1.853 Z-0.1327
X0.6293 Y-1.8506 Z-0.1297
X0.6299 Y-1.8486 Z-0.1263
X0.6304 Y-1.8472 Z-0.1227
X0.6306 Y-1.8463 Z-0.1189
X0.6307 Y-1.846 Z-0.115
Z0.2
X0.6637 Y1.866
Z-0.09
Z-0.115
X0.6634 Y1.8662 Z-0.1189
X0.6626 Y1.8666 Z-0.1227
X0.6613 Y1.8674 Z-0.1263
X0.6596 Y1.8685 Z-0.1297
X0.6574 Y1.8698 Z-0.1327
X0.6548 Y1.8713 Z-0.1352
X0.6519 Y1.873 Z-0.1373
X0.6488 Y1.8748 Z-0.1388
X0.6456 Y1.8768 Z-0.1397
X0.6422 Y1.8788 Z-0.14
G3 X0.6125 Y1.8875 I-0.0318 J-0.0536
G1 X0.4892
G3 X0.4143 Y1.8701 I0.004 J-0.1869
G1 X0.3938 Y1.8602
X0.3699 Y1.8462
X0.3423 Y1.8268
G3 X0.2398 Y1.725 I0.4047 J-0.5099
X0.0777 Y1.4856 I1.3032 J-1.0569
X-0.2103 Y0.7848 I2.5503 J-1.4574
X-0.3106 Y0.179 I2.8988 J-0.7912
X0.1936 Y-1.7103 I3.0643 J-0.1942
X0.3038 Y-1.8659 I2.2453 J1.4735
X0.3494 Y-1.8876 I0.0458 J0.0376
G1 X0.4734 Y-1.8875
G3 X0.4965 Y-1.8699 I-0.0008 J0.025
G1 X0.4976 Y-1.8661 Z-0.1397
X0.4987 Y-1.8625 Z-0.1388
X0.4998 Y-1.859 Z-0.1373
X0.5008 Y-1.8558 Z-0.1352
X0.5017 Y-1.853 Z-0.1327
X0.5024 Y-1.8506 Z-0.1297
X0.503 Y-1.8486 Z-0.1263
X0.5035 Y-1.8472 Z-0.1227
X0.5037 Y-1.8463 Z-0.1189
X0.5038 Y-1.846 Z-0.115
Z0.2
X0.5404 Y1.866
Z-0.09
Z-0.115
X0.5401 Y1.8662 Z-0.1189
X0.5393 Y1.8666 Z-0.1227
X0.538 Y1.8674 Z-0.1263
X0.5363 Y1.8685 Z-0.1297
X0.5341 Y1.8698 Z-0.1327
X0.5315 Y1.8713 Z-0.1352
X0.5286 Y1.873 Z-0.1373
X0.5255 Y1.8748 Z-0.1388
X0.5222 Y1.8768 Z-0.1397
X0.5189 Y1.8788 Z-0.14
G3 X0.4892 Y1.8875 I-0.0319 J-0.0536
G1 X0.3659
G3 X0.2951 Y1.8706 I0.0058 J-0.1811
G1 X0.2753 Y1.8611
X0.2523 Y1.8476
X0.2259 Y1.829
G3 X0.124 Y1.7267 I0.3814 J-0.4816
X-0.0345 Y1.485 I1.2772 J-1.0101
X-0.2941 Y0.8501 I2.6169 J-1.4407
X-0.4113 Y0.1376 I2.9907 J-0.8577
X0.1028 Y-1.7512 I3.1645 J-0.153
X0.1802 Y-1.8637 I1.9176 J1.237
X0.2274 Y-1.8876 I0.0473 J0.0349
G1 X0.3494 Y-1.8875
G3 X0.3724 Y-1.8699 I-0.0009 J0.025
G1 X0.3735 Y-1.8661 Z-0.1397
X0.3747 Y-1.8625 Z-0.1388
X0.3757 Y-1.859 Z-0.1373
X0.3767 Y-1.8558 Z-0.1352
X0.3776 Y-1.853 Z-0.1327
X0.3783 Y-1.8506 Z-0.1297
X0.379 Y-1.8486 Z-0.1263
X0.3794 Y-1.8472 Z-0.1227
X0.3797 Y-1.8463 Z-0.1189
X0.3798 Y-1.846 Z-0.115
Z0.2
X0.417 Y1.866
Z-0.09
Z-0.115
X0.4168 Y1.8662 Z-0.1189
X0.416 Y1.8666 Z-0.1227
X0.4147 Y1.8674 Z-0.1263
X0.4129 Y1.8685 Z-0.1297
X0.4107 Y1.8698 Z-0.1327
X0.4082 Y1.8713 Z-0.1352
X0.4053 Y1.873 Z-0.1373
X0.4022 Y1.8748 Z-0.1388
X0.3989 Y1.8768 Z-0.1397
X0.3955 Y1.8788 Z-0.14
G3 X0.3659 Y1.8875 I-0.0318 J-0.0536
G1 X0.2508
G3 X0.1773 Y1.8708 I0.0025 J-0.1808
G1 X0.1582 Y1.8616
X0.136 Y1.8485
X0.1106 Y1.8307
X0.0828 Y1.8076
G3 X-0.0128 Y1.6992 I0.4982 J-0.5355
X-0.1791 Y1.4197 I1.5236 J-1.096
X-0.4404 Y0.6701 I2.8213 J-1.4039
X-0.5099 Y0.1325 I3.1171 J-0.6764
X-0.0075 Y-1.7614 I3.2629 J-0.148
X0.0606 Y-1.864 I1.6427 J1.016
X0.1075 Y-1.8875 I0.0472 J0.0357
G1 X0.2274
G3 X0.2504 Y-1.8699 I-0.0009 J0.025
G1 X0.2516 Y-1.8661 Z-0.1397
X0.2527 Y-1.8625 Z-0.1388
X0.2538 Y-1.859 Z-0.1373
X0.2548 Y-1.8558 Z-0.1352
X0.2556 Y-1.853 Z-0.1327
X0.2564 Y-1.8506 Z-0.1297
X0.257 Y-1.8486 Z-0.1263
X0.2574 Y-1.8472 Z-0.1227
X0.2577 Y-1.8463 Z-0.1189
X0.2578 Y-1.846 Z-0.115
Z0.2
X0.3019 Y1.866
Z-0.09
Z-0.115
X0.3017 Y1.8662 Z-0.1189
X0.3009 Y1.8666 Z-0.1227
X0.2996 Y1.8674 Z-0.1263
X0.2978 Y1.8685 Z-0.1297
X0.2956 Y1.8698 Z-0.1327
X0.2931 Y1.8713 Z-0.1352
X0.2902 Y1.873 Z-0.1373
X0.2871 Y1.8748 Z-0.1388
X0.2838 Y1.8768 Z-0.1397
X0.2804 Y1.8788 Z-0.14
G3 X0.2508 Y1.8875 I-0.0318 J-0.0536
G1 X0.1357
G3 X0.0612 Y1.871 I0.0009 J-0.1805
G1 X0.0427 Y1.8621
X0.0211 Y1.8494
X-0.0034 Y1.8322
X-0.0312 Y1.809
G3 X-0.1259 Y1.6999 I0.4789 J-0.5117
X-0.2727 Y1.4508 I1.4433 J-1.0182
X-0.518 Y0.7717 I2.8551 J-1.4152
X-0.6085 Y0.1279 I3.1994 J-0.7779
X-0.1175 Y-1.7707 I3.3605 J-0.1437
X-0.0571 Y-1.8649 I1.2854 J0.7582
X-0.011 Y-1.8874 I0.0462 J0.0361
G1 X0.1075 Y-1.8875
G3 X0.1306 Y-1.8699 I-0.0008 J0.025
G1 X0.1317 Y-1.8661 Z-0.1397
X0.1328 Y-1.8625 Z-0.1388
X0.1339 Y-1.859 Z-0.1373
X0.1349 Y-1.8558 Z-0.1352
X0.1358 Y-1.853 Z-0.1327
X0.1365 Y-1.8506 Z-0.1297
X0.1371 Y-1.8486 Z-0.1263
X0.1376 Y-1.8472 Z-0.1227
X0.1378 Y-1.8463 Z-0.1189
X0.1379 Y-1.846 Z-0.115
Z0.2
X0.1868 Y1.866
Z-0.09
Z-0.115
X0.1866 Y1.8662 Z-0.1189
X0.1858 Y1.8666 Z-0.1227
X0.1845 Y1.8674 Z-0.1263
X0.1827 Y1.8685 Z-0.1297
X0.1805 Y1.8698 Z-0.1327
X0.178 Y1.8713 Z-0.1352
X0.1751 Y1.873 Z-0.1373
X0.172 Y1.8748 Z-0.1388
X0.1687 Y1.8768 Z-0.1397
X0.1653 Y1.8788 Z-0.14
G3 X0.1357 Y1.8875 I-0.0318 J-0.0536
G1 X0.0123
G3 X-0.053 Y1.8716 I0.007 J-0.1714
G1 X-0.0712 Y1.8629
X-0.0923 Y1.8505
X-0.1159 Y1.8339
X-0.1428 Y1.8116
G3 X-0.2371 Y1.7022 I0.458 J-0.4899
X-0.3812 Y1.4516 I1.4165 J-0.9811
X-0.6114 Y0.8051 I2.9173 J-1.4029
X-0.7073 Y0.1256 I3.2946 J-0.8114
X-0.2283 Y-1.7778 I3.4585 J-0.1416
G1 X-0.2097 Y-1.8089
X-0.1907 Y-1.8397
X-0.1762 Y-1.8615
G3 X-0.1276 Y-1.8876 I0.0486 J0.0323
G1 X-0.011 Y-1.8875
G3 X0.0121 Y-1.8699 I-0.0008 J0.025
G1 X0.0132 Y-1.8661 Z-0.1397
X0.0143 Y-1.8625 Z-0.1388
X0.0154 Y-1.859 Z-0.1373
X0.0164 Y-1.8558 Z-0.1352
X0.0173 Y-1.853 Z-0.1327
X0.018 Y-1.8506 Z-0.1297
X0.0186 Y-1.8486 Z-0.1263
X0.0191 Y-1.8472 Z-0.1227
X0.0193 Y-1.8463 Z-0.1189
X0.0194 Y-1.846 Z-0.115
Z0.2
X0.0635 Y1.866
Z-0.09
Z-0.115
X0.0632 Y1.8662 Z-0.1189
X0.0624 Y1.8666 Z-0.1227
X0.0611 Y1.8674 Z-0.1263
X0.0594 Y1.8685 Z-0.1297
X0.0572 Y1.8698 Z-0.1327
X0.0546 Y1.8713 Z-0.1352
X0.0518 Y1.873 Z-0.1373
X0.0486 Y1.8748 Z-0.1388
X0.0454 Y1.8768 Z-0.1397
X0.042 Y1.8788 Z-0.14
G3 X0.0123 Y1.8875 I-0.0318 J-0.0536
G1 X-0.0946
G3 X-0.1844 Y1.8629 I0.0024 J-0.1848
G1 X-0.2049 Y1.8509
X-0.228 Y1.8347
X-0.2539 Y1.8133
G3 X-0.3478 Y1.7035 I0.4389 J-0.4704
X-0.4893 Y1.4514 I1.3921 J-0.9473
X-0.6958 Y0.873 I2.9504 J-1.3794
X-0.8059 Y0.1227 I3.3832 J-0.8796
X-0.338 Y-1.7849 I3.5562 J-0.1389
G1 X-0.3199 Y-1.8163
X-0.3012 Y-1.8473
X-0.2913 Y-1.8619
G3 X-0.243 Y-1.8875 I0.0483 J0.0327
G1 X-0.1276
G3 X-0.1046 Y-1.8699 I-0.0009 J0.025
G1 X-0.1035 Y-1.8661 Z-0.1397
X-0.1023 Y-1.8625 Z-0.1388
X-0.1013 Y-1.859 Z-0.1373
X-0.1003 Y-1.8558 Z-0.1352
X-0.0994 Y-1.853 Z-0.1327
X-0.0987 Y-1.8506 Z-0.1297
X-0.0981 Y-1.8486 Z-0.1263
X-0.0976 Y-1.8472 Z-0.1227
X-0.0973 Y-1.8463 Z-0.1189
Y-1.846 Z-0.115
Z0.2
X-0.0434 Y1.866
Z-0.09
Z-0.115
X-0.0437 Y1.8662 Z-0.1189
X-0.0444 Y1.8666 Z-0.1227
X-0.0457 Y1.8674 Z-0.1263
X-0.0475 Y1.8685 Z-0.1297
X-0.0497 Y1.8698 Z-0.1327
X-0.0523 Y1.8713 Z-0.1352
X-0.0551 Y1.873 Z-0.1373
X-0.0582 Y1.8748 Z-0.1388
X-0.0615 Y1.8768 Z-0.1397
X-0.0649 Y1.8788 Z-0.14
G3 X-0.0946 Y1.8875 I-0.0318 J-0.0536
G1 X-0.2097
G3 X-0.2962 Y1.8633 I0.004 J-0.1813
G1 X-0.3164 Y1.8516
X-0.3389 Y1.8358
X-0.364 Y1.8149
G3 X-0.4575 Y1.7048 I0.4235 J-0.4545
X-0.5967 Y1.4515 I1.3681 J-0.9165
X-0.7889 Y0.9062 I2.9868 J-1.3595
X-0.9045 Y0.1203 I3.4761 J-0.9127
X-0.4474 Y-1.7913 I3.6538 J-0.1367
G1 X-0.4298 Y-1.8229
X-0.4112 Y-1.8539
G3 X-0.3793 Y-1.8833 I0.0599 J0.033
G1 X-0.3685 Y-1.8864
X-0.3574 Y-1.8875
X-0.243
G3 X-0.22 Y-1.8699 I-0.0009 J0.025
G1 X-0.2189 Y-1.8661 Z-0.1397
X-0.2177 Y-1.8625 Z-0.1388
X-0.2167 Y-1.859 Z-0.1373
X-0.2157 Y-1.8558 Z-0.1352
X-0.2148 Y-1.853 Z-0.1327
X-0.2141 Y-1.8506 Z-0.1297
X-0.2134 Y-1.8486 Z-0.1263
X-0.213 Y-1.8472 Z-0.1227
X-0.2127 Y-1.8463 Z-0.1189
X-0.2126 Y-1.846 Z-0.115
Z0.2
X-0.1585 Y1.866
Z-0.09
Z-0.115
X-0.1588 Y1.8662 Z-0.1189
X-0.1596 Y1.8666 Z-0.1227
X-0.1608 Y1.8674 Z-0.1263
X-0.1626 Y1.8685 Z-0.1297
X-0.1648 Y1.8698 Z-0.1327
X-0.1674 Y1.8713 Z-0.1352
X-0.1702 Y1.873 Z-0.1373
X-0.1733 Y1.8748 Z-0.1388
X-0.1766 Y1.8768 Z-0.1397
X-0.18 Y1.8788 Z-0.14
G3 X-0.2097 Y1.8875 I-0.0318 J-0.0536
G1 X-0.3248
G3 X-0.4071 Y1.8638 I0.0068 J-0.178
G1 X-0.4269 Y1.8523
X-0.449 Y1.8368
X-0.4735 Y1.8164
G3 X-0.5666 Y1.7061 I0.4103 J-0.4409
X-0.6887 Y1.4845 I1.2728 J-0.8458
X-0.8726 Y0.9746 I2.9363 J-1.347
X-1.0032 Y0.1182 I3.5552 J-0.9803
X-0.5564 Y-1.7972 I3.7509 J-0.1349
G1 X-0.5392 Y-1.829
X-0.521 Y-1.8593
G3 X-0.4708 Y-1.8875 I0.0506 J0.0312
G1 X-0.3574
G3 X-0.3343 Y-1.8699 I-0.0008 J0.025
G1 X-0.3332 Y-1.8661 Z-0.1397
X-0.3321 Y-1.8625 Z-0.1388
X-0.331 Y-1.859 Z-0.1373
X-0.33 Y-1.8558 Z-0.1352
X-0.3291 Y-1.853 Z-0.1327
X-0.3284 Y-1.8506 Z-0.1297
X-0.3278 Y-1.8486 Z-0.1263
X-0.3273 Y-1.8472 Z-0.1227
X-0.3271 Y-1.8463 Z-0.1189
X-0.327 Y-1.846 Z-0.115
Z0.2
X-0.2736 Y1.866
Z-0.09
Z-0.115
X-0.2739 Y1.8662 Z-0.1189
X-0.2747 Y1.8666 Z-0.1227
X-0.2759 Y1.8674 Z-0.1263
X-0.2777 Y1.8685 Z-0.1297
X-0.2799 Y1.8698 Z-0.1327
X-0.2825 Y1.8713 Z-0.1352
X-0.2853 Y1.873 Z-0.1373
X-0.2885 Y1.8748 Z-0.1388
X-0.2917 Y1.8768 Z-0.1397
X-0.2951 Y1.8788 Z-0.14
G3 X-0.3248 Y1.8875 I-0.0318 J-0.0536
G1 X-0.4316
G3 X-0.5174 Y1.8639 I0.0028 J-0.1778
G1 X-0.5369 Y1.8526
X-0.5586 Y1.8373
X-0.5824 Y1.8175
X-0.6083 Y1.7923
G3 X-0.695 Y1.6766 I0.537 J-0.4926
X-0.8246 Y1.4181 I1.5451 J-0.9364
X-1.0177 Y0.7971 I3.2325 J-1.3456
X-1.1021 Y0.1158 I3.7011 J-0.8041
X-0.6651 Y-1.803 I3.8498 J-0.1324
G1 X-0.6479 Y-1.8349
X-0.6317 Y-1.8618
G3 X-0.5833 Y-1.8875 I0.0485 J0.0328
G1 X-0.4708
G3 X-0.4478 Y-1.8699 I-0.0009 J0.025
G1 X-0.4466 Y-1.8661 Z-0.1397
X-0.4455 Y-1.8625 Z-0.1388
X-0.4444 Y-1.859 Z-0.1373
X-0.4435 Y-1.8558 Z-0.1352
X-0.4426 Y-1.853 Z-0.1327
X-0.4418 Y-1.8506 Z-0.1297
X-0.4412 Y-1.8486 Z-0.1263
X-0.4408 Y-1.8472 Z-0.1227
X-0.4405 Y-1.8463 Z-0.1189
X-0.4404 Y-1.846 Z-0.115
Z0.2
X-0.3805 Y1.866
Z-0.09
Z-0.115
X-0.3808 Y1.8662 Z-0.1189
X-0.3815 Y1.8666 Z-0.1227
X-0.3828 Y1.8674 Z-0.1263
X-0.3846 Y1.8685 Z-0.1297
X-0.3868 Y1.8698 Z-0.1327
X-0.3893 Y1.8713 Z-0.1352
X-0.3922 Y1.873 Z-0.1373
X-0.3953 Y1.8748 Z-0.1388
X-0.3986 Y1.8768 Z-0.1397
X-0.402 Y1.8788 Z-0.14
G3 X-0.4316 Y1.8875 I-0.0318 J-0.0536
G1 X-0.5468
G3 X-0.6267 Y1.8643 I0.0073 J-0.1743
G1 X-0.6459 Y1.8532
X-0.6672 Y1.8382
X-0.6906 Y1.8188
X-0.7165 Y1.7935
G3 X-0.8027 Y1.6775 I0.525 J-0.4802
X-0.9303 Y1.4181 I1.5263 J-0.9118
X-1.1112 Y0.831 I3.2637 J-1.3272
X-1.2007 Y0.114 I3.7946 J-0.838
X-0.7733 Y-1.808 I3.9469 J-0.1308
G1 X-0.7564 Y-1.84
X-0.7445 Y-1.8595
G3 X-0.6947 Y-1.8875 I0.0498 J0.0303
G1 X-0.5833
G3 X-0.5602 Y-1.8699 I-0.0008 J0.025
G1 X-0.5591 Y-1.8661 Z-0.1397
X-0.558 Y-1.8625 Z-0.1388
X-0.5569 Y-1.859 Z-0.1373
X-0.5559 Y-1.8558 Z-0.1352
X-0.555 Y-1.853 Z-0.1327
X-0.5543 Y-1.8506 Z-0.1297
X-0.5537 Y-1.8486 Z-0.1263
X-0.5532 Y-1.8472 Z-0.1227
X-0.553 Y-1.8463 Z-0.1189
X-0.5529 Y-1.846 Z-0.115
Z0.2
X-0.4956 Y1.866
Z-0.09
Z-0.115
X-0.4959 Y1.8662 Z-0.1189
X-0.4966 Y1.8666 Z-0.1227
X-0.4979 Y1.8674 Z-0.1263
X-0.4997 Y1.8685 Z-0.1297
X-0.5019 Y1.8698 Z-0.1327
X-0.5045 Y1.8713 Z-0.1352
X-0.5073 Y1.873 Z-0.1373
X-0.5104 Y1.8748 Z-0.1388
X-0.5137 Y1.8768 Z-0.1397
X-0.5171 Y1.8788 Z-0.14
G3 X-0.5468 Y1.8875 I-0.0318 J-0.0536
G1 X-0.6536
G3 X-0.7355 Y1.8644 I0.0046 J-0.1732
G1 X-0.7544 Y1.8535
X-0.7754 Y1.8387
X-0.7984 Y1.8197
X-0.8243 Y1.7944
G3 X-0.9101 Y1.6781 I0.5141 J-0.4689
X-1.0358 Y1.4178 I1.5094 J-0.8895
X-1.2125 Y0.8294 I3.313 J-1.3158
X-1.2996 Y0.112 I3.8905 J-0.8361
X-0.8812 Y-1.8131 I4.044 J-0.1291
G1 X-0.8642 Y-1.845
X-0.8548 Y-1.86
G3 X-0.8053 Y-1.8875 I0.0495 J0.0308
G1 X-0.6947
G3 X-0.6716 Y-1.8699 I-0.0008 J0.025
G1 X-0.6705 Y-1.8661 Z-0.1397
X-0.6694 Y-1.8625 Z-0.1388
X-0.6683 Y-1.859 Z-0.1373
X-0.6673 Y-1.8558 Z-0.1352
X-0.6664 Y-1.853 Z-0.1327
X-0.6657 Y-1.8506 Z-0.1297
X-0.6651 Y-1.8486 Z-0.1263
X-0.6646 Y-1.8472 Z-0.1227
X-0.6644 Y-1.8463 Z-0.1189
X-0.6643 Y-1.846 Z-0.115
Z0.2
X-0.6025 Y1.866
Z-0.09
Z-0.115
X-0.6027 Y1.8662 Z-0.1189
X-0.6035 Y1.8666 Z-0.1227
X-0.6048 Y1.8674 Z-0.1263
X-0.6066 Y1.8685 Z-0.1297
X-0.6088 Y1.8698 Z-0.1327
X-0.6113 Y1.8713 Z-0.1352
X-0.6142 Y1.873 Z-0.1373
X-0.6173 Y1.8748 Z-0.1388
X-0.6206 Y1.8768 Z-0.1397
X-0.624 Y1.8788 Z-0.14
G3 X-0.6536 Y1.8875 I-0.0318 J-0.0536
G1 X-0.7605
G3 X-0.8437 Y1.8645 I0.0029 J-0.1729
G1 X-0.8624 Y1.8537
X-0.8831 Y1.8392
X-0.9057 Y1.8204
X-0.9314 Y1.7953
G3 X-1.0168 Y1.6788 I0.5033 J-0.4585
X-1.1408 Y1.4176 I1.4915 J-0.8683
X-1.3061 Y0.8635 I3.3271 J-1.2939
X-1.3983 Y0.1104 I3.9834 J-0.8701
X-0.9887 Y-1.8175 I4.1404 J-0.1278
G1 X-0.9716 Y-1.8494
X-0.9645 Y-1.8605
G3 X-0.9153 Y-1.8875 I0.0492 J0.0313
G1 X-0.8053
G3 X-0.7822 Y-1.8699 I-0.0008 J0.025
G1 X-0.7811 Y-1.8661 Z-0.1397
X-0.78 Y-1.8625 Z-0.1388
X-0.7789 Y-1.859 Z-0.1373
X-0.7779 Y-1.8558 Z-0.1352
X-0.777 Y-1.853 Z-0.1327
X-0.7763 Y-1.8506 Z-0.1297
X-0.7757 Y-1.8486 Z-0.1263
X-0.7753 Y-1.8472 Z-0.1227
X-0.775 Y-1.8463 Z-0.1189
X-0.7749 Y-1.846 Z-0.115
Z0.2
X-0.7094 Y1.866
Z-0.09
Z-0.115
X-0.7096 Y1.8662 Z-0.1189
X-0.7104 Y1.8666 Z-0.1227
X-0.7117 Y1.8674 Z-0.1263
X-0.7135 Y1.8685 Z-0.1297
X-0.7157 Y1.8698 Z-0.1327
X-0.7182 Y1.8713 Z-0.1352
X-0.7211 Y1.873 Z-0.1373
X-0.7242 Y1.8748 Z-0.1388
X-0.7275 Y1.8768 Z-0.1397
X-0.7308 Y1.8788 Z-0.14
G3 X-0.7605 Y1.8875 I-0.0319 J-0.0536
G1 X-0.8756
G3 X-0.9511 Y1.8651 I0.0095 J-0.1702
G1 X-0.9696 Y1.8543
X-0.9901 Y1.8399
X-1.0123 Y1.8215
X-1.0376 Y1.7968
G3 X-1.1228 Y1.6801 I0.4922 J-0.4488
X-1.2453 Y1.4182 I1.4708 J-0.8477
X-1.3995 Y0.8984 I3.3266 J-1.2694
X-1.498 Y0.0735 I4.082 J-0.906
X-1.0963 Y-1.821 I4.2367 J-0.0915
G1 X-1.0798 Y-1.8513
X-1.0664 Y-1.8721
G3 X-1.0354 Y-1.8875 I0.031 J0.0236
G1 X-0.9153
G3 X-0.8922 Y-1.8699 I-0.0008 J0.025
G1 X-0.8911 Y-1.8661 Z-0.1397
X-0.89 Y-1.8625 Z-0.1388
X-0.8889 Y-1.859 Z-0.1373
X-0.8879 Y-1.8558 Z-0.1352
X-0.887 Y-1.853 Z-0.1327
X-0.8863 Y-1.8506 Z-0.1297
X-0.8857 Y-1.8486 Z-0.1263
X-0.8853 Y-1.8472 Z-0.1227
X-0.885 Y-1.8463 Z-0.1189
X-0.8849 Y-1.846 Z-0.115
Z0.2
X-0.8245 Y1.866
Z-0.09
Z-0.115
X-0.8247 Y1.8662 Z-0.1189
X-0.8255 Y1.8666 Z-0.1227
X-0.8268 Y1.8674 Z-0.1263
X-0.8286 Y1.8685 Z-0.1297
X-0.8308 Y1.8698 Z-0.1327
X-0.8333 Y1.8713 Z-0.1352
X-0.8362 Y1.873 Z-0.1373
X-0.8393 Y1.8748 Z-0.1388
X-0.8426 Y1.8768 Z-0.1397
X-0.846 Y1.8788 Z-0.14
G3 X-0.8756 Y1.8875 I-0.0318 J-0.0536
G1 X-0.9825
G3 X-1.0582 Y1.8652 I0.0085 J-0.1685
G1 X-1.0765 Y1.8546
X-1.0968 Y1.8403
X-1.1187 Y1.8221
X-1.1436 Y1.7979
G3 X-1.2286 Y1.681 I0.4819 J-0.4397
X-1.3496 Y1.4185 I1.4521 J-0.8288
X-1.5006 Y0.8978 I3.3579 J-1.2563
X-1.5968 Y0.0725 I4.177 J-0.905
X-1.2185 Y-1.7915 I4.3346 J-0.0907
G1 X-1.2029 Y-1.8242
X-1.1865 Y-1.8557
X-1.1744 Y-1.875
G3 X-1.1494 Y-1.8876 I0.025 J0.0186
G1 X-1.0354 Y-1.8875
G3 X-1.0123 Y-1.8699 I-0.0008 J0.025
G1 X-1.0112 Y-1.8661 Z-0.1397
X-1.0101 Y-1.8625 Z-0.1388
X-1.009 Y-1.859 Z-0.1373
X-1.008 Y-1.8558 Z-0.1352
X-1.0071 Y-1.853 Z-0.1327
X-1.0064 Y-1.8506 Z-0.1297
X-1.0058 Y-1.8486 Z-0.1263
X-1.0054 Y-1.8472 Z-0.1227
X-1.0051 Y-1.8463 Z-0.1189
X-1.005 Y-1.846 Z-0.115
Z0.2
X-0.9314 Y1.866
Z-0.09
Z-0.115
X-0.9316 Y1.8662 Z-0.1189
X-0.9324 Y1.8666 Z-0.1227
X-0.9337 Y1.8674 Z-0.1263
X-0.9355 Y1.8685 Z-0.1297
X-0.9376 Y1.8698 Z-0.1327
X-0.9402 Y1.8713 Z-0.1352
X-0.9431 Y1.873 Z-0.1373
X-0.9462 Y1.8748 Z-0.1388
X-0.9495 Y1.8768 Z-0.1397
X-0.9528 Y1.8788 Z-0.14
G3 X-0.9825 Y1.8875 I-0.0319 J-0.0536
G1 X-1.0894
G3 X-1.1649 Y1.8653 I0.0082 J-0.1673
G1 X-1.183 Y1.8548
X-1.2031 Y1.8407
X-1.2247 Y1.8227
X-1.2492 Y1.7988
G3 X-1.3339 Y1.6819 I0.4726 J-0.4316
X-1.4536 Y1.4187 I1.4342 J-0.8114
X-1.5941 Y0.9325 I3.3401 J-1.2284
X-1.6956 Y0.0715 I4.2668 J-0.9395
X-1.325 Y-1.7947 I4.4306 J-0.09
G1 X-1.3096 Y-1.8275
X-1.2941 Y-1.8578
X-1.2824 Y-1.8765
X-1.2765 Y-1.8824
X-1.269 Y-1.8862
X-1.2608 Y-1.8875
X-1.1494
G3 X-1.1264 Y-1.8699 I-0.0009 J0.025
G1 X-1.1253 Y-1.8661 Z-0.1397
X-1.1241 Y-1.8625 Z-0.1388
X-1.1231 Y-1.859 Z-0.1373
X-1.1221 Y-1.8558 Z-0.1352
X-1.1212 Y-1.853 Z-0.1327
X-1.1205 Y-1.8506 Z-0.1297
X-1.1198 Y-1.8486 Z-0.1263
X-1.1194 Y-1.8472 Z-0.1227
X-1.1191 Y-1.8463 Z-0.1189
X-1.119 Y-1.846 Z-0.115
Z0.2
X-1.0382 Y1.866
Z-0.09
Z-0.115
X-1.0385 Y1.8662 Z-0.1189
X-1.0393 Y1.8666 Z-0.1227
X-1.0406 Y1.8674 Z-0.1263
X-1.0423 Y1.8685 Z-0.1297
X-1.0445 Y1.8698 Z-0.1327
X-1.0471 Y1.8713 Z-0.1352
X-1.05 Y1.873 Z-0.1373
X-1.0531 Y1.8748 Z-0.1388
X-1.0564 Y1.8768 Z-0.1397
X-1.0597 Y1.8788 Z-0.14
G3 X-1.0894 Y1.8875 I-0.0319 J-0.0536
G1 X-1.1963
G3 X-1.2711 Y1.8655 I0.0084 J-0.1664
G1 X-1.289 Y1.8551
X-1.309 Y1.841
X-1.3303 Y1.8233
X-1.3545 Y1.7997
G3 X-1.439 Y1.6826 I0.4643 J-0.4243
X-1.5449 Y1.4529 I1.3399 J-0.7568
X-1.6875 Y0.9673 I3.2559 J-1.2198
X-1.7944 Y0.0706 I4.3451 J-0.9729
X-1.4312 Y-1.7977 I4.5257 J-0.0897
G1 X-1.416 Y-1.8305
X-1.4015 Y-1.8591
X-1.3902 Y-1.8775
X-1.3848 Y-1.8829
X-1.378 Y-1.8863
X-1.3705 Y-1.8875
X-1.2608
G3 X-1.2377 Y-1.8699 I-0.0008 J0.025
G1 X-1.2366 Y-1.8661 Z-0.1397
X-1.2355 Y-1.8625 Z-0.1388
X-1.2344 Y-1.859 Z-0.1373
X-1.2334 Y-1.8558 Z-0.1352
X-1.2325 Y-1.853 Z-0.1327
X-1.2318 Y-1.8506 Z-0.1297
X-1.2312 Y-1.8486 Z-0.1263
X-1.2307 Y-1.8472 Z-0.1227
X-1.2305 Y-1.8463 Z-0.1189
X-1.2304 Y-1.846 Z-0.115
Z0.2
X-1.1451 Y1.866
Z-0.09
Z-0.115
X-1.1454 Y1.8662 Z-0.1189
X-1.1462 Y1.8666 Z-0.1227
X-1.1475 Y1.8674 Z-0.1263
X-1.1492 Y1.8685 Z-0.1297
X-1.1514 Y1.8698 Z-0.1327
X-1.154 Y1.8713 Z-0.1352
X-1.1569 Y1.873 Z-0.1373
X-1.16 Y1.8748 Z-0.1388
X-1.1632 Y1.8768 Z-0.1397
X-1.1666 Y1.8788 Z-0.14
G3 X-1.1963 Y1.8875 I-0.0318 J-0.0536
G1 X-1.3032
G3 X-1.3769 Y1.8656 I0.0091 J-0.1657
G1 X-1.3947 Y1.8553
X-1.4145 Y1.8414
X-1.4356 Y1.8238
X-1.4595 Y1.8005
G3 X-1.5438 Y1.6833 I0.4569 J-0.4178
X-1.6487 Y1.4531 I1.3243 J-0.7423
X-1.7809 Y1.0021 I3.2136 J-1.1868
X-1.8933 Y0.0698 I4.4307 J-1.0071
X-1.5373 Y-1.8005 I4.6211 J-0.0894
G1 X-1.5221 Y-1.8333
X-1.5083 Y-1.8605
X-1.4974 Y-1.8783
X-1.4925 Y-1.8832
X-1.4863 Y-1.8864
X-1.4794 Y-1.8875
X-1.3705
G3 X-1.3475 Y-1.8699 I-0.0009 J0.025
G1 X-1.3463 Y-1.8661 Z-0.1397
X-1.3452 Y-1.8625 Z-0.1388
X-1.3441 Y-1.859 Z-0.1373
X-1.3431 Y-1.8558 Z-0.1352
X-1.3423 Y-1.853 Z-0.1327
X-1.3415 Y-1.8506 Z-0.1297
X-1.3409 Y-1.8486 Z-0.1263
X-1.3405 Y-1.8472 Z-0.1227
X-1.3402 Y-1.8463 Z-0.1189
X-1.3401 Y-1.846 Z-0.115
Z0.2
X-1.252 Y1.866
Z-0.09
Z-0.115
X-1.2523 Y1.8662 Z-0.1189
X-1.2531 Y1.8666 Z-0.1227
X-1.2543 Y1.8674 Z-0.1263
X-1.2561 Y1.8685 Z-0.1297
X-1.2583 Y1.8698 Z-0.1327
X-1.2609 Y1.8713 Z-0.1352
X-1.2637 Y1.873 Z-0.1373
X-1.2668 Y1.8748 Z-0.1388
X-1.2701 Y1.8768 Z-0.1397
X-1.2735 Y1.8788 Z-0.14
G3 X-1.3032 Y1.8875 I-0.0318 J-0.0536
G1 X-1.4018
G3 X-1.4827 Y1.8654 I0.0022 J-0.1668
G1 X-1.5002 Y1.8552
X-1.5199 Y1.8413
X-1.5407 Y1.824
X-1.5643 Y1.801
G3 X-1.6485 Y1.6837 I0.4497 J-0.4116
X-1.7524 Y1.453 I1.3103 J-0.7289
X-1.8823 Y1.0014 I3.2265 J-1.1723
X-1.9923 Y0.0687 I4.5226 J-1.006
X-1.6566 Y-1.77 I4.719 J-0.0884
G1 X-1.6425 Y-1.8033
X-1.6277 Y-1.8363
X-1.6146 Y-1.8622
X-1.6041 Y-1.8793
X-1.5997 Y-1.8837
X-1.5942 Y-1.8865
X-1.588 Y-1.8875
X-1.4794
G3 X-1.4564 Y-1.8699 I-0.0009 J0.025
G1 X-1.4552 Y-1.8661 Z-0.1397
X-1.4541 Y-1.8625 Z-0.1388
X-1.453 Y-1.859 Z-0.1373
X-1.4521 Y-1.8558 Z-0.1352
X-1.4512 Y-1.853 Z-0.1327
X-1.4504 Y-1.8506 Z-0.1297
X-1.4498 Y-1.8486 Z-0.1263
X-1.4494 Y-1.8472 Z-0.1227
X-1.4491 Y-1.8463 Z-0.1189
X-1.449 Y-1.846 Z-0.115
Z0.2
X-1.3507 Y1.866
Z-0.09
Z-0.115
X-1.3509 Y1.8662 Z-0.1189
X-1.3517 Y1.8666 Z-0.1227
X-1.353 Y1.8674 Z-0.1263
X-1.3548 Y1.8685 Z-0.1297
X-1.357 Y1.8698 Z-0.1327
X-1.3595 Y1.8713 Z-0.1352
X-1.3624 Y1.873 Z-0.1373
X-1.3655 Y1.8748 Z-0.1388
X-1.3688 Y1.8768 Z-0.1397
X-1.3722 Y1.8788 Z-0.14
G3 X-1.4018 Y1.8875 I-0.0318 J-0.0536
G1 X-1.5087
G3 X-1.5877 Y1.8655 I0.0035 J-0.1653
G1 X-1.6051 Y1.8554
X-1.6247 Y1.8416
X-1.6454 Y1.8245
X-1.6687 Y1.8017
G3 X-1.7528 Y1.6842 I0.4436 J-0.4063
X-1.8558 Y1.4532 I1.2963 J-0.7162
X-1.9835 Y1.0009 I3.2363 J-1.158
X-2.0911 Y0.0679 I4.6133 J-1.0049
X-1.7618 Y-1.7723 I4.8147 J-0.088
G1 X-1.7478 Y-1.8057
X-1.7331 Y-1.8388
X-1.7205 Y-1.8637
X-1.7104 Y-1.8803
X-1.7065 Y-1.8842
X-1.7016 Y-1.8866
X-1.6962 Y-1.8875
X-1.588
G3 X-1.565 Y-1.8699 I-0.0009 J0.025
G1 X-1.5638 Y-1.8661 Z-0.1397
X-1.5627 Y-1.8625 Z-0.1388
X-1.5616 Y-1.859 Z-0.1373
X-1.5607 Y-1.8558 Z-0.1352
X-1.5598 Y-1.853 Z-0.1327
X-1.559 Y-1.8506 Z-0.1297
X-1.5584 Y-1.8486 Z-0.1263
X-1.558 Y-1.8472 Z-0.1227
X-1.5577 Y-1.8463 Z-0.1189
X-1.5576 Y-1.846 Z-0.115
Z0.2
X-1.4575 Y1.866
Z-0.09
Z-0.115
X-1.4578 Y1.8662 Z-0.1189
X-1.4586 Y1.8666 Z-0.1227
X-1.4599 Y1.8674 Z-0.1263
X-1.4617 Y1.8685 Z-0.1297
X-1.4638 Y1.8698 Z-0.1327
X-1.4664 Y1.8713 Z-0.1352
X-1.4693 Y1.873 Z-0.1373
X-1.4724 Y1.8748 Z-0.1388
X-1.4757 Y1.8768 Z-0.1397
X-1.479 Y1.8788 Z-0.14
G3 X-1.5087 Y1.8875 I-0.0319 J-0.0536
G1 X-1.6156
G3 X-1.6925 Y1.8657 I0.005 J-0.1639
G1 X-1.7098 Y1.8556
X-1.7292 Y1.842
X-1.7498 Y1.8249
X-1.7729 Y1.8023
G3 X-1.8568 Y1.6848 I0.4382 J-0.4015
X-1.9589 Y1.4534 I1.2833 J-0.7047
X-2.0846 Y1.0005 I3.2446 J-1.1442
X-2.19 Y0.0673 I4.7027 J-1.0039
X-1.8668 Y-1.7746 I4.9101 J-0.0878
G1 X-1.853 Y-1.808
X-1.8384 Y-1.8411
X-1.8262 Y-1.8651
X-1.8163 Y-1.8813
X-1.8129 Y-1.8846
X-1.8087 Y-1.8868
X-1.804 Y-1.8875
X-1.6962
G3 X-1.6732 Y-1.8699 I-0.0009 J0.025
G1 X-1.672 Y-1.8661 Z-0.1397
X-1.6709 Y-1.8625 Z-0.1388
X-1.6699 Y-1.859 Z-0.1373
X-1.6689 Y-1.8558 Z-0.1352
X-1.668 Y-1.853 Z-0.1327
X-1.6672 Y-1.8506 Z-0.1297
X-1.6666 Y-1.8486 Z-0.1263
X-1.6662 Y-1.8472 Z-0.1227
X-1.6659 Y-1.8463 Z-0.1189
X-1.6658 Y-1.846 Z-0.115
Z0.2
X-1.5644 Y1.866
Z-0.09
Z-0.115
X-1.5647 Y1.8662 Z-0.1189
X-1.5655 Y1.8666 Z-0.1227
X-1.5668 Y1.8674 Z-0.1263
X-1.5685 Y1.8685 Z-0.1297
X-1.5707 Y1.8698 Z-0.1327
X-1.5733 Y1.8713 Z-0.1352
X-1.5762 Y1.873 Z-0.1373
X-1.5793 Y1.8748 Z-0.1388
X-1.5826 Y1.8768 Z-0.1397
X-1.5859 Y1.8788 Z-0.14
G3 X-1.6156 Y1.8875 I-0.0319 J-0.0536
G1 X-1.7225
G3 X-1.7969 Y1.8659 I0.007 J-0.1629
G1 X-1.8142 Y1.8559
X-1.8335 Y1.8423
X-1.8539 Y1.8254
X-1.8768 Y1.803
G3 X-1.9606 Y1.6854 I0.4331 J-0.3971
X-2.0619 Y1.4536 I1.2712 J-0.6939
X-2.1781 Y1.0356 I3.1781 J-1.1086
X-2.289 Y0.0666 I4.7812 J-1.0379
X-1.9844 Y-1.7428 I5.007 J-0.0875
X-1.9318 Y-1.8665 I1.0954 J0.3928
G1 X-1.9219 Y-1.8822
X-1.9191 Y-1.8851
X-1.9155 Y-1.8869
X-1.9115 Y-1.8875
X-1.804
G3 X-1.781 Y-1.8699 I-0.0009 J0.025
G1 X-1.7799 Y-1.8661 Z-0.1397
X-1.7788 Y-1.8625 Z-0.1388
X-1.7777 Y-1.859 Z-0.1373
X-1.7767 Y-1.8558 Z-0.1352
X-1.7758 Y-1.853 Z-0.1327
X-1.7751 Y-1.8506 Z-0.1297
X-1.7745 Y-1.8486 Z-0.1263
X-1.774 Y-1.8472 Z-0.1227
X-1.7738 Y-1.8463 Z-0.1189
X-1.7737 Y-1.846 Z-0.115
Z0.2
X-1.6713 Y1.866
Z-0.09
Z-0.115
X-1.6716 Y1.8662 Z-0.1189
X-1.6724 Y1.8666 Z-0.1227
X-1.6737 Y1.8674 Z-0.1263
X-1.6754 Y1.8685 Z-0.1297
X-1.6776 Y1.8698 Z-0.1327
X-1.6802 Y1.8713 Z-0.1352
X-1.683 Y1.873 Z-0.1373
X-1.6862 Y1.8748 Z-0.1388
X-1.6894 Y1.8768 Z-0.1397
X-1.6928 Y1.8788 Z-0.14
G3 X-1.7225 Y1.8875 I-0.0318 J-0.0536
G1 X-1.8211
G3 X-1.9015 Y1.8657 I0.0017 J-0.165
G1 X-1.9185 Y1.8558
X-1.9377 Y1.8422
X-1.9579 Y1.8255
X-1.9806 Y1.8033
G3 X-2.0642 Y1.6856 I0.428 J-0.3927
X-2.1648 Y1.4535 I1.2602 J-0.6838
X-2.2792 Y1.035 I3.1836 J-1.0955
X-2.3879 Y0.0658 I4.8684 J-1.0367
X-2.0887 Y-1.7449 I5.1023 J-0.0871
G1 X-2.0759 Y-1.7787
X-2.0625 Y-1.8123
X-2.048 Y-1.8455
X-2.0366 Y-1.8679
X-2.0272 Y-1.8833 F58.5
X-2.0249 Y-1.8855
X-2.022 Y-1.887
X-2.0188 Y-1.8875 F65
X-1.9115
G3 X-1.8885 Y-1.8699 I-0.0009 J0.025
G1 X-1.8873 Y-1.8661 Z-0.1397
X-1.8862 Y-1.8625 Z-0.1388
X-1.8852 Y-1.859 Z-0.1373
X-1.8842 Y-1.8558 Z-0.1352
X-1.8833 Y-1.853 Z-0.1327
X-1.8825 Y-1.8506 Z-0.1297
X-1.8819 Y-1.8486 Z-0.1263
X-1.8815 Y-1.8472 Z-0.1227
X-1.8812 Y-1.8463 Z-0.1189
X-1.8811 Y-1.846 Z-0.115
Z0.2
X-1.77 Y1.866
Z-0.09
Z-0.115
X-1.7702 Y1.8662 Z-0.1189
X-1.771 Y1.8666 Z-0.1227
X-1.7723 Y1.8674 Z-0.1263
X-1.7741 Y1.8685 Z-0.1297
X-1.7763 Y1.8698 Z-0.1327
X-1.7788 Y1.8713 Z-0.1352
X-1.7817 Y1.873 Z-0.1373
X-1.7848 Y1.8748 Z-0.1388
X-1.7881 Y1.8768 Z-0.1397
X-1.7915 Y1.8788 Z-0.14
G3 X-1.8211 Y1.8875 I-0.0318 J-0.0536
G1 X-1.928
G3 X-2.0054 Y1.8658 I0.0039 J-0.1628
G1 X-2.0224 Y1.856
X-2.0415 Y1.8425
X-2.0616 Y1.8259
X-2.0841 Y1.8039
G3 X-2.1676 Y1.6861 I0.4238 J-0.3891
X-2.2674 Y1.4537 I1.2494 J-0.6744
X-2.3802 Y1.0347 I3.1866 J-1.0827
X-2.4869 Y0.0652 I4.9541 J-1.0357
X-2.1931 Y-1.7467 I5.1975 J-0.0869
X-2.1417 Y-1.8693 I1.0429 J0.3653
G1 X-2.1322 Y-1.8842 F58.5
X-2.1304 Y-1.886
X-2.1282 Y-1.8871
X-2.1257 Y-1.8875 F65
X-2.0188
G3 X-1.9958 Y-1.8699 I-0.0009 J0.025
G1 X-1.9946 Y-1.8661 Z-0.1397
X-1.9935 Y-1.8625 Z-0.1388
X-1.9924 Y-1.859 Z-0.1373
X-1.9915 Y-1.8558 Z-0.1352
X-1.9906 Y-1.853 Z-0.1327
X-1.9898 Y-1.8506 Z-0.1297
X-1.9892 Y-1.8486 Z-0.1263
X-1.9888 Y-1.8472 Z-0.1227
X-1.9885 Y-1.8463 Z-0.1189
X-1.9884 Y-1.846 Z-0.115
Z0.2
X-1.8769 Y1.866
Z-0.09
Z-0.115
X-1.8771 Y1.8662 Z-0.1189
X-1.8779 Y1.8666 Z-0.1227
X-1.8792 Y1.8674 Z-0.1263
X-1.881 Y1.8685 Z-0.1297
X-1.8832 Y1.8698 Z-0.1327
X-1.8857 Y1.8713 Z-0.1352
X-1.8886 Y1.873 Z-0.1373
X-1.8917 Y1.8748 Z-0.1388
X-1.895 Y1.8768 Z-0.1397
X-1.8983 Y1.8788 Z-0.14
G3 X-1.928 Y1.8875 I-0.0319 J-0.0536
G1 X-2.0349
G3 X-2.1091 Y1.866 I0.0065 J-0.1614
G1 X-2.126 Y1.8562
X-2.145 Y1.8428
X-2.165 Y1.8263
X-2.1874 Y1.8044
X-2.2112 Y1.7771
G3 X-2.2877 Y1.6546 I0.5519 J-0.43
X-2.3923 Y1.3851 I1.5347 J-0.7504
X-2.502 Y0.928 I3.6277 J-1.112
X-2.5861 Y0.0647 I5.099 J-0.9323
X-2.2973 Y-1.7484 I5.2973 J-0.0859
G1 X-2.2845 Y-1.7822
X-2.2713 Y-1.8159
X-2.257 Y-1.8492
X-2.2462 Y-1.8703
X-2.2371 Y-1.8851 F58.5
X-2.2358 Y-1.8864
X-2.2341 Y-1.8872
X-2.2322 Y-1.8875 F65
X-2.1257
G3 X-2.1027 Y-1.8699 I-0.0009 J0.025
G1 X-2.1015 Y-1.8661 Z-0.1397
X-2.1004 Y-1.8625 Z-0.1388
X-2.0993 Y-1.859 Z-0.1373
X-2.0984 Y-1.8558 Z-0.1352
X-2.0975 Y-1.853 Z-0.1327
X-2.0967 Y-1.8506 Z-0.1297
X-2.0961 Y-1.8486 Z-0.1263
X-2.0957 Y-1.8472 Z-0.1227
X-2.0954 Y-1.8463 Z-0.1189
X-2.0953 Y-1.846 Z-0.115
Z0.2
X-1.9837 Y1.866
Z-0.09
Z-0.115
X-1.984 Y1.8662 Z-0.1189
X-1.9848 Y1.8666 Z-0.1227
X-1.9861 Y1.8674 Z-0.1263
X-1.9878 Y1.8685 Z-0.1297
X-1.99 Y1.8698 Z-0.1327
X-1.9926 Y1.8713 Z-0.1352
X-1.9955 Y1.873 Z-0.1373
X-1.9986 Y1.8748 Z-0.1388
X-2.0019 Y1.8768 Z-0.1397
X-2.0052 Y1.8788 Z-0.14
G3 X-2.0349 Y1.8875 I-0.0319 J-0.0536
G1 X-2.1336
G3 X-2.2129 Y1.8659 I0.002 J-0.1633
G1 X-2.2296 Y1.8561
X-2.2486 Y1.8428
X-2.2684 Y1.8264
X-2.2906 Y1.8047
X-2.3144 Y1.7774
G3 X-2.3908 Y1.6548 I0.547 J-0.4258
X-2.4945 Y1.3849 I1.5245 J-0.7408
X-2.6025 Y0.9274 I3.6447 J-1.1021
X-2.685 Y0.064 I5.1853 J-0.9311
X-2.4127 Y-1.7159 I5.3954 J-0.0853
X-2.3611 Y-1.8511 I1.5964 J0.5314
G1 X-2.3506 Y-1.8715
X-2.3416 Y-1.886 F58.5
X-2.3408 Y-1.8868
X-2.3398 Y-1.8873
X-2.3387 Y-1.8875 F65
X-2.2322
G3 X-2.2092 Y-1.8699 I-0.0009 J0.025
G1 X-2.2081 Y-1.8661 Z-0.1397
X-2.207 Y-1.8625 Z-0.1388
X-2.2059 Y-1.859 Z-0.1373
X-2.2049 Y-1.8558 Z-0.1352
X-2.204 Y-1.853 Z-0.1327
X-2.2033 Y-1.8506 Z-0.1297
X-2.2027 Y-1.8486 Z-0.1263
X-2.2022 Y-1.8472 Z-0.1227
X-2.202 Y-1.8463 Z-0.1189
X-2.2019 Y-1.846 Z-0.115
Z0.2
X-2.0824 Y1.866
Z-0.09
Z-0.115
X-2.0827 Y1.8662 Z-0.1189
X-2.0835 Y1.8666 Z-0.1227
X-2.0847 Y1.8674 Z-0.1263
X-2.0865 Y1.8685 Z-0.1297
X-2.0887 Y1.8698 Z-0.1327
X-2.0913 Y1.8713 Z-0.1352
X-2.0941 Y1.873 Z-0.1373
X-2.0973 Y1.8748 Z-0.1388
X-2.1005 Y1.8768 Z-0.1397
X-2.1039 Y1.8788 Z-0.14
G3 X-2.1336 Y1.8875 I-0.0318 J-0.0536
G1 X-2.2404
G3 X-2.3161 Y1.8661 I0.0047 J-0.161
G1 X-2.3328 Y1.8564
X-2.3517 Y1.8431
X-2.3715 Y1.8267
X-2.3936 Y1.8051
X-2.4174 Y1.7779
G3 X-2.4936 Y1.6552 I0.5428 J-0.4222
X-2.5966 Y1.385 I1.5139 J-0.7316
X-2.7031 Y0.9272 I3.6593 J-1.0926
X-2.7842 Y0.0636 I5.2702 J-0.9304
X-2.5165 Y-1.7174 I5.4908 J-0.0853
X-2.4653 Y-1.8527 I1.5796 J0.5201
G1 X-2.4549 Y-1.8726
X-2.4461 Y-1.8868 F58.5
X-2.4457 Y-1.8872
X-2.4452 Y-1.8874
X-2.4446 Y-1.8875 F65
X-2.3387
G3 X-2.3156 Y-1.8699 I-0.0008 J0.025
G1 X-2.3145 Y-1.8661 Z-0.1397
X-2.3134 Y-1.8625 Z-0.1388
X-2.3123 Y-1.859 Z-0.1373
X-2.3113 Y-1.8558 Z-0.1352
X-2.3104 Y-1.853 Z-0.1327
X-2.3097 Y-1.8506 Z-0.1297
X-2.3091 Y-1.8486 Z-0.1263
X-2.3086 Y-1.8472 Z-0.1227
X-2.3084 Y-1.8463 Z-0.1189
X-2.3083 Y-1.846 Z-0.115
Z0.2
X-2.1893 Y1.866
Z-0.09
Z-0.115
X-2.1896 Y1.8662 Z-0.1189
X-2.1903 Y1.8666 Z-0.1227
X-2.1916 Y1.8674 Z-0.1263
X-2.1934 Y1.8685 Z-0.1297
X-2.1956 Y1.8698 Z-0.1327
X-2.1981 Y1.8713 Z-0.1352
X-2.201 Y1.873 Z-0.1373
X-2.2041 Y1.8748 Z-0.1388
X-2.2074 Y1.8768 Z-0.1397
X-2.2108 Y1.8788 Z-0.14
G3 X-2.2404 Y1.8875 I-0.0318 J-0.0536
G1 X-2.3473
G3 X-2.4192 Y1.8663 I0.0082 J-0.1603
G1 X-2.4359 Y1.8566
X-2.4547 Y1.8434
X-2.4743 Y1.8271
X-2.4963 Y1.8056
X-2.5201 Y1.7784
G3 X-2.5962 Y1.6556 I0.5389 J-0.4188
X-2.6984 Y1.3852 I1.5038 J-0.7229
X-2.7972 Y0.9626 I3.5869 J-1.0614
X-2.8831 Y0.0632 I5.3461 J-0.9647
X-2.6199 Y-1.7187 I5.5849 J-0.0855
X-2.5691 Y-1.8541 I1.5669 J0.5106
G1 X-2.559 Y-1.8735
X-2.5503 Y-1.8875
X-2.4446
G3 X-2.4216 Y-1.8699 I-0.0009 J0.025
G1 X-2.4205 Y-1.8661 Z-0.1397
X-2.4193 Y-1.8625 Z-0.1388
X-2.4183 Y-1.859 Z-0.1373
X-2.4173 Y-1.8558 Z-0.1352
X-2.4164 Y-1.853 Z-0.1327
X-2.4157 Y-1.8506 Z-0.1297
X-2.4151 Y-1.8486 Z-0.1263
X-2.4146 Y-1.8472 Z-0.1227
X-2.4143 Y-1.8463 Z-0.1189
Y-1.846 Z-0.115
Z0.2
X-2.2962 Y1.866
Z-0.09
Z-0.115
X-2.2964 Y1.8662 Z-0.1189
X-2.2972 Y1.8666 Z-0.1227
X-2.2985 Y1.8674 Z-0.1263
X-2.3003 Y1.8685 Z-0.1297
X-2.3025 Y1.8698 Z-0.1327
X-2.305 Y1.8713 Z-0.1352
X-2.3079 Y1.873 Z-0.1373
X-2.311 Y1.8748 Z-0.1388
X-2.3143 Y1.8768 Z-0.1397
X-2.3177 Y1.8788 Z-0.14
G3 X-2.3473 Y1.8875 I-0.0318 J-0.0536
G1 X-2.446
G3 X-2.5224 Y1.8661 I0.0037 J-0.1606
G1 X-2.539 Y1.8565
X-2.5577 Y1.8434
X-2.5772 Y1.8272
X-2.5991 Y1.8059
X-2.6228 Y1.7786
G3 X-2.6987 Y1.6557 I0.5349 J-0.4153
X-2.8002 Y1.385 I1.4951 J-0.7149
X-2.8977 Y0.9621 I3.5985 J-1.0522
X-2.9822 Y0.0626 I5.4289 J-0.9636
X-2.734 Y-1.6856 I5.6831 J-0.085
X-2.6728 Y-1.8558 I1.7071 J0.518
G1 X-2.6629 Y-1.8746
G3 X-2.6395 Y-1.8876 I0.0234 J0.0146
G1 X-2.5503 Y-1.8875
G3 X-2.5273 Y-1.8699 I-0.0009 J0.025
G1 X-2.5261 Y-1.8661 Z-0.1397
X-2.525 Y-1.8625 Z-0.1388
X-2.5239 Y-1.859 Z-0.1373
X-2.523 Y-1.8558 Z-0.1352
X-2.5221 Y-1.853 Z-0.1327
X-2.5213 Y-1.8506 Z-0.1297
X-2.5207 Y-1.8486 Z-0.1263
X-2.5203 Y-1.8472 Z-0.1227
X-2.52 Y-1.8463 Z-0.1189
X-2.5199 Y-1.846 Z-0.115
Z0.2
X-2.3948 Y1.866
Z-0.09
Z-0.115
X-2.3951 Y1.8662 Z-0.1189
X-2.3959 Y1.8666 Z-0.1227
X-2.3972 Y1.8674 Z-0.1263
X-2.3989 Y1.8685 Z-0.1297
X-2.4011 Y1.8698 Z-0.1327
X-2.4037 Y1.8713 Z-0.1352
X-2.4066 Y1.873 Z-0.1373
X-2.4097 Y1.8748 Z-0.1388
X-2.413 Y1.8768 Z-0.1397
X-2.4163 Y1.8788 Z-0.14
G3 X-2.446 Y1.8875 I-0.0319 J-0.0536
G1 X-2.5529
G3 X-2.6251 Y1.8663 I0.0075 J-0.1594
G1 X-2.6416 Y1.8568
X-2.6603 Y1.8436
X-2.6798 Y1.8275
X-2.7015 Y1.8063
X-2.7253 Y1.779
G3 X-2.8011 Y1.656 I0.5315 J-0.4124
X-2.9019 Y1.3851 I1.486 J-0.7071
X-2.9981 Y0.962 I3.6081 J-1.0432
X-3.0812 Y0.0622 I5.5102 J-0.9628
X-2.8371 Y-1.6867 I5.7781 J-0.085
X-2.7788 Y-1.8512 I1.7154 J0.5153
G1 X-2.769 Y-1.8694
X-2.7598 Y-1.8841
X-2.7579 Y-1.8859 F58.5
X-2.7555 Y-1.8871 F65
X-2.753 Y-1.8875
X-2.6395
G3 X-2.6165 Y-1.8699 I-0.0009 J0.025
G1 X-2.6154 Y-1.8661 Z-0.1397
X-2.6143 Y-1.8625 Z-0.1388
X-2.6132 Y-1.859 Z-0.1373
X-2.6122 Y-1.8558 Z-0.1352
X-2.6113 Y-1.853 Z-0.1327
X-2.6106 Y-1.8506 Z-0.1297
X-2.61 Y-1.8486 Z-0.1263
X-2.6095 Y-1.8472 Z-0.1227
X-2.6093 Y-1.8463 Z-0.1189
X-2.6092 Y-1.846 Z-0.115
Z0.2
X-2.5017 Y1.866
Z-0.09
Z-0.115
X-2.502 Y1.8662 Z-0.1189
X-2.5028 Y1.8666 Z-0.1227
X-2.5041 Y1.8674 Z-0.1263
X-2.5058 Y1.8685 Z-0.1297
X-2.508 Y1.8698 Z-0.1327
X-2.5106 Y1.8713 Z-0.1352
X-2.5134 Y1.873 Z-0.1373
X-2.5166 Y1.8748 Z-0.1388
X-2.5198 Y1.8768 Z-0.1397
X-2.5232 Y1.8788 Z-0.14
G3 X-2.5529 Y1.8875 I-0.0318 J-0.0536
G1 X-2.6515
G3 X-2.728 Y1.8662 I0.0034 J-0.1601
G1 X-2.7444 Y1.8567
X-2.763 Y1.8436
X-2.7824 Y1.8276
X-2.804 Y1.8065
X-2.8278 Y1.7792
G3 X-2.9034 Y1.6561 I0.5282 J-0.4094
X-3.0035 Y1.3849 I1.4781 J-0.7
X-3.0985 Y0.9615 I3.6181 J-1.0345
X-3.1803 Y0.0617 I5.5903 J-0.9616
X-2.94 Y-1.6881 I5.8727 J-0.085
X-2.8934 Y-1.8251 I2.1538 J0.6557
G1 X-2.8799 Y-1.8564
X-2.8701 Y-1.8748
G3 X-2.8468 Y-1.8875 I0.0233 J0.015
G1 X-2.753
G3 X-2.7299 Y-1.8699 I-0.0008 J0.025
G1 X-2.7288 Y-1.8661 Z-0.1397
X-2.7277 Y-1.8625 Z-0.1388
X-2.7266 Y-1.859 Z-0.1373
X-2.7256 Y-1.8558 Z-0.1352
X-2.7247 Y-1.853 Z-0.1327
X-2.724 Y-1.8506 Z-0.1297
X-2.7234 Y-1.8486 Z-0.1263
X-2.7229 Y-1.8472 Z-0.1227
X-2.7227 Y-1.8463 Z-0.1189
X-2.7226 Y-1.846 Z-0.115
Z0.2
X-2.6004 Y1.866
Z-0.09
Z-0.115
X-2.6006 Y1.8662 Z-0.1189
X-2.6014 Y1.8666 Z-0.1227
X-2.6027 Y1.8674 Z-0.1263
X-2.6045 Y1.8685 Z-0.1297
X-2.6067 Y1.8698 Z-0.1327
X-2.6092 Y1.8713 Z-0.1352
X-2.6121 Y1.873 Z-0.1373
X-2.6152 Y1.8748 Z-0.1388
X-2.6185 Y1.8768 Z-0.1397
X-2.6219 Y1.8788 Z-0.14
G3 X-2.6515 Y1.8875 I-0.0318 J-0.0536
G1 X-2.7584
G3 X-2.8304 Y1.8664 I0.0074 J-0.1588
G1 X-2.8468 Y1.8569
X-2.8654 Y1.8439
X-2.8846 Y1.8279
X-2.9062 Y1.8069
X-2.9299 Y1.7796
G3 X-3.0054 Y1.6565 I0.5248 J-0.4067
X-3.105 Y1.3851 I1.4691 J-0.693
X-3.1989 Y0.9615 I3.6257 J-1.0261
X-3.2794 Y0.0615 I5.6696 J-0.9609
X-3.043 Y-1.689 I5.9672 J-0.0852
X-2.9967 Y-1.8261 I2.0328 J0.6106
G1 X-2.9852 Y-1.8525
X-2.9757 Y-1.8704
X-2.9665 Y-1.8849
X-2.965 Y-1.8863 F58.5
X-2.9633 Y-1.8872 F65
X-2.9613 Y-1.8875
X-2.8468
G3 X-2.8237 Y-1.8699 I-0.0008 J0.025
G1 X-2.8226 Y-1.8661 Z-0.1397
X-2.8215 Y-1.8625 Z-0.1388
X-2.8204 Y-1.859 Z-0.1373
X-2.8194 Y-1.8558 Z-0.1352
X-2.8185 Y-1.853 Z-0.1327
X-2.8178 Y-1.8506 Z-0.1297
X-2.8172 Y-1.8486 Z-0.1263
X-2.8167 Y-1.8472 Z-0.1227
X-2.8165 Y-1.8463 Z-0.1189
X-2.8164 Y-1.846 Z-0.115
Z0.2
X-2.7073 Y1.866
Z-0.09
Z-0.115
X-2.7075 Y1.8662 Z-0.1189
X-2.7083 Y1.8666 Z-0.1227
X-2.7096 Y1.8674 Z-0.1263
X-2.7114 Y1.8685 Z-0.1297
X-2.7136 Y1.8698 Z-0.1327
X-2.7161 Y1.8713 Z-0.1352
X-2.719 Y1.873 Z-0.1373
X-2.7221 Y1.8748 Z-0.1388
X-2.7254 Y1.8768 Z-0.1397
X-2.7288 Y1.8788 Z-0.14
G3 X-2.7584 Y1.8875 I-0.0318 J-0.0536
G1 X-2.8571
G3 X-2.933 Y1.8663 I0.0037 J-0.1593
G1 X-2.9492 Y1.8568
X-2.9678 Y1.8438
X-2.9869 Y1.8279
X-3.0084 Y1.807
X-3.032 Y1.78
G3 X-3.1075 Y1.6568 I0.5208 J-0.4038
X-3.2065 Y1.3852 I1.4606 J-0.6863
X-3.2933 Y0.997 I3.5306 J-0.9931
X-3.3787 Y0.0612 I5.7311 J-0.9946
X-3.1558 Y-1.6553 I6.0641 J-0.0853
X-3.0998 Y-1.8272 I2.1387 J0.6009
G1 X-3.0863 Y-1.8577
X-3.0767 Y-1.8757
X-3.0709 Y-1.882
X-3.0634 Y-1.8861
X-3.055 Y-1.8875
X-2.9613
G3 X-2.9383 Y-1.8699 I-0.0009 J0.025
G1 X-2.9371 Y-1.8661 Z-0.1397
X-2.936 Y-1.8625 Z-0.1388
X-2.9349 Y-1.859 Z-0.1373
X-2.9339 Y-1.8558 Z-0.1352
X-2.9331 Y-1.853 Z-0.1327
X-2.9323 Y-1.8506 Z-0.1297
X-2.9317 Y-1.8486 Z-0.1263
X-2.9313 Y-1.8472 Z-0.1227
X-2.931 Y-1.8463 Z-0.1189
X-2.9309 Y-1.846 Z-0.115
Z0.2
X-2.8059 Y1.866
Z-0.09
Z-0.115
X-2.8062 Y1.8662 Z-0.1189
X-2.807 Y1.8666 Z-0.1227
X-2.8083 Y1.8674 Z-0.1263
X-2.81 Y1.8685 Z-0.1297
X-2.8122 Y1.8698 Z-0.1327
X-2.8148 Y1.8713 Z-0.1352
X-2.8177 Y1.873 Z-0.1373
X-2.8208 Y1.8748 Z-0.1388
X-2.8241 Y1.8768 Z-0.1397
X-2.8274 Y1.8788 Z-0.14
G3 X-2.8571 Y1.8875 I-0.0319 J-0.0536
G1 X-2.964
G3 X-3.0351 Y1.8665 I0.0081 J-0.1583
G1 X-3.0513 Y1.8571
X-3.0698 Y1.8441
X-3.0889 Y1.8282
X-3.1103 Y1.8074
X-3.1338 Y1.7804
G3 X-3.2092 Y1.6572 I0.5175 J-0.4013
X-3.3077 Y1.3855 I1.4517 J-0.6798
X-3.3936 Y0.9971 I3.5344 J-0.985
X-3.4778 Y0.0611 I5.8066 J-0.9939
X-3.2584 Y-1.6559 I6.1584 J-0.0856
X-3.2028 Y-1.8281 I2.1419 J0.5963
G1 X-3.1915 Y-1.8536
X-3.1821 Y-1.8713
X-3.1731 Y-1.8854
X-3.1719 Y-1.8865 F58.5
X-3.1705 Y-1.8873 F65
X-3.1689 Y-1.8875
X-3.055
G3 X-3.032 Y-1.8699 I-0.0009 J0.025
G1 X-3.0308 Y-1.8661 Z-0.1397
X-3.0297 Y-1.8625 Z-0.1388
X-3.0286 Y-1.859 Z-0.1373
X-3.0276 Y-1.8558 Z-0.1352
X-3.0268 Y-1.853 Z-0.1327
X-3.026 Y-1.8506 Z-0.1297
X-3.0254 Y-1.8486 Z-0.1263
X-3.025 Y-1.8472 Z-0.1227
X-3.0247 Y-1.8463 Z-0.1189
X-3.0246 Y-1.846 Z-0.115
Z0.2
X-2.9128 Y1.866
Z-0.09
Z-0.115
X-2.9131 Y1.8662 Z-0.1189
X-2.9139 Y1.8666 Z-0.1227
X-2.9151 Y1.8674 Z-0.1263
X-2.9169 Y1.8685 Z-0.1297
X-2.9191 Y1.8698 Z-0.1327
X-2.9217 Y1.8713 Z-0.1352
X-2.9245 Y1.873 Z-0.1373
X-2.9277 Y1.8748 Z-0.1388
X-2.9309 Y1.8768 Z-0.1397
X-2.9343 Y1.8788 Z-0.14
G3 X-2.964 Y1.8875 I-0.0318 J-0.0536
G1 X-3.0626
G3 X-3.1374 Y1.8664 I0.0043 J-0.1584
G1 X-3.1535 Y1.857
X-3.172 Y1.8441
X-3.191 Y1.8283
X-3.2123 Y1.8075
X-3.2357 Y1.7807
G3 X-3.311 Y1.6575 I0.5141 J-0.3987
X-3.409 Y1.3855 I1.4439 J-0.6739
X-3.494 Y0.9969 I3.5382 J-0.9771
X-3.577 Y0.0608 I5.8812 J-0.9929
X-3.3609 Y-1.6568 I6.2524 J-0.0858
X-3.3056 Y-1.829 I2.0839 J0.5738
G1 X-3.2925 Y-1.8585
X-3.283 Y-1.8762
X-3.2775 Y-1.8822
X-3.2703 Y-1.8861
X-3.2623 Y-1.8875
X-3.1689
G3 X-3.1458 Y-1.8699 I-0.0008 J0.025
G1 X-3.1447 Y-1.8661 Z-0.1397
X-3.1436 Y-1.8625 Z-0.1388
X-3.1425 Y-1.859 Z-0.1373
X-3.1415 Y-1.8558 Z-0.1352
X-3.1406 Y-1.853 Z-0.1327
X-3.1399 Y-1.8506 Z-0.1297
X-3.1393 Y-1.8486 Z-0.1263
X-3.1388 Y-1.8472 Z-0.1227
X-3.1386 Y-1.8463 Z-0.1189
X-3.1385 Y-1.846 Z-0.115
Z0.2
X-3.0115 Y1.866
Z-0.09
Z-0.115
X-3.0117 Y1.8662 Z-0.1189
X-3.0125 Y1.8666 Z-0.1227
X-3.0138 Y1.8674 Z-0.1263
X-3.0156 Y1.8685 Z-0.1297
X-3.0178 Y1.8698 Z-0.1327
X-3.0203 Y1.8713 Z-0.1352
X-3.0232 Y1.873 Z-0.1373
X-3.0263 Y1.8748 Z-0.1388
X-3.0296 Y1.8768 Z-0.1397
X-3.033 Y1.8788 Z-0.14
G3 X-3.0626 Y1.8875 I-0.0318 J-0.0536
G1 X-3.1613
G3 X-3.2395 Y1.8662 I0.0016 J-0.1603
G1 X-3.2556 Y1.8569
X-3.274 Y1.844
X-3.293 Y1.8282
X-3.3142 Y1.8076
X-3.3374 Y1.7809
G3 X-3.4126 Y1.6576 I0.5107 J-0.3963
X-3.5003 Y1.4203 I1.3588 J-0.637
X-3.5941 Y0.9967 I3.4598 J-0.9883
X-3.6759 Y0.0605 I5.937 J-0.9907
X-3.463 Y-1.6577 I6.3441 J-0.0863
X-3.4081 Y-1.83 I2.0964 J0.5733
G1 X-3.3972 Y-1.8548
X-3.388 Y-1.8721
X-3.3791 Y-1.886
X-3.3783 Y-1.8868 F58.5
X-3.3773 Y-1.8873 F65
X-3.3762 Y-1.8875
X-3.2623
G3 X-3.2393 Y-1.8699 I-0.0009 J0.025
G1 X-3.2381 Y-1.8661 Z-0.1397
X-3.237 Y-1.8625 Z-0.1388
X-3.2359 Y-1.859 Z-0.1373
X-3.2349 Y-1.8558 Z-0.1352
X-3.2341 Y-1.853 Z-0.1327
X-3.2333 Y-1.8506 Z-0.1297
X-3.2327 Y-1.8486 Z-0.1263
X-3.2323 Y-1.8472 Z-0.1227
X-3.232 Y-1.8463 Z-0.1189
X-3.2319 Y-1.846 Z-0.115
Z0.2
X-3.1101 Y1.866
Z-0.09
Z-0.115
X-3.1104 Y1.8662 Z-0.1189
X-3.1112 Y1.8666 Z-0.1227
X-3.1125 Y1.8674 Z-0.1263
X-3.1142 Y1.8685 Z-0.1297
X-3.1164 Y1.8698 Z-0.1327
X-3.119 Y1.8713 Z-0.1352
X-3.1219 Y1.873 Z-0.1373
X-3.125 Y1.8748 Z-0.1388
X-3.1283 Y1.8768 Z-0.1397
X-3.1316 Y1.8788 Z-0.14
G3 X-3.1613 Y1.8875 I-0.0319 J-0.0536
G1 X-3.2682
G3 X-3.3413 Y1.8665 I0.0058 J-0.1576
G1 X-3.3573 Y1.8572
X-3.3757 Y1.8443
X-3.3946 Y1.8285
X-3.4158 Y1.8079
X-3.439 Y1.7813
G3 X-3.5142 Y1.658 I0.5081 J-0.3943
X-3.6015 Y1.4206 I1.3516 J-0.6319
X-3.6944 Y0.9968 I3.4604 J-0.9808
X-3.7752 Y0.0604 I6.008 J-0.9899
X-3.5746 Y-1.6233 I6.4428 J-0.0863
X-3.5109 Y-1.8307 I2.1952 J0.5608
G1 X-3.4981 Y-1.8594
X-3.4888 Y-1.8768
X-3.4836 Y-1.8825
X-3.4768 Y-1.8862
X-3.4692 Y-1.8875
X-3.3762
G3 X-3.3531 Y-1.8699 I-0.0008 J0.025
G1 X-3.352 Y-1.8661 Z-0.1397
X-3.3509 Y-1.8625 Z-0.1388
X-3.3498 Y-1.859 Z-0.1373
X-3.3488 Y-1.8558 Z-0.1352
X-3.3479 Y-1.853 Z-0.1327
X-3.3472 Y-1.8506 Z-0.1297
X-3.3466 Y-1.8486 Z-0.1263
X-3.3461 Y-1.8472 Z-0.1227
X-3.3459 Y-1.8463 Z-0.1189
X-3.3458 Y-1.846 Z-0.115
Z0.2
X-3.217 Y1.866
Z-0.09
Z-0.115
X-3.2173 Y1.8662 Z-0.1189
X-3.2181 Y1.8666 Z-0.1227
X-3.2194 Y1.8674 Z-0.1263
X-3.2211 Y1.8685 Z-0.1297
X-3.2233 Y1.8698 Z-0.1327
X-3.2259 Y1.8713 Z-0.1352
X-3.2287 Y1.873 Z-0.1373
X-3.2319 Y1.8748 Z-0.1388
X-3.2351 Y1.8768 Z-0.1397
X-3.2385 Y1.8788 Z-0.14
G3 X-3.2682 Y1.8875 I-0.0318 J-0.0536
G1 X-3.3668
G3 X-3.4432 Y1.8663 I0.0028 J-0.1587
G1 X-3.4592 Y1.8571
X-3.4775 Y1.8442
X-3.4964 Y1.8285
X-3.5174 Y1.808
X-3.5405 Y1.7816
G3 X-3.6157 Y1.6582 I0.5052 J-0.3923
X-3.7026 Y1.4207 I1.3451 J-0.627
X-3.7947 Y0.9966 I3.4612 J-0.9736
X-3.8739 Y0.0964 I6.0535 J-0.9859
G1 X-3.8747 Y0.0602
G3 X-3.6856 Y-1.5889 I6.5733 J-0.0817
X-3.6258 Y-1.7976 I2.9517 J0.7329
G1 X-3.6131 Y-1.8315
X-3.6026 Y-1.8558
X-3.5935 Y-1.8728
X-3.5847 Y-1.8866
X-3.5842 Y-1.8871 F58.5
X-3.5835 Y-1.8874 F65
X-3.5828 Y-1.8875
X-3.4692
G3 X-3.4462 Y-1.8699 I-0.0009 J0.025
G1 X-3.445 Y-1.8661 Z-0.1397
X-3.4439 Y-1.8625 Z-0.1388
X-3.4428 Y-1.859 Z-0.1373
X-3.4419 Y-1.8558 Z-0.1352
X-3.441 Y-1.853 Z-0.1327
X-3.4402 Y-1.8506 Z-0.1297
X-3.4396 Y-1.8486 Z-0.1263
X-3.4392 Y-1.8472 Z-0.1227
X-3.4389 Y-1.8463 Z-0.1189
X-3.4388 Y-1.846 Z-0.115
Z0.2
X-3.3157 Y1.866
Z-0.09
Z-0.115
X-3.3159 Y1.8662 Z-0.1189
X-3.3167 Y1.8666 Z-0.1227
X-3.318 Y1.8674 Z-0.1263
X-3.3198 Y1.8685 Z-0.1297
X-3.322 Y1.8698 Z-0.1327
X-3.3245 Y1.8713 Z-0.1352
X-3.3274 Y1.873 Z-0.1373
X-3.3305 Y1.8748 Z-0.1388
X-3.3338 Y1.8768 Z-0.1397
X-3.3372 Y1.8788 Z-0.14
G3 X-3.3668 Y1.8875 I-0.0318 J-0.0536
G1 X-3.4737
G3 X-3.5447 Y1.8666 I0.0076 J-0.1571
G1 X-3.5607 Y1.8574
X-3.579 Y1.8445
X-3.5979 Y1.8289
X-3.6189 Y1.8084
X-3.6419 Y1.782
G3 X-3.717 Y1.6586 I0.5029 J-0.3906
X-3.8036 Y1.4209 I1.3385 J-0.6225
X-3.8949 Y0.9967 I3.4608 J-0.9665
X-3.9724 Y0.1325 I6.093 J-0.9818
G1 X-3.9734 Y0.0964
X-3.9739 Y0.0602
G3 X-3.7876 Y-1.5894 I6.669 J-0.082
X-3.7283 Y-1.7982 I2.952 J0.7255
G1 X-3.7155 Y-1.8321
X-3.7067 Y-1.8524
G3 X-3.6532 Y-1.8875 I0.0535 J0.0232
G1 X-3.5828
G3 X-3.5598 Y-1.8699 I-0.0009 J0.025
G1 X-3.5586 Y-1.8661 Z-0.1397
X-3.5575 Y-1.8625 Z-0.1388
X-3.5565 Y-1.859 Z-0.1373
X-3.5555 Y-1.8558 Z-0.1352
X-3.5546 Y-1.853 Z-0.1327
X-3.5538 Y-1.8506 Z-0.1297
X-3.5532 Y-1.8486 Z-0.1263
X-3.5528 Y-1.8472 Z-0.1227
X-3.5525 Y-1.8463 Z-0.1189
X-3.5524 Y-1.846 Z-0.115
Z0.2
X-3.4226 Y1.866
Z-0.09
Z-0.115
X-3.4228 Y1.8662 Z-0.1189
X-3.4236 Y1.8666 Z-0.1227
X-3.4249 Y1.8674 Z-0.1263
X-3.4267 Y1.8685 Z-0.1297
X-3.4289 Y1.8698 Z-0.1327
X-3.4314 Y1.8713 Z-0.1352
X-3.4343 Y1.873 Z-0.1373
X-3.4374 Y1.8748 Z-0.1388
X-3.4407 Y1.8768 Z-0.1397
X-3.444 Y1.8788 Z-0.14
G3 X-3.4737 Y1.8875 I-0.0319 J-0.0536
G1 X-3.5724
G3 X-3.6465 Y1.8665 I0.0045 J-0.1572
G1 X-3.6624 Y1.8573
X-3.6806 Y1.8445
X-3.6994 Y1.8289
X-3.7204 Y1.8085
X-3.7433 Y1.7822
G3 X-3.8183 Y1.6588 I0.5003 J-0.3886
X-3.9046 Y1.421 I1.3327 J-0.6181
X-3.9951 Y0.9966 I3.4607 J-0.9597
X-4.0716 Y0.1323 I6.158 J-0.9806
G1 X-4.0726 Y0.0961
X-4.0731 Y0.06
G3 X-3.8894 Y-1.59 I6.7643 J-0.0821
X-3.8305 Y-1.7989 I2.9193 J0.7099
G1 X-3.8186 Y-1.8302
X-3.8085 Y-1.8517
X-3.7983 Y-1.8696
X-3.7885 Y-1.884
X-3.7865 Y-1.8859 F58.5
X-3.784 Y-1.8871 F65
X-3.7812 Y-1.8875
X-3.6532
G3 X-3.6302 Y-1.8699 I-0.0009 J0.025
G1 X-3.629 Y-1.8661 Z-0.1397
X-3.6279 Y-1.8625 Z-0.1388
X-3.6268 Y-1.859 Z-0.1373
X-3.6259 Y-1.8558 Z-0.1352
X-3.625 Y-1.853 Z-0.1327
X-3.6242 Y-1.8506 Z-0.1297
X-3.6236 Y-1.8486 Z-0.1263
X-3.6232 Y-1.8472 Z-0.1227
X-3.6229 Y-1.8463 Z-0.1189
X-3.6228 Y-1.846 Z-0.115
Z0.2
X-3.5212 Y1.866
Z-0.09
Z-0.115
X-3.5215 Y1.8662 Z-0.1189
X-3.5223 Y1.8666 Z-0.1227
X-3.5236 Y1.8674 Z-0.1263
X-3.5253 Y1.8685 Z-0.1297
X-3.5275 Y1.8698 Z-0.1327
X-3.5301 Y1.8713 Z-0.1352
X-3.533 Y1.873 Z-0.1373
X-3.5361 Y1.8748 Z-0.1388
X-3.5393 Y1.8768 Z-0.1397
X-3.5427 Y1.8788 Z-0.14
G3 X-3.5724 Y1.8875 I-0.0319 J-0.0536
G1 X-3.671
G3 X-3.7481 Y1.8664 I0.002 J-0.1587
G1 X-3.764 Y1.8572
X-3.7822 Y1.8444
X-3.8009 Y1.8288
X-3.8218 Y1.8085
X-3.8446 Y1.7823
G3 X-3.9196 Y1.6589 I0.4978 J-0.3868
X-4.0056 Y1.421 I1.3272 J-0.614
X-4.0896 Y1.0322 I3.3529 J-0.9275
X-4.17 Y0.1682 I6.1629 J-1.0093
G1 X-4.1711 Y0.1321
X-4.1718 Y0.0959
X-4.1723 Y0.0597
G3 X-3.9911 Y-1.5907 I6.8593 J-0.0821
X-3.9325 Y-1.7996 I2.7802 J0.6671
G1 X-3.9193 Y-1.8334
X-3.9102 Y-1.8534
G3 X-3.8571 Y-1.8876 I0.0531 J0.0242
G1 X-3.7812 Y-1.8875
G3 X-3.7582 Y-1.8699 I-0.0009 J0.025
G1 X-3.757 Y-1.8661 Z-0.1397
X-3.7559 Y-1.8625 Z-0.1388
X-3.7548 Y-1.859 Z-0.1373
X-3.7539 Y-1.8558 Z-0.1352
X-3.753 Y-1.853 Z-0.1327
X-3.7522 Y-1.8506 Z-0.1297
X-3.7516 Y-1.8486 Z-0.1263
X-3.7512 Y-1.8472 Z-0.1227
X-3.7509 Y-1.8463 Z-0.1189
X-3.7508 Y-1.846 Z-0.115
Z0.2
X-3.6199 Y1.866
Z-0.09
Z-0.115
X-3.6201 Y1.8662 Z-0.1189
X-3.6209 Y1.8666 Z-0.1227
X-3.6222 Y1.8674 Z-0.1263
X-3.624 Y1.8685 Z-0.1297
X-3.6262 Y1.8698 Z-0.1327
X-3.6287 Y1.8713 Z-0.1352
X-3.6316 Y1.873 Z-0.1373
X-3.6347 Y1.8748 Z-0.1388
X-3.638 Y1.8768 Z-0.1397
X-3.6414 Y1.8788 Z-0.14
G3 X-3.671 Y1.8875 I-0.0318 J-0.0536
G1 X-3.7779
G3 X-3.8494 Y1.8666 I0.0069 J-0.1565
G1 X-3.8652 Y1.8575
X-3.8834 Y1.8447
X-3.9021 Y1.8291
X-3.923 Y1.8088
X-3.9458 Y1.7827
G3 X-4.0207 Y1.6592 I0.496 J-0.3854
X-4.1064 Y1.4212 I1.3214 J-0.61
X-4.1897 Y1.0323 I3.3509 J-0.9211
X-4.2692 Y0.1682 I6.2221 J-1.008
G1 X-4.2703 Y0.1321
X-4.271 Y0.0959
X-4.2715 Y0.0597
G3 X-4.101 Y-1.5558 I6.9612 J-0.0821
X-4.0458 Y-1.7657 I3.4443 J0.794
G1 X-4.0343 Y-1.8
X-4.0224 Y-1.8313
X-4.0122 Y-1.8527
X-4.002 Y-1.8705
X-3.992 Y-1.8848
X-3.9916 Y-1.8853
X-3.9909 Y-1.8856
X-3.9903 Y-1.8857
X-3.967 Y-1.8871
X-3.9588 Y-1.8875
X-3.8571
G3 X-3.8341 Y-1.8699 I-0.0009 J0.025
G1 X-3.833 Y-1.8661 Z-0.1397
X-3.8319 Y-1.8625 Z-0.1388
X-3.8308 Y-1.859 Z-0.1373
X-3.8298 Y-1.8558 Z-0.1352
X-3.8289 Y-1.853 Z-0.1327
X-3.8282 Y-1.8506 Z-0.1297
X-3.8276 Y-1.8486 Z-0.1263
X-3.8271 Y-1.8472 Z-0.1227
X-3.8269 Y-1.8463 Z-0.1189
X-3.8268 Y-1.846 Z-0.115
Z0.2
X-3.7268 Y1.866
Z-0.09
Z-0.115
X-3.727 Y1.8662 Z-0.1189
X-3.7278 Y1.8666 Z-0.1227
X-3.7291 Y1.8674 Z-0.1263
X-3.7309 Y1.8685 Z-0.1297
X-3.7331 Y1.8698 Z-0.1327
X-3.7356 Y1.8713 Z-0.1352
X-3.7385 Y1.873 Z-0.1373
X-3.7416 Y1.8748 Z-0.1388
X-3.7449 Y1.8768 Z-0.1397
X-3.7483 Y1.8788 Z-0.14
G3 X-3.7779 Y1.8875 I-0.0318 J-0.0536
G1 X-3.8766
G3 X-3.9508 Y1.8665 I0.0042 J-0.1568
G1 X-3.9666 Y1.8574
X-3.9848 Y1.8446
X-4.0035 Y1.8291
X-4.0242 Y1.8089
X-4.0469 Y1.7828
G3 X-4.1217 Y1.6593 I0.4937 J-0.3837
X-4.2071 Y1.4212 I1.3163 J-0.6063
X-4.2898 Y1.0321 I3.3489 J-0.9149
X-4.3683 Y0.168 I6.2804 J-1.0065
G1 X-4.3696 Y0.1319
X-4.3703 Y0.0957
X-4.3708 Y0.0595
G3 X-4.2026 Y-1.5563 I7.0564 J-0.0822
X-4.1477 Y-1.7663 I3.3738 J0.7695
G1 X-4.1361 Y-1.8006
X-4.1231 Y-1.8344
X-4.1186 Y-1.8444
G3 X-4.0769 Y-1.8772 I0.053 J0.0244
X-4.041 Y-1.8824 I0.1043 J0.5923
G1 X-3.9903 Y-1.8857
G3 X-3.9662 Y-1.8695 I0.0007 J0.025
G1 X-3.9649 Y-1.8659 Z-0.1397
X-3.9635 Y-1.8623 Z-0.1388
X-3.9623 Y-1.8589 Z-0.1373
X-3.9611 Y-1.8558 Z-0.1352
X-3.96 Y-1.853 Z-0.1327
X-3.9591 Y-1.8506 Z-0.1297
X-3.9584 Y-1.8487 Z-0.1263
X-3.9579 Y-1.8473 Z-0.1227
X-3.9576 Y-1.8464 Z-0.1189
X-3.9575 Y-1.8461 Z-0.115
Z0.2
X-3.8254 Y1.866
Z-0.09
Z-0.115
X-3.8257 Y1.8662 Z-0.1189
X-3.8265 Y1.8666 Z-0.1227
X-3.8278 Y1.8674 Z-0.1263
X-3.8295 Y1.8685 Z-0.1297
X-3.8317 Y1.8698 Z-0.1327
X-3.8343 Y1.8713 Z-0.1352
X-3.8372 Y1.873 Z-0.1373
X-3.8403 Y1.8748 Z-0.1388
X-3.8436 Y1.8768 Z-0.1397
X-3.8469 Y1.8788 Z-0.14
G3 X-3.8766 Y1.8875 I-0.0319 J-0.0536
G1 X-3.9588
X-3.967 Y1.8871
X-3.9835 Y1.8861
G3 X-4.0643 Y1.8587 I0.0129 J-0.1708
G1 X-4.0819 Y1.847
X-4.1001 Y1.8326
X-4.1204 Y1.8136
X-4.1425 Y1.7893
G3 X-4.2192 Y1.667 I0.4562 J-0.3713
X-4.3056 Y1.4293 I1.2594 J-0.5925
X-4.3886 Y1.0403 I3.2838 J-0.9039
X-4.4651 Y0.2485 I6.2304 J-1.0015
X-4.4702 Y0.0315 I5.6032 J-0.2406
X-4.3058 Y-1.5487 I7.1435 J-0.0555
X-4.241 Y-1.7935 I2.9084 J0.6386
G1 X-4.2344 Y-1.8104
G3 X-4.1985 Y-1.8451 I0.0546 J0.0205
X-4.1232 Y-1.868 I0.2101 J0.5545
G1 X-4.0769 Y-1.8772
G3 X-4.0509 Y-1.8644 I0.004 J0.0247
G1 X-4.0491 Y-1.861 Z-0.1397
X-4.0473 Y-1.8576 Z-0.1388
X-4.0455 Y-1.8544 Z-0.1373
X-4.0439 Y-1.8515 Z-0.1352
X-4.0425 Y-1.8489 Z-0.1327
X-4.0413 Y-1.8466 Z-0.1297
X-4.0403 Y-1.8448 Z-0.1263
X-4.0396 Y-1.8435 Z-0.1227
X-4.0392 Y-1.8427 Z-0.1189
X-4.039 Y-1.8424 Z-0.115
Z0.2
X-3.9312 Y1.8676
Z-0.09
Z-0.115
X-3.9314 Y1.8678 Z-0.1189
X-3.9322 Y1.8682 Z-0.1227
X-3.9336 Y1.8689 Z-0.1263
X-3.9354 Y1.8698 Z-0.1297
X-3.9377 Y1.871 Z-0.1327
X-3.9403 Y1.8724 Z-0.1352
X-3.9433 Y1.8739 Z-0.1373
X-3.9465 Y1.8756 Z-0.1388
X-3.9499 Y1.8774 Z-0.1397
X-3.9533 Y1.8792 Z-0.14
G3 X-3.9835 Y1.8862 I-0.0288 J-0.0553
G1 X-3.9917 Y1.8856
X-4.041 Y1.8824
G3 X-4.115 Y1.8696 I0.0767 J-0.6647
X-4.1851 Y1.8383 I0.0391 J-0.1818
G1 X-4.2026 Y1.8252
X-4.221 Y1.8087
X-4.2416 Y1.7872
X-4.2641 Y1.7595
G3 X-4.3351 Y1.6337 I0.5358 J-0.3854
X-4.4248 Y1.359 I1.506 J-0.644
X-4.4999 Y0.9683 I3.7439 J-0.9222
X-4.5693 Y-0.0053 I6.6538 J-0.9639
X-4.407 Y-1.5495 I7.1936 J-0.0247
X-4.3578 Y-1.7452 I3.4286 J0.758
X-4.3341 Y-1.7772 I0.0574 J0.0177
G1 X-4.3288 Y-1.7808
X-4.3041 Y-1.7967
G3 X-4.2137 Y-1.8399 I0.4402 J0.8052
G1 X-4.1985 Y-1.8451
G3 X-4.1711 Y-1.8358 I0.0072 J0.0239
G1 X-4.1688 Y-1.8326 Z-0.1397
X-4.1665 Y-1.8296 Z-0.1388
X-4.1644 Y-1.8266 Z-0.1373
X-4.1625 Y-1.8239 Z-0.1352
X-4.1607 Y-1.8215 Z-0.1327
X-4.1592 Y-1.8194 Z-0.1297
X-4.158 Y-1.8178 Z-0.1263
X-4.1571 Y-1.8165 Z-0.1227
X-4.1566 Y-1.8158 Z-0.1189
X-4.1564 Y-1.8156 Z-0.115
Z0.2
X-4.0607 Y1.8585
Z-0.09
Z-0.115
X-4.0609 Y1.8586 Z-0.1189
X-4.0618 Y1.8589 Z-0.1227
X-4.0632 Y1.8594 Z-0.1263
X-4.0652 Y1.8601 Z-0.1297
X-4.0676 Y1.861 Z-0.1327
X-4.0704 Y1.862 Z-0.1352
X-4.0735 Y1.8631 Z-0.1373
X-4.0769 Y1.8643 Z-0.1388
X-4.0805 Y1.8656 Z-0.1397
X-4.0842 Y1.8669 Z-0.14
G3 X-4.115 Y1.8697 I-0.0208 J-0.0588
X-4.1644 Y1.8567 I0.0627 J-0.3392
G1 X-4.2137 Y1.84
G3 X-4.2877 Y1.8054 I0.3316 J-0.8046
X-4.3469 Y1.761 I0.1058 J-0.2029
G1 X-4.365 Y1.7412
X-4.3852 Y1.7152
G3 X-4.453 Y1.5877 I0.5219 J-0.3593
X-4.5284 Y1.3462 I1.5279 J-0.6098
X-4.6116 Y0.8835 I4.0557 J-0.9678
X-4.6426 Y0.5984 I5.4176 J-0.7334
G1 X-4.6425 Y-0.5382
X-4.6407 Y-0.5743
G3 X-4.6202 Y-0.8629 I2.7413 J0.0497
X-4.4908 Y-1.6271 I6.6185 J0.7277
G1 X-4.4876 Y-1.636
X-4.4833 Y-1.6444
X-4.4777 Y-1.6519
X-4.4521 Y-1.681
X-4.4453 Y-1.6885
G3 X-4.3792 Y-1.746 I0.7877 J0.838
G1 X-4.3617 Y-1.7586
X-4.3563 Y-1.7625
X-4.3342 Y-1.7773
G3 X-4.3052 Y-1.7754 I0.0132 J0.0213
G1 X-4.3022 Y-1.7729 Z-0.1397
X-4.2993 Y-1.7705 Z-0.1388
X-4.2964 Y-1.7682 Z-0.1373
X-4.2938 Y-1.7661 Z-0.1352
X-4.2915 Y-1.7642 Z-0.1327
X-4.2896 Y-1.7626 Z-0.1297
X-4.288 Y-1.7613 Z-0.1263
X-4.2868 Y-1.7604 Z-0.1227
X-4.2861 Y-1.7598 Z-0.1189
X-4.2859 Y-1.7596 Z-0.115
Z0.2
X-4.621 Y-0.487
Z-0.09
Z-0.115
X-4.6212 Y-0.4873 Z-0.1189
X-4.6216 Y-0.4881 Z-0.1227
X-4.6224 Y-0.4894 Z-0.1263
X-4.6234 Y-0.4911 Z-0.1297
X-4.6248 Y-0.4933 Z-0.1327
X-4.6263 Y-0.4959 Z-0.1352
X-4.628 Y-0.4987 Z-0.1373
X-4.6298 Y-0.5019 Z-0.1388
X-4.6318 Y-0.5051 Z-0.1397
X-4.6338 Y-0.5085 Z-0.14
G3 X-4.6425 Y-0.5382 I0.0536 J-0.0318
G1 Y-1.2037
G3 X-4.6364 Y-1.2941 I1.7321 J0.0713
G1 X-4.6341 Y-1.3106
X-4.633 Y-1.318
X-4.623 Y-1.3681
G3 X-4.5847 Y-1.4831 I0.7027 J0.1699
G1 X-4.5564 Y-1.5406
G3 X-4.4961 Y-1.6311 I0.9059 J0.5382
G1 X-4.4777 Y-1.6519
G3 X-4.4493 Y-1.6576 I0.0182 J0.0171
G1 X-4.4457 Y-1.656 Z-0.1397
X-4.4422 Y-1.6544 Z-0.1388
X-4.4389 Y-1.653 Z-0.1373
X-4.4358 Y-1.6516 Z-0.1352
X-4.4331 Y-1.6504 Z-0.1327
X-4.4308 Y-1.6493 Z-0.1297
X-4.4289 Y-1.6485 Z-0.1263
X-4.4275 Y-1.6479 Z-0.1227
X-4.4267 Y-1.6475 Z-0.1189
X-4.4264 Y-1.6474 Z-0.115
Z0.2
X-4.2323 Y1.8087
Z-0.09
Z-0.115
X-4.2326 Z-0.1189
X-4.2335 Y1.8088 Z-0.1227
X-4.235 Y1.8089 Z-0.1263
X-4.2371 Y1.809 Z-0.1297
X-4.2396 Y1.8092 Z-0.1327
X-4.2426 Y1.8095 Z-0.1352
X-4.2459 Y1.8097 Z-0.1373
X-4.2495 Y1.81 Z-0.1388
X-4.2533 Y1.8103 Z-0.1397
X-4.2572 Y1.8106 Z-0.14
G3 X-4.2877 Y1.8053 I-0.0049 J-0.0621
G1 X-4.2959 Y1.8013
G3 X-4.3864 Y1.7407 I0.4899 J-0.8294
G1 X-4.4364 Y1.6968
X-4.4439 Y1.69
G3 X-4.5015 Y1.6243 I1.038 J-0.9681
G1 X-4.5179 Y1.6006
X-4.5305 Y1.5818
G3 X-4.6059 Y1.4179 I0.5495 J-0.3522
X-4.6292 Y1.3372 I1.126 J-0.3686
G1 X-4.6295 Y1.3334 Z-0.1392
X-4.6293 Y1.3296 Z-0.1385
X-4.6285 Y1.326 Z-0.1377
X-4.6271 Y1.3224 Z-0.1369
X-4.6252 Y1.3191 Z-0.1361
X-4.6228 Y1.3162 Z-0.1354
X-4.6201 Y1.3136 Z-0.1346
X-4.6169 Y1.3115 Z-0.1338
X-4.6143 Y1.3102 Z-0.1332
X-4.6114 Y1.3092 Z-0.1326
X-4.6085 Y1.3085 Z-0.132
G3 X-4.5813 Y1.3238 I0.004 J0.0247
G1 X-4.487 Y1.5578
G3 X-4.4956 Y1.5875 I-0.0232 J0.0094
X-4.5305 Y1.5818 Z-0.14 I-0.0146 J-0.0203
X-4.5564 Y1.5407 I0.6781 J-0.4557
G1 X-4.5847 Y1.4832
X-4.595 Y1.4585
X-4.5978 Y1.4503
X-4.6117 Y1.4092
X-4.6145 Y1.401
X-4.6211 Y1.3763
X-4.623 Y1.3681
X-4.633 Y1.318
X-4.6341 Y1.3106
X-4.6364 Y1.2942
G3 X-4.6425 Y1.2038 I1.3561 J-0.1369
G1 Y0.5984
G3 X-4.6249 Y0.5754 I0.025 J0.0009
G1 X-4.6211 Y0.5743 Z-0.1397
X-4.6175 Y0.5731 Z-0.1388
X-4.614 Y0.5721 Z-0.1373
X-4.6108 Y0.5711 Z-0.1352
X-4.608 Y0.5702 Z-0.1327
X-4.6056 Y0.5695 Z-0.1297
X-4.6036 Y0.5689 Z-0.1263
X-4.6022 Y0.5684 Z-0.1227
X-4.6013 Y0.5681 Z-0.1189
X-4.601 Y0.568 Z-0.115
Z0.2
X2.9457 Y-1.866
Z-0.09
Z-0.115
X2.946 Y-1.8662 Z-0.1189
X2.9467 Y-1.8666 Z-0.1227
X2.948 Y-1.8674 Z-0.1263
X2.9498 Y-1.8685 Z-0.1297
X2.952 Y-1.8698 Z-0.1327
X2.9546 Y-1.8713 Z-0.1352
X2.9574 Y-1.873 Z-0.1373
X2.9605 Y-1.8748 Z-0.1388
X2.9638 Y-1.8768 Z-0.1397
X2.9672 Y-1.8788 Z-0.14
G3 X2.9969 Y-1.8875 I0.0318 J0.0536
G1 X3.3586
X3.3947 Y-1.8857
X3.4274 Y-1.8823
G3 X3.5665 Y-1.8434 I-0.1089 J0.6581
X3.8857 Y-1.6745 I-0.6022 J1.5244
X4.6409 Y-0.7472 I-1.1183 J1.6819
G1 X4.642 Y-0.7397
X4.6425 Y-0.7323
Y-0.4134
G3 X4.6249 Y-0.3904 I-0.025 J-0.0009
G1 X4.6211 Y-0.3892 Z-0.1397
X4.6175 Y-0.3881 Z-0.1388
X4.614 Y-0.387 Z-0.1373
X4.6108 Y-0.386 Z-0.1352
X4.608 Y-0.3852 Z-0.1327
X4.6056 Y-0.3844 Z-0.1297
X4.6036 Y-0.3838 Z-0.1263
X4.6022 Y-0.3834 Z-0.1227
X4.6013 Y-0.3831 Z-0.1189
X4.601 Y-0.383 Z-0.115
Z0.2
X3.3075 Y-1.866
Z-0.09
Z-0.115
X3.3077 Y-1.8662 Z-0.1189
X3.3085 Y-1.8666 Z-0.1227
X3.3098 Y-1.8674 Z-0.1263
X3.3116 Y-1.8685 Z-0.1297
X3.3137 Y-1.8698 Z-0.1327
X3.3163 Y-1.8713 Z-0.1352
X3.3192 Y-1.873 Z-0.1373
X3.3223 Y-1.8748 Z-0.1388
X3.3256 Y-1.8768 Z-0.1397
X3.3289 Y-1.8788 Z-0.14
G3 X3.3586 Y-1.8875 I0.0319 J0.0536
G1 X3.6053
X3.6322 Y-1.8862
X3.6575 Y-1.8828
X3.689 Y-1.8761
G3 X3.8231 Y-1.8224 I-0.1735 J0.6271
X4.0938 Y-1.6425 I-0.7583 J1.4346
X4.6355 Y-0.9888 I-1.316 J1.6418
G1 X4.6394 Y-0.98
X4.6417 Y-0.9707
X4.6425 Y-0.9612
Y-0.7323
G3 X4.6249 Y-0.7092 I-0.025 J-0.0008
G1 X4.6211 Y-0.7081 Z-0.1397
X4.6175 Y-0.707 Z-0.1388
X4.614 Y-0.7059 Z-0.1373
X4.6108 Y-0.7049 Z-0.1352
X4.608 Y-0.704 Z-0.1327
X4.6056 Y-0.7033 Z-0.1297
X4.6036 Y-0.7027 Z-0.1263
X4.6022 Y-0.7022 Z-0.1227
X4.6013 Y-0.702 Z-0.1189
X4.601 Y-0.7019 Z-0.115
Z0.2
X3.5541 Y-1.866
Z-0.09
Z-0.115
X3.5544 Y-1.8662 Z-0.1189
X3.5552 Y-1.8666 Z-0.1227
X3.5565 Y-1.8674 Z-0.1263
X3.5582 Y-1.8685 Z-0.1297
X3.5604 Y-1.8698 Z-0.1327
X3.563 Y-1.8713 Z-0.1352
X3.5658 Y-1.873 Z-0.1373
X3.569 Y-1.8748 Z-0.1388
X3.5722 Y-1.8768 Z-0.1397
X3.5756 Y-1.8788 Z-0.14
G3 X3.6053 Y-1.8875 I0.0318 J0.0536
G1 X3.8026
X3.825 Y-1.8864
X3.8457 Y-1.8837
X3.871 Y-1.8783
X3.9019 Y-1.869
G3 X4.0312 Y-1.8046 I-0.2218 J0.6076
X4.2867 Y-1.6036 I-0.8892 J1.3929
X4.6335 Y-1.1853 I-1.489 J1.5874
G1 X4.6385 Y-1.1756
X4.6415 Y-1.1651
X4.6425 Y-1.1543
Y-0.9612
G3 X4.6249 Y-0.9382 I-0.025 J-0.0009
G1 X4.6211 Y-0.937 Z-0.1397
X4.6175 Y-0.9359 Z-0.1388
X4.614 Y-0.9348 Z-0.1373
X4.6108 Y-0.9338 Z-0.1352
X4.608 Y-0.933 Z-0.1327
X4.6056 Y-0.9322 Z-0.1297
X4.6036 Y-0.9316 Z-0.1263
X4.6022 Y-0.9312 Z-0.1227
X4.6013 Y-0.9309 Z-0.1189
X4.601 Y-0.9308 Z-0.115
Z0.2
X3.7514 Y-1.866
Z-0.09
Z-0.115
X3.7517 Y-1.8662 Z-0.1189
X3.7525 Y-1.8666 Z-0.1227
X3.7538 Y-1.8674 Z-0.1263
X3.7555 Y-1.8685 Z-0.1297
X3.7577 Y-1.8698 Z-0.1327
X3.7603 Y-1.8713 Z-0.1352
X3.7632 Y-1.873 Z-0.1373
X3.7663 Y-1.8748 Z-0.1388
X3.7696 Y-1.8768 Z-0.1397
X3.7729 Y-1.8788 Z-0.14
G3 X3.8026 Y-1.8875 I0.0319 J0.0536
G1 X3.9588
X3.967 Y-1.8871
X3.9904 Y-1.8857
X4.014 Y-1.883
X4.035 Y-1.8788
X4.0598 Y-1.8718
X4.0901 Y-1.8605
G3 X4.215 Y-1.7878 I-0.2612 J0.5923
X4.4569 Y-1.5707 I-0.9909 J1.3475
X4.6187 Y-1.3776 I-1.4619 J1.3895
G1 X4.6221 Y-1.3694
X4.6244 Y-1.361
G3 X4.6374 Y-1.2859 I-0.6347 J0.1482
G1 X4.6417 Y-1.2202
X4.6421 Y-1.212
X4.6425 Y-1.2037
Y-1.1543
G3 X4.6167 Y-1.1302 Z-0.132 I-0.025 J-0.0009
X4.5988 Y-1.1385 I0.0008 J-0.025
G1 X3.9711 Y-1.8441
G3 X3.9648 Y-1.8614 I0.0187 J-0.0166
X3.9904 Y-1.8857 Z-0.14 I0.025 J0.0007
G1 X4.041 Y-1.8824
X4.0492 Y-1.8815
G3 X4.1315 Y-1.8662 I-0.1113 J0.8266
G1 X4.1561 Y-1.8593
X4.1643 Y-1.8567
X4.2137 Y-1.84
G3 X4.3042 Y-1.7968 I-0.3591 J0.8685
X4.3864 Y-1.7408 I-0.6303 J1.0125
G1 X4.4365 Y-1.6967
X4.4439 Y-1.69
G3 X4.5015 Y-1.6243 I-1.0413 J0.9711
X4.5565 Y-1.5407 I-1.0672 J0.7615
G1 X4.5848 Y-1.4831
G3 X4.6145 Y-1.4009 I-0.7662 J0.3234
G1 X4.6211 Y-1.3763
X4.623 Y-1.3681
X4.6244 Y-1.361
X4.6247 Y-1.358
Y-1.3551
X4.624 Y-1.3522 Z-0.1398
X4.6232 Y-1.3493 Z-0.1393
X4.6225 Y-1.3465 Z-0.1384
X4.6207 Y-1.3439 Z-0.1369
X4.619 Y-1.3415 Z-0.135
X4.6175 Y-1.3393 Z-0.1327
X4.6155 Y-1.3378 Z-0.1297
X4.6138 Y-1.3366 Z-0.1264
X4.6126 Y-1.3357 Z-0.1227
X4.6119 Y-1.3351 Z-0.1189
X4.6117 Y-1.335 Z-0.115
Z0.2
X-3.4075 Y2.245
Z0.1
Z-0.14 F32
X-3.4086 Y2.246 F65
X-3.4094 Y2.2447 F58.5
X-3.4089 Y2.2433
X-3.4076 Y2.2426
X-3.4061 Y2.2429
X-3.4051 Y2.244
X-3.4046 Y2.2454
X-3.4047 Y2.2469
X-3.4054 Y2.2483
X-3.4065 Y2.2493
X-3.4079 Y2.2498
X-3.4094 Y2.2499
X-3.4109 Y2.2496
X-3.4135 Y2.2481
X-3.4151 Y2.2456
X-3.4155 Y2.2426
X-3.4148 Y2.2397
X-3.4132 Y2.2372
X-3.4108 Y2.2354
X-3.4079 Y2.2344
X-3.402 Y2.2341
X-3.3966 Y2.2368
X-3.3929 Y2.2415 F65
X-3.3914 Y2.2473
X-3.3921 Y2.2533
G3 X-3.427 Y2.2613 I-0.0202 J-0.0081
X-3.4331 Y2.2281 I0.0171 J-0.0203
X-3.3819 Y2.2619 I0.0256 J0.0169
X-3.4347 Y2.2308 I-0.0256 J-0.0169
G1 X-3.433 Y2.2281
X-3.4321 Y2.2278 Z-0.1398
X-3.4314 Y2.2276 Z-0.1392
X-3.431 Z-0.1385
X-3.4308 Y2.2277 Z-0.1376
Z0.2
X3.4075 Y2.245
Z0.1
Z-0.14 F32
X3.4082 Y2.2437 F65
X3.4094 Y2.2446 F58.5
X3.4093 Y2.2461
X3.4083 Y2.2472
X3.4068 Y2.2474
X3.4055 Y2.2467
X3.4046 Y2.2455
X3.4043 Y2.244
X3.4044 Y2.2425
X3.4052 Y2.2412
X3.4063 Y2.2403
X3.4077 Y2.2397
X3.4092 Y2.2396
X3.4122 Y2.2401
X3.4145 Y2.242
X3.4159 Y2.2447
X3.4161 Y2.2477
X3.4153 Y2.2506
X3.4136 Y2.2531
X3.4113 Y2.2549
X3.4057 Y2.2571
X3.3998 Y2.2562
X3.3948 Y2.2529 F65
X3.3915 Y2.2479
X3.3903 Y2.242
G3 X3.4208 Y2.2233 I0.0217 J0.0012
X3.4359 Y2.2552 I-0.009 J0.0238
G1 X3.4329 Y2.262
G3 X3.3821 Y2.228 I-0.0254 J-0.017
X3.4347 Y2.259 I0.0254 J0.017
G1 X3.4329 Y2.262
X3.432 Y2.2623 Z-0.1398
X3.4313 Y2.2626 Z-0.1393
X3.4309 Y2.2625 Z-0.1385
X3.4307 Z-0.1376
Z0.2
X0.0725 Y1.727
Z-0.03
Z-0.055
X0.0726 Y1.7273 Z-0.0589
X0.0728 Y1.7282 Z-0.0627
X0.0732 Y1.7297 Z-0.0663
X0.0737 Y1.7316 Z-0.0697
X0.0743 Y1.7341 Z-0.0727
X0.075 Y1.737 Z-0.0752
X0.0759 Y1.7402 Z-0.0773
X0.0768 Y1.7438 Z-0.0788
X0.0777 Y1.7475 Z-0.0797
X0.0787 Y1.7512 Z-0.08
G3 X0.0983 Y1.8873 I-0.6183 J0.1584
G1 Y1.8933 F58.5
G3 X0.0633 Y1.9282 I-0.0821 J-0.0473 F65
G1 X0.0505 Y1.936
X0.0339 Y1.9442
X0.0121 Y1.9528
X-0.0174 Y1.9618
G3 X-0.1606 Y1.9812 I-0.1707 J-0.723
X-0.45 Y1.9869 I-0.2452 J-5.1143
G1 X-0.5223 Y1.9873
X-0.6309 Y1.9874
X-0.9203 Y1.9875
X-1.8611
X-3.6194
G3 X-3.6712 Y1.9559 I0 J-0.0583
X-3.6661 Y1.9274 I0.0226 J-0.0107
G1 X-3.6633 Y1.9246 Z-0.0797
X-3.6606 Y1.9219 Z-0.0788
X-3.658 Y1.9194 Z-0.0773
X-3.6556 Y1.9171 Z-0.0752
X-3.6535 Y1.915 Z-0.0727
X-3.6517 Y1.9132 Z-0.0697
X-3.6502 Y1.9118 Z-0.0663
X-3.6491 Y1.9107 Z-0.0627
X-3.6485 Y1.9101 Z-0.0589
X-3.6483 Y1.9099 Z-0.055
Z0.2
X-3.9539 Y-1.8574
Z-0.03
Z-0.055
X-3.9536 Z-0.0589
X-3.9527 Y-1.8577 Z-0.0627
X-3.9513 Y-1.8581 Z-0.0663
X-3.9493 Y-1.8587 Z-0.0697
X-3.9469 Y-1.8594 Z-0.0727
X-3.944 Y-1.8602 Z-0.0752
X-3.9408 Y-1.8611 Z-0.0773
X-3.9373 Y-1.8621 Z-0.0788
X-3.9336 Y-1.8632 Z-0.0797
X-3.9299 Y-1.8642 Z-0.08
G3 X-3.7944 Y-1.8875 I0.1753 J0.6137
G1 X-3.7697 Y-1.8882
G2 X-3.7003 Y-1.9186 I-0.0131 J-0.1244
G3 X-3.6542 Y-1.9457 I0.1126 J0.1389
G1 X-3.6313 Y-1.9544
X-3.5999 Y-1.9635
G3 X-3.4565 Y-1.9816 I0.1711 J0.7791
X-3.1956 Y-1.9869 I0.2303 J4.9474
X-3.1434 Y-1.9552 I0.0008 J0.0575
G1 X-3.1421 Y-1.9521 Z-0.0793
X-3.1411 Y-1.9488 Z-0.0786
X-3.1407 Y-1.9454 Z-0.0779
G3 X-3.1543 Y-1.9217 Z-0.072 I-0.0249 J0.0015
G1 X-3.157 Y-1.9204
X-3.1599 Y-1.9195
X-3.1629 Y-1.919
X-3.6883 Y-1.8604
G3 X-3.716 Y-1.8836 I-0.0028 J-0.0248
G1 X-3.7161 Y-1.8863 Z-0.0725
X-3.7158 Y-1.889 Z-0.0731
X-3.7153 Y-1.8916 Z-0.0736
X-3.715 Y-1.8925 Z-0.0738
G3 X-3.7003 Y-1.9186 Z-0.08 I0.06 J0.0167
G2 X-3.6684 Y-1.9622 I-0.0759 J-0.0891
G3 X-3.6317 Y-2.0065 I0.1091 J0.053
G1 X-3.6193 Y-2.0157
X-3.6036 Y-2.0254
X-3.5843 Y-2.0353
X-3.5594 Y-2.0456
X-3.5269 Y-2.0562
G3 X-3.3841 Y-2.0784 I0.187 J0.734
X-3.2462 Y-2.0837 I0.1238 J1.4257
G1 X-3.2244 Y-2.0814
X-3.2045 Y-2.0778
G3 X-3.1591 Y-2.0344 I-0.0117 J0.0577
G1 X-3.1574 Y-2.022
X-3.1573 Y-2.0172
X-3.157 Y-2.009
G3 X-3.179 Y-1.9842 Z-0.0726 I-0.025 J0
G1 X-3.182 Y-1.9838 Z-0.072
X-3.642 Y-1.9283
G3 X-3.6541 Y-1.9298 I-0.003 J-0.0248
X-3.6683 Y-1.9622 Z-0.08 I0.0091 J-0.0233
G2 X-3.6581 Y-2.0053 I-0.1014 J-0.0468
G3 X-3.6305 Y-2.0668 I0.1035 J0.0096
X-3.5792 Y-2.1105 I0.1521 J0.1267
G1 X-3.5585 Y-2.1222
X-3.5325 Y-2.1342
X-3.4999 Y-2.1463
G3 X-3.2858 Y-2.1773 I0.2134 J0.7197
G1 X-3.2581 Y-2.1758
G3 X-3.1945 Y-2.1611 I-0.0189 J0.2264
X-3.1574 Y-2.1067 I-0.0216 J0.0546
G1 X-3.1575 Y-2.0254
X-3.1574 Y-2.022
G3 X-3.1815 Y-1.9972 Z-0.0722 I-0.025 J-0.0002
G1 X-3.1826 Z-0.072
X-3.6322 Y-1.9803
X-3.6327
X-3.6331
G3 X-3.6581 Y-2.0053 Z-0.08 I0 J-0.025
G1 X-3.6577 Y-2.0172
X-3.6575 Y-2.0254
Y-2.071
G3 X-3.6289 Y-2.1432 I0.1217 J0.0065
X-3.5743 Y-2.1939 I0.1747 J0.1334
G1 X-3.5525 Y-2.2076
X-3.5266 Y-2.2209
X-3.4941 Y-2.2345
G3 X-3.2831 Y-2.2678 I0.1923 J0.5328
G1 X-3.2555 Y-2.2651
G3 X-3.1919 Y-2.2482 I-0.0285 J0.2355
X-3.1572 Y-2.1915 I-0.0239 J0.0536
G1 X-3.1573 Y-2.1898
X-3.1575 Y-2.1815
Y-2.1067
G3 X-3.1805 Y-2.0827 Z-0.0726 I-0.025 J-0.0009
G1 X-3.1833 Y-2.0824 Z-0.072
X-3.6305 Y-2.047
X-3.6311 Y-2.0469
X-3.6317
G3 X-3.6575 Y-2.071 Z-0.08 I-0.0008 J-0.025
G1 Y-2.1487
G3 X-3.6346 Y-2.2168 I0.1271 J0.0048
X-3.566 Y-2.2846 I0.197 J0.1305
G1 X-3.5423 Y-2.2996
X-3.5143 Y-2.314
G3 X-3.3947 Y-2.3505 I0.191 J0.4118
G1 X-3.3857 Y-2.3517
X-3.3812 Y-2.3523
X-3.3453 Y-2.3565
X-3.3093 Y-2.358
X-3.2762 Y-2.3567
G3 X-3.1931 Y-2.3378 I-0.0179 J0.2715
G1 X-3.1784 Y-2.3308
X-3.1661 Y-2.3237
G3 X-3.1391 Y-2.292 I-0.0311 J0.0539
X-3.1421 Y-2.2453 I-0.0551 J0.0199
X-3.1582 Y-2.2332 Z-0.0758 I-0.0217 J-0.0122
G1 X-3.1674 Y-2.231 Z-0.0738
X-3.1762 Y-2.229 Z-0.072
X-3.6269 Y-2.1252
X-3.6293 Y-2.1248
X-3.6317 Y-2.1246
G3 X-3.6574 Y-2.1487 Z-0.08 I-0.0008 J-0.0249
G1 X-3.6575 Y-2.1815
G2 X-3.661 Y-2.2144 I-0.1229 J-0.0034
G3 X-3.6565 Y-2.2635 I0.0924 J-0.0162
X-3.6056 Y-2.3413 I0.1801 J0.0623
X-3.4974 Y-2.4102 I0.2277 J0.238
G1 X-3.4937 Y-2.4112 Z-0.0792
X-3.4899 Y-2.4116 Z-0.0785
X-3.4862 Y-2.4114 Z-0.0777
X-3.4824 Y-2.4107 Z-0.0769
X-3.4789 Y-2.4094 Z-0.0761
X-3.4756 Y-2.4076 Z-0.0754
X-3.4725 Y-2.4053 Z-0.0746
X-3.4699 Y-2.4026 Z-0.0738
X-3.4681 Y-2.4002 Z-0.0732
X-3.4667 Y-2.3976 Z-0.0726
X-3.4655 Y-2.3949 Z-0.072
G3 X-3.4705 Y-2.3699 I-0.0236 J0.0083
G1 X-3.6184 Y-2.2047
G3 X-3.6301 Y-2.1974 I-0.0186 J-0.0167
X-3.661 Y-2.2144 Z-0.08 I-0.0069 J-0.024
G2 X-3.6767 Y-2.2518 I-0.1206 J0.0287
G3 X-3.6848 Y-2.3272 I0.0844 J-0.0472
X-3.6731 Y-2.3612 I0.1402 J0.0294
G2 X-3.6877 Y-2.4275 I-0.0537 J-0.0229
G1 X-3.7164 Y-2.4495
X-3.7505 Y-2.4618
X-3.7855 Y-2.4707
G2 X-3.9654 Y-2.488 I-0.1854 J0.9861
X-4.1098 Y-2.4811 I-0.0287 J0.9184
X-4.4252 Y-2.4042 I0.1196 J1.1763
X-4.7405 Y-2.2294 I0.4367 J1.1594
X-5.1526 Y-1.6893 I0.7794 J1.0219
G1 X-5.1652 Y-1.6554
G2 X-5.2306 Y-1.449 I0.8158 J0.3719
X-5.2515 Y-1.2695 I1.0704 J0.2157
X-5.2569 Y-0.9801 I5.3527 J0.244
G1 X-5.2573 Y-0.9077
X-5.2574 Y-0.7992
Y-0.5097
X-5.2573 Y0.2863
X-5.2571 Y1.1184
G2 X-5.252 Y1.2992 I2.1439 J0.0297
X-5.1993 Y1.5833 I1.3897 J-0.1106
X-4.8386 Y2.159 I1.237 J-0.3742
X-4.5738 Y2.347 I0.862 J-0.9334
X-4.4426 Y2.408 I0.8021 J-1.5527
X-4.0198 Y2.4968 I0.4673 J-1.1736
X-3.7304 Y2.5018 I0.2448 J-5.7957
G1 X-3.6581 Y2.5023
X-3.5224 Y2.5024
X-3.0837
X-2.9389
X-0.9489 Y2.5022
X1.0411 Y2.502
X3.0311 Y2.5017
X3.913 Y2.5016
G2 X4.2011 Y2.478 I0.0188 J-1.5403
X4.4437 Y2.4068 I-0.2297 J-1.2318
X4.7279 Y2.2499 I-0.4429 J-1.1377
X4.9162 Y2.0812 I-0.7464 J-1.0224
X5.008 Y1.9693 I-1.1715 J-1.0544
X5.1506 Y1.7181 I-1.1054 J-0.7937
X5.2335 Y1.4413 I-1.2555 J-0.527
X5.2516 Y1.2614 I-1.3959 J-0.2317
X5.2568 Y0.972 I-5.5328 J-0.2444
G1 X5.2573 Y0.8997
X5.2574 Y0.7911
Y0.5017
Y0.176
X5.2571 Y-1.1265
G2 X5.2513 Y-1.3073 I-1.9506 J-0.028
X5.1737 Y-1.6595 I-1.3455 J0.1117
X5.1155 Y-1.7919 I-1.0918 J0.401
X5.0018 Y-1.9765 I-1.0731 J0.5337
X4.8847 Y-2.1142 I-0.9948 J0.7269
X4.5666 Y-2.3507 I-0.9074 J0.8885
X4.4011 Y-2.4235 I-0.6467 J1.2452
X4.12 Y-2.4895 I-0.4281 J1.1917
X3.8309 Y-2.5012 I-0.2648 J2.9638
X3.3967 Y-2.5023 I-0.3035 J35.4699
G1 X1.4067 Y-2.5022
X-0.5833 Y-2.502
X-2.5733 Y-2.5018
X-3.107 Y-2.5017
G3 X-3.1311 Y-2.5276 Z-0.072 I0.0009 J-0.025
X-3.0811 Y-2.5259 I0.025 J0.0009
X-3.0954 Y-2.5041 I-0.025 J-0.0008
G1 X-3.6421 Y-2.2443
X-3.6451 Y-2.2429 Z-0.0727
G3 X-3.6767 Y-2.2518 Z-0.08 I-0.0107 J-0.0226
G2 X-3.7017 Y-2.2809 I-0.101 J0.0616
G1 X-3.7294 Y-2.3043
X-3.759 Y-2.325
X-3.7913 Y-2.3414
X-3.8252 Y-2.354
G2 X-3.9674 Y-2.3786 I-0.1681 J0.5485
X-4.3238 Y-2.3287 I-0.0427 J0.9934
X-5.0336 Y-1.6996 I0.351 J1.111
X-5.1278 Y-1.4268 I0.9903 J0.4945
G1 X-5.134 Y-1.3911
X-5.1391 Y-1.3553
G2 X-5.1551 Y-1.0665 I2.5128 J0.2844
X-5.1573 Y-0.7047 I18.2807 J0.2906
G1 X-5.1574 Y-0.4876
X-5.1572 Y0.6341
X-5.1571 Y1.0321
G2 X-5.15 Y1.2852 I2.9796 J0.0434
X-5.0706 Y1.637 I1.3021 J-0.1091
X-4.6261 Y2.194 I1.1111 J-0.4309
X-4.4022 Y2.3114 I0.6845 J-1.0334
G1 X-4.3684 Y2.3242
G2 X-4.1565 Y2.3708 I0.5116 J-1.8207
X-3.8679 Y2.3904 I0.3029 J-2.3242
X-3.6056 Y2.393 I0.2328 J-10.2781
X-3.5565 Y2.3582 I-0.004 J-0.0577
G1 X-3.5446 Y2.324
G3 X-3.5263 Y2.2303 I0.2516 J0.0005
G2 X-3.5359 Y2.1709 I-0.0525 J-0.022
G1 X-3.5614 Y2.1453
G3 X-3.6277 Y2.1109 I2.3768 J-4.6626
X-3.6575 Y2.0599 I0.0289 J-0.0511
G1 Y2.0255
X-3.6577 Y2.0173
X-3.658 Y2.009
G3 X-3.6412 Y1.9855 I0.025 J0.0001
G1 X-3.6375 Y1.9841 Z-0.0797
X-3.6339 Y1.9829 Z-0.0788
X-3.6305 Y1.9817 Z-0.0773
X-3.6273 Y1.9806 Z-0.0752
X-3.6245 Y1.9796 Z-0.0727
X-3.6221 Y1.9788 Z-0.0697
X-3.6201 Y1.9781 Z-0.0663
X-3.6187 Y1.9776 Z-0.0627
X-3.6179 Y1.9773 Z-0.0589
X-3.6176 Y1.9772 Z-0.055
Z0.2
X2.8632 Y-1.8583
Z-0.03
Z-0.055
X2.8635 Y-1.8584 Z-0.0589
X2.8643 Y-1.8587 Z-0.0627
X2.8658 Y-1.8591 Z-0.0663
X2.8678 Y-1.8596 Z-0.0697
X2.8702 Y-1.8603 Z-0.0727
X2.8731 Y-1.8611 Z-0.0752
X2.8763 Y-1.862 Z-0.0773
X2.8798 Y-1.863 Z-0.0788
X2.8835 Y-1.864 Z-0.0797
X2.8872 Y-1.865 Z-0.08
G3 X3.0229 Y-1.8875 I0.1716 J0.6147
G2 X3.0626 Y-1.8911 I0.0021 J-0.1974
X3.1147 Y-1.9185 I-0.0322 J-0.1245
G3 X3.163 Y-1.9466 I0.1142 J0.1411
G1 X3.1867 Y-1.9554
X3.2192 Y-1.9645
G3 X3.3627 Y-1.9818 I0.1714 J0.816
X3.6194 Y-1.9868 I0.2281 J5.0789
X3.6714 Y-1.9554 I0.0008 J0.0575
G1 X3.6728 Y-1.9519 Z-0.0792
X3.6736 Y-1.9482 Z-0.0785
X3.6739 Y-1.9444 Z-0.0777
X3.6735 Y-1.9406 Z-0.0769
X3.6726 Y-1.937 Z-0.0761
X3.6712 Y-1.9335 Z-0.0754
X3.6692 Y-1.9302 Z-0.0746
X3.6668 Y-1.9273 Z-0.0738
X3.6646 Y-1.9253 Z-0.0732
X3.6622 Y-1.9236 Z-0.0726
X3.6596 Y-1.9222 Z-0.072
X3.6568 Y-1.921
X3.6539 Y-1.9203
X3.651 Y-1.9198
X3.134 Y-1.8756
G3 X3.1138 Y-1.8833 I-0.0021 J-0.0249
X3.1147 Y-1.9186 Z-0.08 I0.0181 J-0.0172
G2 X3.1467 Y-1.9622 I-0.0799 J-0.0922
G3 X3.1833 Y-2.0064 I0.1081 J0.0522
G1 X3.1958 Y-2.0158
X3.2115 Y-2.0254
X3.2309 Y-2.0354
X3.2558 Y-2.0457
X3.2884 Y-2.0563
G3 X3.4312 Y-2.0784 I0.187 J0.7356
X3.5691 Y-2.0836 I0.123 J1.4178
G1 X3.5908 Y-2.0813
X3.6106 Y-2.0778
G3 X3.6559 Y-2.0344 I-0.0118 J0.0577
G1 X3.6576 Y-2.022
X3.6577 Y-2.0172
X3.658 Y-2.009
G3 X3.636 Y-1.9842 Z-0.0726 I-0.025 J0
G1 X3.633 Y-1.9838 Z-0.072
X3.173 Y-1.9283
G3 X3.1609 Y-1.9298 I-0.003 J-0.0248
X3.1467 Y-1.9622 Z-0.08 I0.0091 J-0.0233
G2 X3.1569 Y-2.0053 I-0.1015 J-0.0469
G3 X3.1846 Y-2.0668 I0.1035 J0.0096
X3.2359 Y-2.1105 I0.152 J0.1267
G1 X3.2566 Y-2.1222
X3.2825 Y-2.1342
X3.3152 Y-2.1463
G3 X3.5293 Y-2.1772 I0.2133 J0.7197
G1 X3.5569 Y-2.1758
G3 X3.6205 Y-2.1611 I-0.0189 J0.2264
X3.6576 Y-2.1067 I-0.0216 J0.0546
G1 X3.6575 Y-2.0254
X3.6576 Y-2.022
G3 X3.6335 Y-1.9972 Z-0.0722 I-0.025 J-0.0002
G1 X3.6324 Z-0.072
X3.1828 Y-1.9803
X3.1823
X3.1819
G3 X3.1569 Y-2.0053 Z-0.08 I0 J-0.025
G1 X3.1573 Y-2.0172
X3.1575 Y-2.0254
Y-2.071
G3 X3.1906 Y-2.1535 I0.1248 J0.0021
X3.2701 Y-2.2161 I0.1856 J0.1538
X3.4294 Y-2.2667 I0.225 J0.4327
X3.5846 Y-2.2662 I0.0763 J0.4235
X3.6326 Y-2.249 I-0.0431 J0.1959
X3.6581 Y-2.1972 I-0.0342 J0.049
G1 X3.6577 Y-2.1898
X3.6575 Y-2.1815
Y-2.1067
G3 X3.6345 Y-2.0826 Z-0.0726 I-0.025 J-0.0008
G1 X3.6317 Y-2.0824 Z-0.072
X3.1845 Y-2.047
X3.1839 Y-2.0469
X3.1833
G3 X3.1575 Y-2.071 Z-0.08 I-0.0008 J-0.025
G1 Y-2.1569
G3 X3.1812 Y-2.2233 I0.1274 J0.0081
X3.2518 Y-2.2913 I0.1961 J0.133
G1 X3.2556 Y-2.2937
G3 X3.2897 Y-2.2844 Z-0.072 I0.0124 J0.0217
X3.293 Y-2.272 I-0.0217 J0.0124
X3.288 Y-2.257 I-0.025 J0
G1 X3.2025 Y-2.1428
G3 X3.1833 Y-2.1328 I-0.02 J-0.015
X3.1575 Y-2.1569 Z-0.08 I-0.0008 J-0.025
G2 X3.1558 Y-2.2062 I-0.2982 J-0.0142
G1 X3.1539 Y-2.2144
G3 X3.1555 Y-2.2594 I0.0922 J-0.0193
G2 X3.1492 Y-2.2945 I-0.0587 J-0.0076
G1 X3.1396 Y-2.3098
X3.1137 Y-2.3351
X3.0828 Y-2.3539
X3.0493 Y-2.3676
X3.0145 Y-2.3776
G2 X2.8712 Y-2.396 I-0.1776 J0.8157
X2.5818 Y-2.4017 I-0.2464 J5.1728
G1 X2.5094 Y-2.4021
X2.4009 Y-2.4023
X2.1114
X1.2793 Y-2.4022
X-0.7108 Y-2.402
X-2.7008 Y-2.4018
X-2.9224
G2 X-2.9554 Y-2.3883 I0.0046 J0.0582
G1 X-2.9812 Y-2.3629
X-2.9916 Y-2.3419
G3 X-3.0402 Y-2.3097 I-0.0522 J-0.026
G1 X-3.0705 Y-2.3081 Z-0.0738
X-3.0794 Y-2.3076 Z-0.072
X-3.6635 Y-2.2774
X-3.6725 Y-2.2769 Z-0.0738
X-3.686 Y-2.2762 Z-0.0766
G3 X-3.7018 Y-2.2808 Z-0.08 I-0.0013 J-0.025
G2 X-3.7697 Y-2.3097 I-0.0813 J0.0968
G1 X-3.7944 Y-2.3105
X-3.8355
X-3.9588
X-3.9835 Y-2.3097
X-3.9917 Y-2.3093
X-4.0904 Y-2.3033
X-4.0986 Y-2.3023
G2 X-4.2301 Y-2.2784 I0.3841 J2.4919
X-4.3617 Y-2.2372 I0.7615 J2.6594
G1 X-4.4028 Y-2.2187
X-4.4686 Y-2.1891
X-4.4932 Y-2.1756
X-4.4971 Y-2.1733
X-4.5754 Y-2.126
X-4.5837 Y-2.1206
X-4.5919 Y-2.1153
X-4.6001 Y-2.1095
X-4.6823 Y-2.0451
G2 X-4.7131 Y-2.0172 I0.1536 J0.2007
G1 X-4.7788 Y-1.9515
X-4.7892 Y-1.9407
X-4.7939 Y-1.935
X-4.8004 Y-1.9268
X-4.8648 Y-1.8446
X-4.8709 Y-1.8364
G2 X-4.9443 Y-1.7132 I1.9224 J1.2285
X-4.9949 Y-1.5996 I3.5435 J1.6464
X-5.0335 Y-1.4749 I5.7543 J1.8507
X-5.0586 Y-1.3352 I2.8066 J0.5764
G1 X-5.0647 Y-1.2284
X-5.0655 Y-1.2037
Y-1.1873
Y1.1956
Y1.2038
X-5.0647 Y1.2284
X-5.0583 Y1.3353
X-5.0575 Y1.3435
G2 X-5.0335 Y1.475 I3.1102 J-0.4989
X-4.9947 Y1.5995 I2.989 J-0.8639
G1 X-4.9922 Y1.6064
X-4.9813 Y1.6311
X-4.9454 Y1.7107
X-4.9441 Y1.7132
X-4.9353 Y1.7297
G2 X-4.8708 Y1.8365 I2.4226 J-1.3899
G1 X-4.8648 Y1.8447
X-4.8004 Y1.9269
X-4.7938 Y1.9351
X-4.7892 Y1.9407
X-4.7788 Y1.9515
X-4.707 Y2.0233
G2 X-4.6823 Y2.045 I0.1482 J-0.1436
G1 X-4.6001 Y2.1095
X-4.5919 Y2.1153
X-4.5784 Y2.1241
X-4.5754 Y2.126
X-4.497 Y2.1734
X-4.4932 Y2.1756
X-4.4686 Y2.1891
X-4.3757 Y2.2309
X-4.3617 Y2.2372
X-4.3535 Y2.24
G2 X-4.2301 Y2.2784 I0.8445 J-2.4945
X-4.0986 Y2.3024 I0.5825 J-2.8233
G1 X-4.0904 Y2.3033
X-3.9917 Y2.3093
X-3.9835 Y2.3097
X-3.9588 Y2.3105
X-3.8026
X-3.7944
X-3.7697 Y2.3098
G2 X-3.6576 Y2.1816 I-0.0131 J-0.1246
G1 X-3.6575 Y2.0599
G3 X-3.6399 Y2.0369 I0.025 J0.0009
G1 X-3.6361 Y2.0357 Z-0.0797
X-3.6325 Y2.0346 Z-0.0788
X-3.629 Y2.0335 Z-0.0773
X-3.6258 Y2.0326 Z-0.0752
X-3.623 Y2.0317 Z-0.0727
X-3.6206 Y2.0309 Z-0.0697
X-3.6186 Y2.0303 Z-0.0663
X-3.6172 Y2.0299 Z-0.0627
X-3.6163 Y2.0296 Z-0.0589
X-3.616 Y2.0295 Z-0.055
Z0.2
X3.9539 Y1.8574
Z-0.03
Z-0.055
X3.9536 Z-0.0589
X3.9527 Y1.8577 Z-0.0627
X3.9513 Y1.8581 Z-0.0663
X3.9493 Y1.8587 Z-0.0697
X3.9469 Y1.8594 Z-0.0727
X3.944 Y1.8602 Z-0.0752
X3.9408 Y1.8611 Z-0.0773
X3.9373 Y1.8621 Z-0.0788
X3.9336 Y1.8632 Z-0.0797
X3.9299 Y1.8642 Z-0.08
G3 X3.7944 Y1.8875 I-0.1753 J-0.6137
G1 X3.7697 Y1.8882
G2 X3.7002 Y1.9187 I0.0131 J0.1244
G3 X3.654 Y1.9458 I-0.112 J-0.138
G1 X3.631 Y1.9545
X3.5996 Y1.9636
G3 X3.4562 Y1.9813 I-0.1702 J-0.7872
X3.1668 Y1.9869 I-0.2445 J-5.1993
G1 X3.0944 Y1.9873
X2.9859 Y1.9874
X2.6964 Y1.9875
X1.7195
X0.2723
X0.2361 Y1.9894
X0.2007 Y1.9969
X0.166 Y2.0072
G3 X0.0276 Y2.0494 I-0.5749 J-1.6387
X-0.1871 Y2.0791 I-0.2714 J-1.1707
G1 X-0.2232 Y2.0813
X-0.2594 Y2.0828
G3 X-0.6212 Y2.0872 I-0.3227 J-11.6911
G1 X-0.7297 Y2.0874
X-0.9468 Y2.0875
X-2.2493
G2 X-2.3398 Y2.091 I-0.0074 J0.9713
G3 X-2.702 Y2.096 I-0.2959 J-8.2763
G1 X-2.8105 Y2.0964
X-3.1 Y2.0965
X-3.2085
G2 X-3.2576 Y2.1316 I0.0045 J0.0582
G1 X-3.2693 Y2.1658
G3 X-3.2881 Y2.2594 I-0.2568 J-0.0028
G2 X-3.2786 Y2.3188 I0.0525 J0.0221
G1 X-3.2659 Y2.3317
X-3.2342 Y2.3491
X-3.2003 Y2.3618
X-3.1653 Y2.3708
G2 X-3.0217 Y2.3875 I0.178 J-0.9038
X-2.7323 Y2.3927 I0.2474 J-5.6833
G1 X-2.6599 Y2.3932
X-2.5514 Y2.3933
X-2.5152
X-2.479
G2 X-2.2259 Y2.4013 I0.2308 J-3.3043
X-1.9727 Y2.4022 I0.2012 J-20.3634
G1 X-1.7194 Y2.4023
X-0.5254 Y2.4021
X1.4646 Y2.4019
G2 X1.5551 Y2.3983 I0.0084 J-0.9351
G3 X1.9172 Y2.3933 I0.2978 J8.3865
G1 X2.0258 Y2.3929
X2.3152 Y2.3928
X3.2062 Y2.3927
G2 X3.2552 Y2.3576 I-0.0045 J-0.0581
G1 X3.2669 Y2.3234
G3 X3.2897 Y2.2246 I0.2576 J0.0074
G1 X3.2931 Y2.2163
X3.2949 Y2.2074
X3.2952 Y2.1984
G2 X3.277 Y2.1582 I-0.0582 J0.0022
G1 X3.2629 Y2.1468
X3.2297 Y2.1324
X3.195 Y2.1221
G2 X3.0518 Y2.1031 I-0.1771 J0.786
X2.7624 Y2.0972 I-0.2474 J5.0164
G1 X2.69 Y2.0967
X2.5815 Y2.0966
X2.3282 Y2.0965
X1.3513
X0.3744
G2 X0.2309 Y2.1121 I-0.0086 J0.5873
X0.1111 Y2.1407 I1.2421 J5.4628
G3 X-0.2311 Y2.1874 I-0.4198 J-1.7982
X-0.5706 Y2.1954 I-0.3061 J-5.8079
G1 X-0.6068 Y2.1959
X-0.643 Y2.1961
X-0.7153 Y2.1963
X-0.8239 Y2.1964
X-1.041 Y2.1965
X-2.1626
G2 X-2.4158 Y2.2025 I0.1197 J10.3351
G3 X-2.6329 Y2.2048 I-0.3582 J-23.4905
G1 X-3.0354 Y2.2058
X-3.0392 Y2.2059
X-3.043 Y2.2055
X-3.0467 Y2.2044
X-3.0502 Y2.2028
X-3.0534 Y2.2007
X-3.0562 Y2.1981
X-3.0586 Y2.195
X-3.0605 Y2.1917
X-3.0622 Y2.1881 Z-0.0797
X-3.0638 Y2.1847 Z-0.0788
X-3.0653 Y2.1814 Z-0.0773
X-3.0667 Y2.1783 Z-0.0752
X-3.0679 Y2.1756 Z-0.0727
X-3.069 Y2.1733 Z-0.0697
X-3.0699 Y2.1715 Z-0.0663
X-3.0705 Y2.1701 Z-0.0627
X-3.0709 Y2.1693 Z-0.0589
X-3.071 Y2.169 Z-0.055
Z0.2
X3.7216 Y1.8674
Z-0.03
Z-0.055
X3.7215 Y1.8677 Z-0.0589
X3.7212 Y1.8686 Z-0.0627
X3.7209 Y1.8701 Z-0.0663
X3.7203 Y1.8721 Z-0.0697
X3.7197 Y1.8745 Z-0.0727
X3.7189 Y1.8774 Z-0.0752
X3.7181 Y1.8806 Z-0.0773
X3.7172 Y1.8842 Z-0.0788
X3.7162 Y1.8878 Z-0.0797
X3.7152 Y1.8916 Z-0.08
G3 X3.7002 Y1.9186 I-0.0602 J-0.0158
G2 X3.6683 Y1.9622 I0.0765 J0.0895
G3 X3.6123 Y2.0233 I-0.1223 J-0.0559
X3.5807 Y2.0406 I-0.1031 J-0.1505
G2 X3.5516 Y2.0738 I0.0266 J0.0526
G1 X3.5425 Y2.1089
G3 X3.5398 Y2.213 I-0.5418 J0.0382
X3.526 Y2.2589 I-0.2422 J-0.0481
G2 X3.5361 Y2.3183 I0.0537 J0.0214
G1 X3.549 Y2.331
X3.5807 Y2.3484
X3.6146 Y2.361
X3.6496 Y2.3701
G2 X3.7932 Y2.3868 I0.178 J-0.9052
X4.1182 Y2.3769 I0.1106 J-1.7146
X4.6803 Y2.1439 I-0.1642 J-1.1906
X4.9292 Y1.8832 I-0.7297 J-0.9458
G1 X4.9494 Y1.8532
G2 X5.0709 Y1.632 I-0.6909 J-0.5236
