%
(002 - Cards and Holes)
(T3 D=0.125 CR=0 - ZMIN=-0.5 - flat end mill)
G90
G17
G20
(When using Fusion for Personal Use, the feedrate of rapid)
(moves is reduced to match the feedrate of cutting moves,)
(which can increase machining time. Unrestricted rapid moves)
(are available with a Fusion Subscription.)
G28 G91 Z0
G90

(Cards and Holes)
T3 M6
S14500 M3
G17 G90
G54
G0 X3.402 Y2.2968
Z0.58
G1 Z0.18 F50
Z0.0925 F10
X3.4012 Y2.2973 Z0.0878 F13.333
X3.3989 Y2.2984 Z0.0838
X3.3953 Y2.3 Z0.0811
X3.391 Y2.3016 Z0.08
G3 X3.3551 Y2.1884 Z0.0735 I-0.018 J-0.0566
X3.391 Y2.3016 Z0.067 I0.0179 J0.0566
X3.3551 Y2.1884 Z0.0605 I-0.018 J-0.0566
X3.391 Y2.3016 Z0.0539 I0.0179 J0.0566
X3.3551 Y2.1884 Z0.0474 I-0.018 J-0.0566
X3.391 Y2.3016 Z0.0409 I0.0179 J0.0566
X3.3551 Y2.1884 Z0.0344 I-0.018 J-0.0566
X3.391 Y2.3016 Z0.0279 I0.0179 J0.0566
X3.3551 Y2.1884 Z0.0214 I-0.018 J-0.0566
X3.391 Y2.3016 Z0.0149 I0.0179 J0.0566
X3.3551 Y2.1884 Z0.0083 I-0.018 J-0.0566
X3.391 Y2.3016 Z0.0018 I0.0179 J0.0566
X3.3551 Y2.1884 Z-0.0047 I-0.018 J-0.0566
X3.391 Y2.3016 Z-0.0112 I0.0179 J0.0566
X3.3551 Y2.1884 Z-0.0177 I-0.018 J-0.0566
X3.391 Y2.3016 Z-0.0242 I0.0179 J0.0566
X3.3551 Y2.1884 Z-0.0307 I-0.018 J-0.0566
X3.391 Y2.3016 Z-0.0372 I0.0179 J0.0566
X3.3551 Y2.1884 Z-0.0438 I-0.018 J-0.0566
X3.391 Y2.3016 Z-0.0503 I0.0179 J0.0566
X3.3551 Y2.1884 Z-0.0568 I-0.018 J-0.0566
X3.391 Y2.3016 Z-0.0633 I0.0179 J0.0566
X3.3551 Y2.1884 Z-0.0698 I-0.018 J-0.0566
X3.391 Y2.3016 Z-0.0763 I0.0179 J0.0566
X3.3551 Y2.1884 Z-0.0828 I-0.018 J-0.0566
X3.391 Y2.3016 Z-0.0894 I0.0179 J0.0566
X3.3551 Y2.1884 Z-0.0959 I-0.018 J-0.0566
X3.391 Y2.3016 Z-0.1024 I0.0179 J0.0566
X3.3551 Y2.1884 Z-0.1089 I-0.018 J-0.0566
X3.391 Y2.3016 Z-0.1154 I0.0179 J0.0566
X3.3551 Y2.1884 Z-0.1219 I-0.018 J-0.0566
X3.391 Y2.3016 Z-0.1284 I0.0179 J0.0566
X3.3551 Y2.1884 Z-0.135 I-0.018 J-0.0566
X3.391 Y2.3016 Z-0.1415 I0.0179 J0.0566
X3.3551 Y2.1884 Z-0.148 I-0.018 J-0.0566
X3.391 Y2.3016 Z-0.1545 I0.0179 J0.0566
X3.3551 Y2.1884 Z-0.161 I-0.018 J-0.0566
X3.391 Y2.3016 Z-0.1675 I0.0179 J0.0566
X3.3551 Y2.1884 Z-0.174 I-0.018 J-0.0566
X3.391 Y2.3016 Z-0.1806 I0.0179 J0.0566
X3.3551 Y2.1884 Z-0.1871 I-0.018 J-0.0566
X3.391 Y2.3016 Z-0.1936 I0.0179 J0.0566
X3.3551 Y2.1884 Z-0.2001 I-0.018 J-0.0566
X3.391 Y2.3016 Z-0.2066 I0.0179 J0.0566
X3.3551 Y2.1884 Z-0.2131 I-0.018 J-0.0566
X3.391 Y2.3016 Z-0.2196 I0.0179 J0.0566
X3.3551 Y2.1884 Z-0.2262 I-0.018 J-0.0566
X3.391 Y2.3016 Z-0.2327 I0.0179 J0.0566
X3.3551 Y2.1884 Z-0.2392 I-0.018 J-0.0566
X3.391 Y2.3016 Z-0.2457 I0.0179 J0.0566
X3.3551 Y2.1884 Z-0.2522 I-0.018 J-0.0566
X3.391 Y2.3016 Z-0.2587 I0.0179 J0.0566
X3.3551 Y2.1884 Z-0.2652 I-0.018 J-0.0566
X3.391 Y2.3016 Z-0.2717 I0.0179 J0.0566
X3.3551 Y2.1884 Z-0.2783 I-0.018 J-0.0566
X3.391 Y2.3016 Z-0.2848 I0.0179 J0.0566
X3.3551 Y2.1884 Z-0.2913 I-0.018 J-0.0566
X3.391 Y2.3016 Z-0.2978 I0.0179 J0.0566
X3.3551 Y2.1884 Z-0.3043 I-0.018 J-0.0566
X3.391 Y2.3016 Z-0.3108 I0.0179 J0.0566
X3.3551 Y2.1884 Z-0.3173 I-0.018 J-0.0566
X3.391 Y2.3016 Z-0.3239 I0.0179 J0.0566
X3.3551 Y2.1884 Z-0.3304 I-0.018 J-0.0566
X3.391 Y2.3016 Z-0.3369 I0.0179 J0.0566
X3.3551 Y2.1884 Z-0.3434 I-0.018 J-0.0566
X3.391 Y2.3016 Z-0.3499 I0.0179 J0.0566
X3.3551 Y2.1884 Z-0.3564 I-0.018 J-0.0566
X3.391 Y2.3016 Z-0.3629 I0.0179 J0.0566
X3.3551 Y2.1884 Z-0.3695 I-0.018 J-0.0566
X3.391 Y2.3016 Z-0.376 I0.0179 J0.0566
X3.3551 Y2.1884 Z-0.3825 I-0.018 J-0.0566
X3.391 Y2.3016 Z-0.389 I0.0179 J0.0566
X3.3551 Y2.1884 Z-0.3955 I-0.018 J-0.0566
X3.391 Y2.3016 Z-0.402 I0.0179 J0.0566
X3.3551 Y2.1884 Z-0.4085 I-0.018 J-0.0566
X3.391 Y2.3016 Z-0.4151 I0.0179 J0.0566
X3.3551 Y2.1884 Z-0.4216 I-0.018 J-0.0566
X3.391 Y2.3016 Z-0.4281 I0.0179 J0.0566
X3.3551 Y2.1884 Z-0.4346 I-0.018 J-0.0566
X3.391 Y2.3016 Z-0.4411 I0.0179 J0.0566
X3.3136 Y2.245 Z-0.445 I-0.018 J-0.0566
X3.4276 I0.057 J0
X3.3874 I-0.0201 J0 F50
X3.5026 I0.0576 J0
X3.3124 I-0.0951 J0
X3.5026 I0.0951 J0
G1 X3.5022 Y2.2474 Z-0.4445
X3.5015 Y2.2496 Z-0.444
X3.5005 Y2.2514 Z-0.4427
X3.4992 Y2.253 Z-0.4413
X3.4972 Y2.2548 Z-0.4373
X3.4964 Y2.2553 Z-0.4325
Z0.18
X-3.413 Y2.2968
Z0.0925 F10
X-3.4138 Y2.2973 Z0.0878 F13.333
X-3.4161 Y2.2984 Z0.0838
X-3.4197 Y2.3 Z0.0811
X-3.424 Y2.3016 Z0.08
G3 X-3.4599 Y2.1884 Z0.0735 I-0.018 J-0.0566
X-3.424 Y2.3016 Z0.067 I0.0179 J0.0566
X-3.4599 Y2.1884 Z0.0605 I-0.018 J-0.0566
X-3.424 Y2.3016 Z0.0539 I0.0179 J0.0566
X-3.4599 Y2.1884 Z0.0474 I-0.018 J-0.0566
X-3.424 Y2.3016 Z0.0409 I0.0179 J0.0566
X-3.4599 Y2.1884 Z0.0344 I-0.018 J-0.0566
X-3.424 Y2.3016 Z0.0279 I0.0179 J0.0566
X-3.4599 Y2.1884 Z0.0214 I-0.018 J-0.0566
X-3.424 Y2.3016 Z0.0149 I0.0179 J0.0566
X-3.4599 Y2.1884 Z0.0083 I-0.018 J-0.0566
X-3.424 Y2.3016 Z0.0018 I0.0179 J0.0566
X-3.4599 Y2.1884 Z-0.0047 I-0.018 J-0.0566
X-3.424 Y2.3016 Z-0.0112 I0.0179 J0.0566
X-3.4599 Y2.1884 Z-0.0177 I-0.018 J-0.0566
X-3.424 Y2.3016 Z-0.0242 I0.0179 J0.0566
X-3.4599 Y2.1884 Z-0.0307 I-0.018 J-0.0566
X-3.424 Y2.3016 Z-0.0372 I0.0179 J0.0566
X-3.4599 Y2.1884 Z-0.0438 I-0.018 J-0.0566
X-3.424 Y2.3016 Z-0.0503 I0.0179 J0.0566
X-3.4599 Y2.1884 Z-0.0568 I-0.018 J-0.0566
X-3.424 Y2.3016 Z-0.0633 I0.0179 J0.0566
X-3.4599 Y2.1884 Z-0.0698 I-0.018 J-0.0566
X-3.424 Y2.3016 Z-0.0763 I0.0179 J0.0566
X-3.4599 Y2.1884 Z-0.0828 I-0.018 J-0.0566
X-3.424 Y2.3016 Z-0.0894 I0.0179 J0.0566
X-3.4599 Y2.1884 Z-0.0959 I-0.018 J-0.0566
X-3.424 Y2.3016 Z-0.1024 I0.0179 J0.0566
X-3.4599 Y2.1884 Z-0.1089 I-0.018 J-0.0566
X-3.424 Y2.3016 Z-0.1154 I0.0179 J0.0566
X-3.4599 Y2.1884 Z-0.1219 I-0.018 J-0.0566
X-3.424 Y2.3016 Z-0.1284 I0.0179 J0.0566
X-3.4599 Y2.1884 Z-0.135 I-0.018 J-0.0566
X-3.424 Y2.3016 Z-0.1415 I0.0179 J0.0566
X-3.4599 Y2.1884 Z-0.148 I-0.018 J-0.0566
X-3.424 Y2.3016 Z-0.1545 I0.0179 J0.0566
X-3.4599 Y2.1884 Z-0.161 I-0.018 J-0.0566
X-3.424 Y2.3016 Z-0.1675 I0.0179 J0.0566
X-3.4599 Y2.1884 Z-0.174 I-0.018 J-0.0566
X-3.424 Y2.3016 Z-0.1806 I0.0179 J0.0566
X-3.4599 Y2.1884 Z-0.1871 I-0.018 J-0.0566
X-3.424 Y2.3016 Z-0.1936 I0.0179 J0.0566
X-3.4599 Y2.1884 Z-0.2001 I-0.018 J-0.0566
X-3.424 Y2.3016 Z-0.2066 I0.0179 J0.0566
X-3.4599 Y2.1884 Z-0.2131 I-0.018 J-0.0566
X-3.424 Y2.3016 Z-0.2196 I0.0179 J0.0566
X-3.4599 Y2.1884 Z-0.2262 I-0.018 J-0.0566
X-3.424 Y2.3016 Z-0.2327 I0.0179 J0.0566
X-3.4599 Y2.1884 Z-0.2392 I-0.018 J-0.0566
X-3.424 Y2.3016 Z-0.2457 I0.0179 J0.0566
X-3.4599 Y2.1884 Z-0.2522 I-0.018 J-0.0566
X-3.424 Y2.3016 Z-0.2587 I0.0179 J0.0566
X-3.4599 Y2.1884 Z-0.2652 I-0.018 J-0.0566
X-3.424 Y2.3016 Z-0.2717 I0.0179 J0.0566
X-3.4599 Y2.1884 Z-0.2783 I-0.018 J-0.0566
X-3.424 Y2.3016 Z-0.2848 I0.0179 J0.0566
X-3.4599 Y2.1884 Z-0.2913 I-0.018 J-0.0566
X-3.424 Y2.3016 Z-0.2978 I0.0179 J0.0566
X-3.4599 Y2.1884 Z-0.3043 I-0.018 J-0.0566
X-3.424 Y2.3016 Z-0.3108 I0.0179 J0.0566
X-3.4599 Y2.1884 Z-0.3173 I-0.018 J-0.0566
X-3.424 Y2.3016 Z-0.3239 I0.0179 J0.0566
X-3.4599 Y2.1884 Z-0.3304 I-0.018 J-0.0566
X-3.424 Y2.3016 Z-0.3369 I0.0179 J0.0566
X-3.4599 Y2.1884 Z-0.3434 I-0.018 J-0.0566
X-3.424 Y2.3016 Z-0.3499 I0.0179 J0.0566
X-3.4599 Y2.1884 Z-0.3564 I-0.018 J-0.0566
X-3.424 Y2.3016 Z-0.3629 I0.0179 J0.0566
X-3.4599 Y2.1884 Z-0.3695 I-0.018 J-0.0566
X-3.424 Y2.3016 Z-0.376 I0.0179 J0.0566
X-3.4599 Y2.1884 Z-0.3825 I-0.018 J-0.0566
X-3.424 Y2.3016 Z-0.389 I0.0179 J0.0566
X-3.4599 Y2.1884 Z-0.3955 I-0.018 J-0.0566
X-3.424 Y2.3016 Z-0.402 I0.0179 J0.0566
X-3.4599 Y2.1884 Z-0.4085 I-0.018 J-0.0566
X-3.424 Y2.3016 Z-0.4151 I0.0179 J0.0566
X-3.4599 Y2.1884 Z-0.4216 I-0.018 J-0.0566
X-3.424 Y2.3016 Z-0.4281 I0.0179 J0.0566
X-3.4599 Y2.1884 Z-0.4346 I-0.018 J-0.0566
X-3.424 Y2.3016 Z-0.4411 I0.0179 J0.0566
X-3.5014 Y2.245 Z-0.445 I-0.018 J-0.0566
X-3.3874 I0.057 J0
X-3.4276 I-0.0201 J0 F50
X-3.3124 I0.0576 J0
X-3.5026 I-0.0951 J0
X-3.3124 I0.0951 J0
G1 X-3.3128 Y2.2474 Z-0.4445
X-3.3135 Y2.2496 Z-0.444
X-3.3145 Y2.2514 Z-0.4427
X-3.3158 Y2.253 Z-0.4413
X-3.3178 Y2.2548 Z-0.4373
X-3.3186 Y2.2553 Z-0.4325
Z0.58
X0.4806 Y-0.6104
Z0.18
Z0.0925 F10
X0.4815 Y-0.6107 Z0.0878 F13.333
X0.484 Y-0.6115 Z0.0838
X0.4878 Y-0.6124 Z0.0811
X0.4923 Y-0.6132 Z0.08
G3 X0.5077 Y-0.4954 Z0.0735 I0.0077 J0.0589
X0.4923 Y-0.6132 Z0.067 I-0.0077 J-0.0589
X0.5077 Y-0.4954 Z0.0605 I0.0077 J0.0589
X0.4923 Y-0.6132 Z0.0539 I-0.0077 J-0.0589
X0.5077 Y-0.4954 Z0.0474 I0.0077 J0.0589
X0.4923 Y-0.6132 Z0.0409 I-0.0077 J-0.0589
X0.5077 Y-0.4954 Z0.0344 I0.0077 J0.0589
X0.4923 Y-0.6132 Z0.0279 I-0.0077 J-0.0589
X0.5077 Y-0.4954 Z0.0214 I0.0077 J0.0589
X0.4923 Y-0.6132 Z0.0149 I-0.0077 J-0.0589
X0.5077 Y-0.4954 Z0.0083 I0.0077 J0.0589
X0.4923 Y-0.6132 Z0.0018 I-0.0077 J-0.0589
X0.5077 Y-0.4954 Z-0.0047 I0.0077 J0.0589
X0.4923 Y-0.6132 Z-0.0112 I-0.0077 J-0.0589
X0.5077 Y-0.4954 Z-0.0177 I0.0077 J0.0589
X0.4923 Y-0.6132 Z-0.0242 I-0.0077 J-0.0589
X0.5077 Y-0.4954 Z-0.0307 I0.0077 J0.0589
X0.4923 Y-0.6132 Z-0.0372 I-0.0077 J-0.0589
X0.5077 Y-0.4954 Z-0.0438 I0.0077 J0.0589
X0.4923 Y-0.6132 Z-0.0503 I-0.0077 J-0.0589
X0.5077 Y-0.4954 Z-0.0568 I0.0077 J0.0589
X0.4923 Y-0.6132 Z-0.0633 I-0.0077 J-0.0589
X0.5077 Y-0.4954 Z-0.0698 I0.0077 J0.0589
X0.4923 Y-0.6132 Z-0.0763 I-0.0077 J-0.0589
X0.5077 Y-0.4954 Z-0.0828 I0.0077 J0.0589
X0.4923 Y-0.6132 Z-0.0894 I-0.0077 J-0.0589
X0.5077 Y-0.4954 Z-0.0959 I0.0077 J0.0589
X0.4923 Y-0.6132 Z-0.1024 I-0.0077 J-0.0589
X0.5077 Y-0.4954 Z-0.1089 I0.0077 J0.0589
X0.4923 Y-0.6132 Z-0.1154 I-0.0077 J-0.0589
X0.5077 Y-0.4954 Z-0.1219 I0.0077 J0.0589
X0.4923 Y-0.6132 Z-0.1284 I-0.0077 J-0.0589
X0.5077 Y-0.4954 Z-0.135 I0.0077 J0.0589
X0.4923 Y-0.6132 Z-0.1415 I-0.0077 J-0.0589
X0.5077 Y-0.4954 Z-0.148 I0.0077 J0.0589
X0.4923 Y-0.6132 Z-0.1545 I-0.0077 J-0.0589
X0.5077 Y-0.4954 Z-0.161 I0.0077 J0.0589
X0.4923 Y-0.6132 Z-0.1675 I-0.0077 J-0.0589
X0.5077 Y-0.4954 Z-0.174 I0.0077 J0.0589
X0.4923 Y-0.6132 Z-0.1806 I-0.0077 J-0.0589
X0.5077 Y-0.4954 Z-0.1871 I0.0077 J0.0589
X0.4923 Y-0.6132 Z-0.1936 I-0.0077 J-0.0589
X0.5077 Y-0.4954 Z-0.2001 I0.0077 J0.0589
X0.4923 Y-0.6132 Z-0.2066 I-0.0077 J-0.0589
X0.5077 Y-0.4954 Z-0.2131 I0.0077 J0.0589
X0.4923 Y-0.6132 Z-0.2196 I-0.0077 J-0.0589
X0.5077 Y-0.4954 Z-0.2262 I0.0077 J0.0589
X0.4923 Y-0.6132 Z-0.2327 I-0.0077 J-0.0589
X0.5077 Y-0.4954 Z-0.2392 I0.0077 J0.0589
X0.4923 Y-0.6132 Z-0.2457 I-0.0077 J-0.0589
X0.5077 Y-0.4954 Z-0.2522 I0.0077 J0.0589
X0.4923 Y-0.6132 Z-0.2587 I-0.0077 J-0.0589
X0.5077 Y-0.4954 Z-0.2652 I0.0077 J0.0589
X0.4923 Y-0.6132 Z-0.2717 I-0.0077 J-0.0589
X0.5077 Y-0.4954 Z-0.2783 I0.0077 J0.0589
X0.4923 Y-0.6132 Z-0.2848 I-0.0077 J-0.0589
X0.5077 Y-0.4954 Z-0.2913 I0.0077 J0.0589
X0.4923 Y-0.6132 Z-0.2978 I-0.0077 J-0.0589
X0.5077 Y-0.4954 Z-0.3043 I0.0077 J0.0589
X0.4923 Y-0.6132 Z-0.3108 I-0.0077 J-0.0589
X0.5077 Y-0.4954 Z-0.3173 I0.0077 J0.0589
X0.4923 Y-0.6132 Z-0.3239 I-0.0077 J-0.0589
X0.5077 Y-0.4954 Z-0.3304 I0.0077 J0.0589
X0.4923 Y-0.6132 Z-0.3369 I-0.0077 J-0.0589
X0.5077 Y-0.4954 Z-0.3434 I0.0077 J0.0589
X0.4923 Y-0.6132 Z-0.3499 I-0.0077 J-0.0589
X0.5077 Y-0.4954 Z-0.3564 I0.0077 J0.0589
X0.4923 Y-0.6132 Z-0.3629 I-0.0077 J-0.0589
X0.5077 Y-0.4954 Z-0.3695 I0.0077 J0.0589
X0.4923 Y-0.6132 Z-0.376 I-0.0077 J-0.0589
X0.5077 Y-0.4954 Z-0.3825 I0.0077 J0.0589
X0.4923 Y-0.6132 Z-0.389 I-0.0077 J-0.0589
X0.5077 Y-0.4954 Z-0.3955 I0.0077 J0.0589
X0.4923 Y-0.6132 Z-0.402 I-0.0077 J-0.0589
X0.5077 Y-0.4954 Z-0.4085 I0.0077 J0.0589
X0.4923 Y-0.6132 Z-0.4151 I-0.0077 J-0.0589
X0.5077 Y-0.4954 Z-0.4216 I0.0077 J0.0589
X0.4923 Y-0.6132 Z-0.4281 I-0.0077 J-0.0589
X0.5077 Y-0.4954 Z-0.4346 I0.0077 J0.0589
X0.4923 Y-0.6132 Z-0.4411 I-0.0077 J-0.0589
X0.5077 Y-0.4954 Z-0.4476 I0.0077 J0.0589
X0.4923 Y-0.6132 Z-0.4541 I-0.0077 J-0.0589
X0.5077 Y-0.4954 Z-0.4606 I0.0077 J0.0589
X0.4923 Y-0.6132 Z-0.4672 I-0.0077 J-0.0589
X0.5077 Y-0.4954 Z-0.4737 I0.0077 J0.0589
X0.4923 Y-0.6132 Z-0.4802 I-0.0077 J-0.0589
X0.5077 Y-0.4954 Z-0.4867 I0.0077 J0.0589
X0.4923 Y-0.6132 Z-0.4932 I-0.0077 J-0.0589
X0.5593 Y-0.5582 Z-0.4966 I0.0077 J0.0589
X0.5 Y-0.4949 Z-0.5 I-0.0593 J0.0039
G1 X0.4988 F12.5
X0.4973 Y-0.4952
X0.4961 Y-0.4961
X0.4952 Y-0.4973
X0.4949 Y-0.4988
Y-0.9381 F50
Y-0.9631 F12.5
X0.4951 Y-0.9643
X0.4957 Y-0.9654
X0.4965 Y-0.9662
X0.4977 Y-0.9671
X0.4988 Y-0.9677
X0.5 Y-0.9679
X0.5012 Y-0.9677
X0.5023 Y-0.9671
X0.5035 Y-0.9662
X0.5043 Y-0.9654
X0.5049 Y-0.9643
X0.5051 Y-0.9631
Y-0.5238 F50
Y-0.4988 F12.5
X0.5048 Y-0.4973
X0.5039 Y-0.4961
X0.5027 Y-0.4952
X0.5012 Y-0.4949
X0.5 F50
G2 X0.4669 Y-0.4714 I0 J0.0351
G3 X0.4267 Y-0.4783 I-0.0195 J-0.0069
G1 Y-0.9849
G3 X0.4404 Y-1.0102 I0.0303 J0
G2 X0.491 Y-1.0507 I-0.1904 J-0.2898
G3 X0.509 I0.009 J0.0092
G2 X0.5596 Y-1.0102 I0.241 J-0.2493
G3 X0.5733 Y-0.9849 I-0.0166 J0.0253
G1 Y-0.4395
G3 X0.5605 Y-0.4267 I-0.0128 J0
G1 X0.4395
G3 X0.4267 Y-0.4395 I0 J-0.0128
G1 Y-0.4783
G2 X0.3912 Y-0.5315 I-0.0577 J0
G3 X0.3557 Y-0.5848 I0.0222 J-0.0533
G1 Y-1.0304
G3 X0.3689 Y-1.0512 I0.0231 J0
G2 X0.4941 Y-1.1718 I-0.1189 J-0.2488
G3 X0.5059 I0.0059 J0.0031
G2 X0.6311 Y-1.0512 I0.2441 J-0.1282
G3 X0.6442 Y-1.0304 I-0.0099 J0.0208
G1 X0.6443 Y-0.3683
G3 X0.6317 Y-0.3557 I-0.0126 J0
G1 X0.3683
G3 X0.3557 Y-0.3683 I0 J-0.0126
G1 Y-0.5848
G2 X0.3202 Y-0.6381 I-0.0577 J0
G3 X0.2847 Y-0.6914 I0.0222 J-0.0533
G1 Y-1.0845
G3 X0.2976 Y-1.1009 I0.0169 J0
G2 X0.4116 Y-1.1729 I-0.0486 J-0.2032
X0.4565 Y-1.3 I-0.1575 J-0.1271
G3 X0.5435 I0.0435 J0
G2 X0.5884 Y-1.1729 I0.2024 J0
X0.7024 Y-1.1009 I0.1626 J-0.1312
G3 X0.7153 Y-1.0845 I-0.004 J0.0164
G1 Y-0.2975
G3 X0.7025 Y-0.2847 I-0.0128 J0
G1 X0.2975
G3 X0.2847 Y-0.2975 I0 J-0.0128
G1 Y-0.6914
G2 X0.2492 Y-0.7447 I-0.0577 J0
G3 X0.2138 Y-0.7979 I0.0222 J-0.0532
G1 X0.2137 Y-1.1535
G3 X0.2265 Y-1.1663 I0.0128 J0
G1 X0.2382 Y-1.1659
X0.25 Y-1.1656
G2 X0.3456 Y-1.2048 I0 J-0.1362
X0.3854 Y-1.3 I-0.0938 J-0.0952
G3 X0.6146 I0.1146 J0
G2 X0.6545 Y-1.2048 I0.1336 J0
X0.75 Y-1.1657 I0.0955 J-0.097
G1 X0.7618 Y-1.1659
X0.7735 Y-1.1663
G3 X0.7863 Y-1.1535 I0 J0.0128
G1 Y-0.2265
G3 X0.7735 Y-0.2137 I-0.0128 J0
G1 X0.2265
G3 X0.2137 Y-0.2265 I0 J-0.0128
G1 Y-0.7979
G2 X0.1781 Y-0.8513 I-0.0578 J0
G3 X0.1425 Y-0.9047 I0.0223 J-0.0534
G1 Y-1.21
G3 X0.17 Y-1.2375 I0.0275 J0
G1 X0.25
G2 X0.3125 Y-1.3 I0 J-0.0625
G3 X0.6875 I0.1875 J0
G2 X0.75 Y-1.2375 I0.0625 J0
G1 X0.83
G3 X0.8575 Y-1.21 I0 J0.0275
G1 Y-0.17
G3 X0.83 Y-0.1425 I-0.0275 J0
G1 X0.17
G3 X0.1425 Y-0.17 I0 J-0.0275
G1 Y-0.9047
X0.1428 Y-0.9071 Z-0.4995
X0.1435 Y-0.9093 Z-0.499
X0.1445 Y-0.9111 Z-0.4977
X0.1458 Y-0.9127 Z-0.4963
X0.1478 Y-0.9145 Z-0.4923
X0.1486 Y-0.915 Z-0.4875
Z0.18
X-0.5194 Y-0.6104
Z0.0925 F10
X-0.5185 Y-0.6107 Z0.0878 F13.333
X-0.516 Y-0.6115 Z0.0838
X-0.5122 Y-0.6124 Z0.0811
X-0.5077 Y-0.6132 Z0.08
G3 X-0.4923 Y-0.4954 Z0.0735 I0.0077 J0.0589
X-0.5077 Y-0.6132 Z0.067 I-0.0077 J-0.0589
X-0.4923 Y-0.4954 Z0.0605 I0.0077 J0.0589
X-0.5077 Y-0.6132 Z0.0539 I-0.0077 J-0.0589
X-0.4923 Y-0.4954 Z0.0474 I0.0077 J0.0589
X-0.5077 Y-0.6132 Z0.0409 I-0.0077 J-0.0589
X-0.4923 Y-0.4954 Z0.0344 I0.0077 J0.0589
X-0.5077 Y-0.6132 Z0.0279 I-0.0077 J-0.0589
X-0.4923 Y-0.4954 Z0.0214 I0.0077 J0.0589
X-0.5077 Y-0.6132 Z0.0149 I-0.0077 J-0.0589
X-0.4923 Y-0.4954 Z0.0083 I0.0077 J0.0589
X-0.5077 Y-0.6132 Z0.0018 I-0.0077 J-0.0589
X-0.4923 Y-0.4954 Z-0.0047 I0.0077 J0.0589
X-0.5077 Y-0.6132 Z-0.0112 I-0.0077 J-0.0589
X-0.4923 Y-0.4954 Z-0.0177 I0.0077 J0.0589
X-0.5077 Y-0.6132 Z-0.0242 I-0.0077 J-0.0589
X-0.4923 Y-0.4954 Z-0.0307 I0.0077 J0.0589
X-0.5077 Y-0.6132 Z-0.0372 I-0.0077 J-0.0589
X-0.4923 Y-0.4954 Z-0.0438 I0.0077 J0.0589
X-0.5077 Y-0.6132 Z-0.0503 I-0.0077 J-0.0589
X-0.4923 Y-0.4954 Z-0.0568 I0.0077 J0.0589
X-0.5077 Y-0.6132 Z-0.0633 I-0.0077 J-0.0589
X-0.4923 Y-0.4954 Z-0.0698 I0.0077 J0.0589
X-0.5077 Y-0.6132 Z-0.0763 I-0.0077 J-0.0589
X-0.4923 Y-0.4954 Z-0.0828 I0.0077 J0.0589
X-0.5077 Y-0.6132 Z-0.0894 I-0.0077 J-0.0589
X-0.4923 Y-0.4954 Z-0.0959 I0.0077 J0.0589
X-0.5077 Y-0.6132 Z-0.1024 I-0.0077 J-0.0589
X-0.4923 Y-0.4954 Z-0.1089 I0.0077 J0.0589
X-0.5077 Y-0.6132 Z-0.1154 I-0.0077 J-0.0589
X-0.4923 Y-0.4954 Z-0.1219 I0.0077 J0.0589
X-0.5077 Y-0.6132 Z-0.1284 I-0.0077 J-0.0589
X-0.4923 Y-0.4954 Z-0.135 I0.0077 J0.0589
X-0.5077 Y-0.6132 Z-0.1415 I-0.0077 J-0.0589
X-0.4923 Y-0.4954 Z-0.148 I0.0077 J0.0589
X-0.5077 Y-0.6132 Z-0.1545 I-0.0077 J-0.0589
X-0.4923 Y-0.4954 Z-0.161 I0.0077 J0.0589
X-0.5077 Y-0.6132 Z-0.1675 I-0.0077 J-0.0589
X-0.4923 Y-0.4954 Z-0.174 I0.0077 J0.0589
X-0.5077 Y-0.6132 Z-0.1806 I-0.0077 J-0.0589
X-0.4923 Y-0.4954 Z-0.1871 I0.0077 J0.0589
X-0.5077 Y-0.6132 Z-0.1936 I-0.0077 J-0.0589
X-0.4923 Y-0.4954 Z-0.2001 I0.0077 J0.0589
X-0.5077 Y-0.6132 Z-0.2066 I-0.0077 J-0.0589
X-0.4923 Y-0.4954 Z-0.2131 I0.0077 J0.0589
X-0.5077 Y-0.6132 Z-0.2196 I-0.0077 J-0.0589
X-0.4923 Y-0.4954 Z-0.2262 I0.0077 J0.0589
X-0.5077 Y-0.6132 Z-0.2327 I-0.0077 J-0.0589
X-0.4923 Y-0.4954 Z-0.2392 I0.0077 J0.0589
X-0.5077 Y-0.6132 Z-0.2457 I-0.0077 J-0.0589
X-0.4923 Y-0.4954 Z-0.2522 I0.0077 J0.0589
X-0.5077 Y-0.6132 Z-0.2587 I-0.0077 J-0.0589
X-0.4923 Y-0.4954 Z-0.2652 I0.0077 J0.0589
X-0.5077 Y-0.6132 Z-0.2717 I-0.0077 J-0.0589
X-0.4923 Y-0.4954 Z-0.2783 I0.0077 J0.0589
X-0.5077 Y-0.6132 Z-0.2848 I-0.0077 J-0.0589
X-0.4923 Y-0.4954 Z-0.2913 I0.0077 J0.0589
X-0.5077 Y-0.6132 Z-0.2978 I-0.0077 J-0.0589
X-0.4923 Y-0.4954 Z-0.3043 I0.0077 J0.0589
X-0.5077 Y-0.6132 Z-0.3108 I-0.0077 J-0.0589
X-0.4923 Y-0.4954 Z-0.3173 I0.0077 J0.0589
X-0.5077 Y-0.6132 Z-0.3239 I-0.0077 J-0.0589
X-0.4923 Y-0.4954 Z-0.3304 I0.0077 J0.0589
X-0.5077 Y-0.6132 Z-0.3369 I-0.0077 J-0.0589
X-0.4923 Y-0.4954 Z-0.3434 I0.0077 J0.0589
X-0.5077 Y-0.6132 Z-0.3499 I-0.0077 J-0.0589
X-0.4923 Y-0.4954 Z-0.3564 I0.0077 J0.0589
X-0.5077 Y-0.6132 Z-0.3629 I-0.0077 J-0.0589
X-0.4923 Y-0.4954 Z-0.3695 I0.0077 J0.0589
X-0.5077 Y-0.6132 Z-0.376 I-0.0077 J-0.0589
X-0.4923 Y-0.4954 Z-0.3825 I0.0077 J0.0589
X-0.5077 Y-0.6132 Z-0.389 I-0.0077 J-0.0589
X-0.4923 Y-0.4954 Z-0.3955 I0.0077 J0.0589
X-0.5077 Y-0.6132 Z-0.402 I-0.0077 J-0.0589
X-0.4923 Y-0.4954 Z-0.4085 I0.0077 J0.0589
X-0.5077 Y-0.6132 Z-0.4151 I-0.0077 J-0.0589
X-0.4923 Y-0.4954 Z-0.4216 I0.0077 J0.0589
X-0.5077 Y-0.6132 Z-0.4281 I-0.0077 J-0.0589
X-0.4923 Y-0.4954 Z-0.4346 I0.0077 J0.0589
X-0.5077 Y-0.6132 Z-0.4411 I-0.0077 J-0.0589
X-0.4923 Y-0.4954 Z-0.4476 I0.0077 J0.0589
X-0.5077 Y-0.6132 Z-0.4541 I-0.0077 J-0.0589
X-0.4923 Y-0.4954 Z-0.4606 I0.0077 J0.0589
X-0.5077 Y-0.6132 Z-0.4672 I-0.0077 J-0.0589
X-0.4923 Y-0.4954 Z-0.4737 I0.0077 J0.0589
X-0.5077 Y-0.6132 Z-0.4802 I-0.0077 J-0.0589
X-0.4923 Y-0.4954 Z-0.4867 I0.0077 J0.0589
X-0.5077 Y-0.6132 Z-0.4932 I-0.0077 J-0.0589
X-0.4407 Y-0.5582 Z-0.4966 I0.0077 J0.0589
X-0.5 Y-0.4949 Z-0.5 I-0.0593 J0.0039
G1 X-0.5012 F12.5
X-0.5027 Y-0.4952
X-0.5039 Y-0.4961
X-0.5048 Y-0.4973
X-0.5051 Y-0.4988
Y-0.9381 F50
Y-0.9631 F12.5
X-0.5049 Y-0.9643
X-0.5043 Y-0.9654
X-0.5035 Y-0.9662
X-0.5023 Y-0.9671
X-0.5012 Y-0.9677
X-0.5 Y-0.9679
X-0.4988 Y-0.9677
X-0.4977 Y-0.9671
X-0.4965 Y-0.9662
X-0.4957 Y-0.9654
X-0.4951 Y-0.9643
X-0.4949 Y-0.9631
Y-0.5238 F50
Y-0.4988 F12.5
X-0.4952 Y-0.4973
X-0.4961 Y-0.4961
X-0.4973 Y-0.4952
X-0.4988 Y-0.4949
X-0.5 F50
G2 X-0.5331 Y-0.4714 I0 J0.0351
G3 X-0.5733 Y-0.4783 I-0.0195 J-0.0069
G1 Y-0.9849
G3 X-0.5596 Y-1.0102 I0.0303 J0
G2 X-0.509 Y-1.0507 I-0.1904 J-0.2898
G3 X-0.491 I0.009 J0.0092
G2 X-0.4404 Y-1.0102 I0.241 J-0.2493
G3 X-0.4267 Y-0.9849 I-0.0166 J0.0253
G1 Y-0.4395
G3 X-0.4395 Y-0.4267 I-0.0128 J0
G1 X-0.5605
G3 X-0.5733 Y-0.4395 I0 J-0.0128
G1 Y-0.4783
G2 X-0.6088 Y-0.5315 I-0.0577 J0
G3 X-0.6443 Y-0.5848 I0.0222 J-0.0533
G1 Y-1.0304
G3 X-0.6311 Y-1.0512 I0.0231 J0
G2 X-0.5059 Y-1.1718 I-0.1189 J-0.2488
G3 X-0.4941 I0.0059 J0.0031
G2 X-0.3689 Y-1.0512 I0.2441 J-0.1282
G3 X-0.3558 Y-1.0304 I-0.0099 J0.0208
G1 X-0.3557 Y-0.3683
G3 X-0.3683 Y-0.3557 I-0.0126 J0
G1 X-0.6317
G3 X-0.6443 Y-0.3683 I0 J-0.0126
G1 Y-0.5848
G2 X-0.6798 Y-0.6381 I-0.0577 J0
G3 X-0.7153 Y-0.6914 I0.0222 J-0.0533
G1 Y-1.0845
G3 X-0.7024 Y-1.1009 I0.0169 J0
G2 X-0.5884 Y-1.1729 I-0.0486 J-0.2032
X-0.5435 Y-1.3 I-0.1575 J-0.1271
G3 X-0.4565 I0.0435 J0
G2 X-0.4116 Y-1.1729 I0.2024 J0
X-0.2976 Y-1.1009 I0.1626 J-0.1312
G3 X-0.2847 Y-1.0845 I-0.004 J0.0164
G1 Y-0.2975
G3 X-0.2975 Y-0.2847 I-0.0128 J0
G1 X-0.7025
G3 X-0.7153 Y-0.2975 I0 J-0.0128
G1 Y-0.6914
G2 X-0.7508 Y-0.7447 I-0.0577 J0
G3 X-0.7862 Y-0.7979 I0.0222 J-0.0532
G1 X-0.7863 Y-1.1535
G3 X-0.7735 Y-1.1663 I0.0128 J0
G1 X-0.7618 Y-1.1659
X-0.75 Y-1.1656
G2 X-0.6544 Y-1.2048 I0 J-0.1362
X-0.6146 Y-1.3 I-0.0938 J-0.0952
G3 X-0.3854 I0.1146 J0
G2 X-0.3455 Y-1.2048 I0.1336 J0
X-0.25 Y-1.1657 I0.0955 J-0.097
G1 X-0.2382 Y-1.1659
X-0.2265 Y-1.1663
G3 X-0.2137 Y-1.1535 I0 J0.0128
G1 Y-0.2265
G3 X-0.2265 Y-0.2137 I-0.0128 J0
G1 X-0.7735
G3 X-0.7863 Y-0.2265 I0 J-0.0128
G1 Y-0.7979
G2 X-0.8219 Y-0.8513 I-0.0579 J0
G3 X-0.8575 Y-0.9047 I0.0223 J-0.0534
G1 Y-1.21
G3 X-0.83 Y-1.2375 I0.0275 J0
G1 X-0.75
G2 X-0.6875 Y-1.3 I0 J-0.0625
G3 X-0.3125 I0.1875 J0
G2 X-0.25 Y-1.2375 I0.0625 J0
G1 X-0.17
G3 X-0.1425 Y-1.21 I0 J0.0275
G1 Y-0.17
G3 X-0.17 Y-0.1425 I-0.0275 J0
G1 X-0.83
G3 X-0.8575 Y-0.17 I0 J-0.0275
G1 Y-0.9047
X-0.8572 Y-0.9071 Z-0.4995
X-0.8565 Y-0.9093 Z-0.499
X-0.8555 Y-0.9111 Z-0.4977
X-0.8542 Y-0.9127 Z-0.4963
X-0.8522 Y-0.9145 Z-0.4923
X-0.8514 Y-0.915 Z-0.4875
Z0.18
X-1.6104 Y-0.9431
Z0.0925 F10
X-1.6107 Y-0.944 Z0.0878 F13.333
X-1.6115 Y-0.9465 Z0.0838
X-1.6124 Y-0.9503 Z0.0811
X-1.6132 Y-0.9549 Z0.08
G3 X-1.4954 Y-0.9702 Z0.0735 I0.0589 J-0.0076
X-1.6132 Y-0.9549 Z0.067 I-0.0589 J0.0077
X-1.4954 Y-0.9702 Z0.0605 I0.0589 J-0.0076
X-1.6132 Y-0.9549 Z0.0539 I-0.0589 J0.0077
X-1.4954 Y-0.9702 Z0.0474 I0.0589 J-0.0076
X-1.6132 Y-0.9549 Z0.0409 I-0.0589 J0.0077
X-1.4954 Y-0.9702 Z0.0344 I0.0589 J-0.0076
X-1.6132 Y-0.9549 Z0.0279 I-0.0589 J0.0077
X-1.4954 Y-0.9702 Z0.0214 I0.0589 J-0.0076
X-1.6132 Y-0.9549 Z0.0149 I-0.0589 J0.0077
X-1.4954 Y-0.9702 Z0.0083 I0.0589 J-0.0076
X-1.6132 Y-0.9549 Z0.0018 I-0.0589 J0.0077
X-1.4954 Y-0.9702 Z-0.0047 I0.0589 J-0.0076
X-1.6132 Y-0.9549 Z-0.0112 I-0.0589 J0.0077
X-1.4954 Y-0.9702 Z-0.0177 I0.0589 J-0.0076
X-1.6132 Y-0.9549 Z-0.0242 I-0.0589 J0.0077
X-1.4954 Y-0.9702 Z-0.0307 I0.0589 J-0.0076
X-1.6132 Y-0.9549 Z-0.0372 I-0.0589 J0.0077
X-1.4954 Y-0.9702 Z-0.0438 I0.0589 J-0.0076
X-1.6132 Y-0.9549 Z-0.0503 I-0.0589 J0.0077
X-1.4954 Y-0.9702 Z-0.0568 I0.0589 J-0.0076
X-1.6132 Y-0.9549 Z-0.0633 I-0.0589 J0.0077
X-1.4954 Y-0.9702 Z-0.0698 I0.0589 J-0.0076
X-1.6132 Y-0.9549 Z-0.0763 I-0.0589 J0.0077
X-1.4954 Y-0.9702 Z-0.0828 I0.0589 J-0.0076
X-1.6132 Y-0.9549 Z-0.0894 I-0.0589 J0.0077
X-1.4954 Y-0.9702 Z-0.0959 I0.0589 J-0.0076
X-1.6132 Y-0.9549 Z-0.1024 I-0.0589 J0.0077
X-1.4954 Y-0.9702 Z-0.1089 I0.0589 J-0.0076
X-1.6132 Y-0.9549 Z-0.1154 I-0.0589 J0.0077
X-1.4954 Y-0.9702 Z-0.1219 I0.0589 J-0.0076
X-1.6132 Y-0.9549 Z-0.1284 I-0.0589 J0.0077
X-1.4954 Y-0.9702 Z-0.135 I0.0589 J-0.0076
X-1.6132 Y-0.9549 Z-0.1415 I-0.0589 J0.0077
X-1.4954 Y-0.9702 Z-0.148 I0.0589 J-0.0076
X-1.6132 Y-0.9549 Z-0.1545 I-0.0589 J0.0077
X-1.4954 Y-0.9702 Z-0.161 I0.0589 J-0.0076
X-1.6132 Y-0.9549 Z-0.1675 I-0.0589 J0.0077
X-1.4954 Y-0.9702 Z-0.174 I0.0589 J-0.0076
X-1.6132 Y-0.9549 Z-0.1806 I-0.0589 J0.0077
X-1.4954 Y-0.9702 Z-0.1871 I0.0589 J-0.0076
X-1.6132 Y-0.9549 Z-0.1936 I-0.0589 J0.0077
X-1.4954 Y-0.9702 Z-0.2001 I0.0589 J-0.0076
X-1.6132 Y-0.9549 Z-0.2066 I-0.0589 J0.0077
X-1.4954 Y-0.9702 Z-0.2131 I0.0589 J-0.0076
X-1.6132 Y-0.9549 Z-0.2196 I-0.0589 J0.0077
X-1.4954 Y-0.9702 Z-0.2262 I0.0589 J-0.0076
X-1.6132 Y-0.9549 Z-0.2327 I-0.0589 J0.0077
X-1.4954 Y-0.9702 Z-0.2392 I0.0589 J-0.0076
X-1.6132 Y-0.9549 Z-0.2457 I-0.0589 J0.0077
X-1.4954 Y-0.9702 Z-0.2522 I0.0589 J-0.0076
X-1.6132 Y-0.9549 Z-0.2587 I-0.0589 J0.0077
X-1.4954 Y-0.9702 Z-0.2652 I0.0589 J-0.0076
X-1.6132 Y-0.9549 Z-0.2717 I-0.0589 J0.0077
X-1.4954 Y-0.9702 Z-0.2783 I0.0589 J-0.0076
X-1.6132 Y-0.9549 Z-0.2848 I-0.0589 J0.0077
X-1.4954 Y-0.9702 Z-0.2913 I0.0589 J-0.0076
X-1.6132 Y-0.9549 Z-0.2978 I-0.0589 J0.0077
X-1.4954 Y-0.9702 Z-0.3043 I0.0589 J-0.0076
X-1.6132 Y-0.9549 Z-0.3108 I-0.0589 J0.0077
X-1.4954 Y-0.9702 Z-0.3173 I0.0589 J-0.0076
X-1.6132 Y-0.9549 Z-0.3239 I-0.0589 J0.0077
X-1.4954 Y-0.9702 Z-0.3304 I0.0589 J-0.0076
X-1.6132 Y-0.9549 Z-0.3369 I-0.0589 J0.0077
X-1.4954 Y-0.9702 Z-0.3434 I0.0589 J-0.0076
X-1.6132 Y-0.9549 Z-0.3499 I-0.0589 J0.0077
X-1.4954 Y-0.9702 Z-0.3564 I0.0589 J-0.0076
X-1.6132 Y-0.9549 Z-0.3629 I-0.0589 J0.0077
X-1.4954 Y-0.9702 Z-0.3695 I0.0589 J-0.0076
X-1.6132 Y-0.9549 Z-0.376 I-0.0589 J0.0077
X-1.4954 Y-0.9702 Z-0.3825 I0.0589 J-0.0076
X-1.6132 Y-0.9549 Z-0.389 I-0.0589 J0.0077
X-1.4954 Y-0.9702 Z-0.3955 I0.0589 J-0.0076
X-1.6132 Y-0.9549 Z-0.402 I-0.0589 J0.0077
X-1.4954 Y-0.9702 Z-0.4085 I0.0589 J-0.0076
X-1.6132 Y-0.9549 Z-0.4151 I-0.0589 J0.0077
X-1.4954 Y-0.9702 Z-0.4216 I0.0589 J-0.0076
X-1.6132 Y-0.9549 Z-0.4281 I-0.0589 J0.0077
X-1.4954 Y-0.9702 Z-0.4346 I0.0589 J-0.0076
X-1.6132 Y-0.9549 Z-0.4411 I-0.0589 J0.0077
X-1.4954 Y-0.9702 Z-0.4476 I0.0589 J-0.0076
X-1.6132 Y-0.9549 Z-0.4541 I-0.0589 J0.0077
X-1.4954 Y-0.9702 Z-0.4606 I0.0589 J-0.0076
X-1.6132 Y-0.9549 Z-0.4672 I-0.0589 J0.0077
X-1.4954 Y-0.9702 Z-0.4737 I0.0589 J-0.0076
X-1.6132 Y-0.9549 Z-0.4802 I-0.0589 J0.0077
X-1.4954 Y-0.9702 Z-0.4867 I0.0589 J-0.0076
X-1.6132 Y-0.9549 Z-0.4932 I-0.0589 J0.0077
X-1.5582 Y-1.0218 Z-0.4966 I0.0589 J-0.0076
X-1.4949 Y-0.9625 Z-0.5 I0.0039 J0.0593
G1 Y-0.5286 F50
Y-0.5036 F12.5
G3 X-1.5051 I-0.0051 J0
G1 Y-0.9381 F50
Y-0.9631 F12.5
X-1.5049 Y-0.9643
X-1.5043 Y-0.9654
X-1.5035 Y-0.9662
X-1.5023 Y-0.9671
X-1.5012 Y-0.9677
X-1.5 Y-0.9679
X-1.4988 Y-0.9677
X-1.4977 Y-0.9671
X-1.4965 Y-0.9662
X-1.4957 Y-0.9654
X-1.4951 Y-0.9643
X-1.4949 Y-0.9631
Y-0.9625 F50
G2 X-1.4608 Y-0.9114 I0.0554 J0
G3 X-1.4267 Y-0.8602 I-0.0214 J0.0512
G1 Y-0.4395
G3 X-1.4395 Y-0.4267 I-0.0128 J0
G1 X-1.5605
G3 X-1.5733 Y-0.4395 I0 J-0.0128
G1 Y-0.9849
G3 X-1.5596 Y-1.0102 I0.0303 J0
G2 X-1.509 Y-1.0507 I-0.1904 J-0.2898
G3 X-1.491 I0.009 J0.0092
G2 X-1.4404 Y-1.0102 I0.241 J-0.2493
G3 X-1.4267 Y-0.9849 I-0.0166 J0.0253
G1 Y-0.8602
G2 X-1.3912 Y-0.807 I0.0577 J0
G3 X-1.3557 Y-0.7537 I-0.0222 J0.0533
G1 Y-0.3683
G3 X-1.3683 Y-0.3557 I-0.0126 J0
G1 X-1.6317
G3 X-1.6443 Y-0.3683 I0 J-0.0126
G1 Y-1.0304
G3 X-1.6311 Y-1.0512 I0.0231 J0
G2 X-1.5059 Y-1.1718 I-0.1189 J-0.2488
G3 X-1.4941 I0.0059 J0.0031
G2 X-1.3689 Y-1.0512 I0.2441 J-0.1282
G3 X-1.3558 Y-1.0304 I-0.0099 J0.0208
G1 X-1.3557 Y-0.7537
G2 X-1.3202 Y-0.7004 I0.0577 J0
G3 X-1.2847 Y-0.6471 I-0.0222 J0.0533
G1 Y-0.2975
G3 X-1.2975 Y-0.2847 I-0.0128 J0
G1 X-1.7025
G3 X-1.7153 Y-0.2975 I0 J-0.0128
G1 Y-1.0845
G3 X-1.7024 Y-1.1009 I0.0169 J0
G2 X-1.5884 Y-1.1729 I-0.0486 J-0.2032
X-1.5435 Y-1.3 I-0.1575 J-0.1271
G3 X-1.4565 I0.0435 J0
G2 X-1.4116 Y-1.1729 I0.2024 J0
X-1.2976 Y-1.1009 I0.1626 J-0.1312
G3 X-1.2847 Y-1.0845 I-0.004 J0.0164
G1 Y-0.6471
G2 X-1.2492 Y-0.5938 I0.0577 J0
G3 X-1.2138 Y-0.5406 I-0.0222 J0.0532
G1 X-1.2137 Y-0.2265
G3 X-1.2265 Y-0.2137 I-0.0128 J0
G1 X-1.7735
G3 X-1.7863 Y-0.2265 I0 J-0.0128
G1 Y-1.1535
G3 X-1.7735 Y-1.1663 I0.0128 J0
G1 X-1.7618 Y-1.1659
X-1.75 Y-1.1656
G2 X-1.6544 Y-1.2048 I0 J-0.1362
X-1.6146 Y-1.3 I-0.0938 J-0.0952
G3 X-1.3854 I0.1146 J0
G2 X-1.3455 Y-1.2048 I0.1336 J0
X-1.25 Y-1.1657 I0.0955 J-0.097
G1 X-1.2382 Y-1.1659
X-1.2265 Y-1.1663
G3 X-1.2137 Y-1.1535 I0 J0.0128
G1 Y-0.5406
G2 X-1.1781 Y-0.4872 I0.0579 J0
G3 X-1.1425 Y-0.4338 I-0.0222 J0.0534
G1 Y-0.17
G3 X-1.17 Y-0.1425 I-0.0275 J0
G1 X-1.83
G3 X-1.8575 Y-0.17 I0 J-0.0275
G1 Y-1.21
G3 X-1.83 Y-1.2375 I0.0275 J0
G1 X-1.75
G2 X-1.6875 Y-1.3 I0 J-0.0625
G3 X-1.3125 I0.1875 J0
G2 X-1.25 Y-1.2375 I0.0625 J0
G1 X-1.17
G3 X-1.1425 Y-1.21 I0 J0.0275
G1 Y-0.4338
X-1.1428 Y-0.4315 Z-0.4995
X-1.1435 Y-0.4292 Z-0.499
X-1.1445 Y-0.4274 Z-0.4977
X-1.1458 Y-0.4258 Z-0.4963
X-1.1478 Y-0.4241 Z-0.4923
X-1.1486 Y-0.4236 Z-0.4875
Z0.18
X-1.6104 Y0.5194
Z0.0925 F10
X-1.6107 Y0.5185 Z0.0878 F13.333
X-1.6115 Y0.516 Z0.0838
X-1.6124 Y0.5122 Z0.0811
X-1.6132 Y0.5077 Z0.08
G3 X-1.4954 Y0.4923 Z0.0735 I0.0589 J-0.0077
X-1.6132 Y0.5077 Z0.067 I-0.0589 J0.0077
X-1.4954 Y0.4923 Z0.0605 I0.0589 J-0.0077
X-1.6132 Y0.5077 Z0.0539 I-0.0589 J0.0077
X-1.4954 Y0.4923 Z0.0474 I0.0589 J-0.0077
X-1.6132 Y0.5077 Z0.0409 I-0.0589 J0.0077
X-1.4954 Y0.4923 Z0.0344 I0.0589 J-0.0077
X-1.6132 Y0.5077 Z0.0279 I-0.0589 J0.0077
X-1.4954 Y0.4923 Z0.0214 I0.0589 J-0.0077
X-1.6132 Y0.5077 Z0.0149 I-0.0589 J0.0077
X-1.4954 Y0.4923 Z0.0083 I0.0589 J-0.0077
X-1.6132 Y0.5077 Z0.0018 I-0.0589 J0.0077
X-1.4954 Y0.4923 Z-0.0047 I0.0589 J-0.0077
X-1.6132 Y0.5077 Z-0.0112 I-0.0589 J0.0077
X-1.4954 Y0.4923 Z-0.0177 I0.0589 J-0.0077
X-1.6132 Y0.5077 Z-0.0242 I-0.0589 J0.0077
X-1.4954 Y0.4923 Z-0.0307 I0.0589 J-0.0077
X-1.6132 Y0.5077 Z-0.0372 I-0.0589 J0.0077
X-1.4954 Y0.4923 Z-0.0438 I0.0589 J-0.0077
X-1.6132 Y0.5077 Z-0.0503 I-0.0589 J0.0077
X-1.4954 Y0.4923 Z-0.0568 I0.0589 J-0.0077
X-1.6132 Y0.5077 Z-0.0633 I-0.0589 J0.0077
X-1.4954 Y0.4923 Z-0.0698 I0.0589 J-0.0077
X-1.6132 Y0.5077 Z-0.0763 I-0.0589 J0.0077
X-1.4954 Y0.4923 Z-0.0828 I0.0589 J-0.0077
X-1.6132 Y0.5077 Z-0.0894 I-0.0589 J0.0077
X-1.4954 Y0.4923 Z-0.0959 I0.0589 J-0.0077
X-1.6132 Y0.5077 Z-0.1024 I-0.0589 J0.0077
X-1.4954 Y0.4923 Z-0.1089 I0.0589 J-0.0077
X-1.6132 Y0.5077 Z-0.1154 I-0.0589 J0.0077
X-1.4954 Y0.4923 Z-0.1219 I0.0589 J-0.0077
X-1.6132 Y0.5077 Z-0.1284 I-0.0589 J0.0077
X-1.4954 Y0.4923 Z-0.135 I0.0589 J-0.0077
X-1.6132 Y0.5077 Z-0.1415 I-0.0589 J0.0077
X-1.4954 Y0.4923 Z-0.148 I0.0589 J-0.0077
X-1.6132 Y0.5077 Z-0.1545 I-0.0589 J0.0077
X-1.4954 Y0.4923 Z-0.161 I0.0589 J-0.0077
X-1.6132 Y0.5077 Z-0.1675 I-0.0589 J0.0077
X-1.4954 Y0.4923 Z-0.174 I0.0589 J-0.0077
X-1.6132 Y0.5077 Z-0.1806 I-0.0589 J0.0077
X-1.4954 Y0.4923 Z-0.1871 I0.0589 J-0.0077
X-1.6132 Y0.5077 Z-0.1936 I-0.0589 J0.0077
X-1.4954 Y0.4923 Z-0.2001 I0.0589 J-0.0077
X-1.6132 Y0.5077 Z-0.2066 I-0.0589 J0.0077
X-1.4954 Y0.4923 Z-0.2131 I0.0589 J-0.0077
X-1.6132 Y0.5077 Z-0.2196 I-0.0589 J0.0077
X-1.4954 Y0.4923 Z-0.2262 I0.0589 J-0.0077
X-1.6132 Y0.5077 Z-0.2327 I-0.0589 J0.0077
X-1.4954 Y0.4923 Z-0.2392 I0.0589 J-0.0077
X-1.6132 Y0.5077 Z-0.2457 I-0.0589 J0.0077
X-1.4954 Y0.4923 Z-0.2522 I0.0589 J-0.0077
X-1.6132 Y0.5077 Z-0.2587 I-0.0589 J0.0077
X-1.4954 Y0.4923 Z-0.2652 I0.0589 J-0.0077
X-1.6132 Y0.5077 Z-0.2717 I-0.0589 J0.0077
X-1.4954 Y0.4923 Z-0.2783 I0.0589 J-0.0077
X-1.6132 Y0.5077 Z-0.2848 I-0.0589 J0.0077
X-1.4954 Y0.4923 Z-0.2913 I0.0589 J-0.0077
X-1.6132 Y0.5077 Z-0.2978 I-0.0589 J0.0077
X-1.4954 Y0.4923 Z-0.3043 I0.0589 J-0.0077
X-1.6132 Y0.5077 Z-0.3108 I-0.0589 J0.0077
X-1.4954 Y0.4923 Z-0.3173 I0.0589 J-0.0077
X-1.6132 Y0.5077 Z-0.3239 I-0.0589 J0.0077
X-1.4954 Y0.4923 Z-0.3304 I0.0589 J-0.0077
X-1.6132 Y0.5077 Z-0.3369 I-0.0589 J0.0077
X-1.4954 Y0.4923 Z-0.3434 I0.0589 J-0.0077
X-1.6132 Y0.5077 Z-0.3499 I-0.0589 J0.0077
X-1.4954 Y0.4923 Z-0.3564 I0.0589 J-0.0077
X-1.6132 Y0.5077 Z-0.3629 I-0.0589 J0.0077
X-1.4954 Y0.4923 Z-0.3695 I0.0589 J-0.0077
X-1.6132 Y0.5077 Z-0.376 I-0.0589 J0.0077
X-1.4954 Y0.4923 Z-0.3825 I0.0589 J-0.0077
X-1.6132 Y0.5077 Z-0.389 I-0.0589 J0.0077
X-1.4954 Y0.4923 Z-0.3955 I0.0589 J-0.0077
X-1.6132 Y0.5077 Z-0.402 I-0.0589 J0.0077
X-1.4954 Y0.4923 Z-0.4085 I0.0589 J-0.0077
X-1.6132 Y0.5077 Z-0.4151 I-0.0589 J0.0077
X-1.4954 Y0.4923 Z-0.4216 I0.0589 J-0.0077
X-1.6132 Y0.5077 Z-0.4281 I-0.0589 J0.0077
X-1.4954 Y0.4923 Z-0.4346 I0.0589 J-0.0077
X-1.6132 Y0.5077 Z-0.4411 I-0.0589 J0.0077
X-1.4954 Y0.4923 Z-0.4476 I0.0589 J-0.0077
X-1.6132 Y0.5077 Z-0.4541 I-0.0589 J0.0077
X-1.4954 Y0.4923 Z-0.4606 I0.0589 J-0.0077
X-1.6132 Y0.5077 Z-0.4672 I-0.0589 J0.0077
X-1.4954 Y0.4923 Z-0.4737 I0.0589 J-0.0077
X-1.6132 Y0.5077 Z-0.4802 I-0.0589 J0.0077
X-1.4954 Y0.4923 Z-0.4867 I0.0589 J-0.0077
X-1.6132 Y0.5077 Z-0.4932 I-0.0589 J0.0077
X-1.5582 Y0.4407 Z-0.4966 I0.0589 J-0.0077
X-1.4949 Y0.5 Z-0.5 I0.0039 J0.0593
G1 Y0.9381 F50
Y0.9631 F12.5
X-1.4951 Y0.9643
X-1.4957 Y0.9654
X-1.4965 Y0.9662
X-1.4977 Y0.9671
X-1.4988 Y0.9677
X-1.5 Y0.9679
X-1.5012 Y0.9677
X-1.5023 Y0.9671
X-1.5035 Y0.9662
X-1.5043 Y0.9654
X-1.5049 Y0.9643
X-1.5051 Y0.9631
Y0.5238 F50
Y0.4988 F12.5
X-1.5048 Y0.4973
X-1.5039 Y0.4961
X-1.5027 Y0.4952
X-1.5012 Y0.4949
X-1.4988
X-1.4973 Y0.4952
X-1.4961 Y0.4961
X-1.4952 Y0.4973
X-1.4949 Y0.4988
Y0.5 F50
G2 X-1.4608 Y0.5511 I0.0554 J0
G3 X-1.4267 Y0.6023 I-0.0214 J0.0512
G1 Y0.9849
G3 X-1.4404 Y1.0102 I-0.0303 J0
G2 X-1.491 Y1.0507 I0.1904 J0.2898
G3 X-1.509 I-0.009 J-0.0092
G2 X-1.5596 Y1.0102 I-0.241 J0.2493
G3 X-1.5733 Y0.9849 I0.0166 J-0.0253
G1 Y0.4395
G3 X-1.5605 Y0.4267 I0.0128 J0
G1 X-1.4395
G3 X-1.4267 Y0.4395 I0 J0.0128
G1 Y0.6023
G2 X-1.3912 Y0.6555 I0.0577 J0
G3 X-1.3557 Y0.7088 I-0.0222 J0.0533
G1 Y1.0304
G3 X-1.3689 Y1.0512 I-0.0231 J0
G2 X-1.4941 Y1.1718 I0.1189 J0.2488
G3 X-1.5059 I-0.0059 J-0.0031
G2 X-1.6311 Y1.0512 I-0.2441 J0.1282
G3 X-1.6442 Y1.0304 I0.0099 J-0.0208
G1 X-1.6443 Y0.3683
G3 X-1.6317 Y0.3557 I0.0126 J0
G1 X-1.3683
G3 X-1.3557 Y0.3683 I0 J0.0126
G1 Y0.7088
G2 X-1.3202 Y0.7621 I0.0577 J0
G3 X-1.2847 Y0.8154 I-0.0222 J0.0533
G1 Y1.0845
G3 X-1.2976 Y1.1009 I-0.0169 J0
G2 X-1.4116 Y1.1729 I0.0486 J0.2032
X-1.4565 Y1.3 I0.1575 J0.1271
G3 X-1.5435 I-0.0435 J0
G2 X-1.5884 Y1.1729 I-0.2024 J0
X-1.7024 Y1.1009 I-0.1626 J0.1312
G3 X-1.7153 Y1.0845 I0.004 J-0.0164
G1 Y0.2975
G3 X-1.7025 Y0.2847 I0.0128 J0
G1 X-1.2975
G3 X-1.2847 Y0.2975 I0 J0.0128
G1 Y0.8154
G2 X-1.2492 Y0.8687 I0.0577 J0
G3 X-1.2138 Y0.9219 I-0.0222 J0.0532
G1 X-1.2137 Y1.1535
G3 X-1.2265 Y1.1663 I-0.0128 J0
G1 X-1.2382 Y1.1659
X-1.25 Y1.1656
G2 X-1.3456 Y1.2048 I0 J0.1362
X-1.3854 Y1.3 I0.0938 J0.0952
G3 X-1.6146 I-0.1146 J0
G2 X-1.6545 Y1.2048 I-0.1336 J0
X-1.75 Y1.1657 I-0.0955 J0.097
G1 X-1.7618 Y1.1659
X-1.7735 Y1.1663
G3 X-1.7863 Y1.1535 I0 J-0.0128
G1 Y0.2265
G3 X-1.7735 Y0.2137 I0.0128 J0
G1 X-1.2265
G3 X-1.2137 Y0.2265 I0 J0.0128
G1 Y0.9219
G2 X-1.1781 Y0.9753 I0.0579 J0
G3 X-1.1425 Y1.0287 I-0.0222 J0.0534
G1 Y1.21
G3 X-1.17 Y1.2375 I-0.0275 J0
G1 X-1.25
G2 X-1.3125 Y1.3 I0 J0.0625
G3 X-1.6875 I-0.1875 J0
G2 X-1.75 Y1.2375 I-0.0625 J0
G1 X-1.83
G3 X-1.8575 Y1.21 I0 J-0.0275
G1 Y0.17
G3 X-1.83 Y0.1425 I0.0275 J0
G1 X-1.17
G3 X-1.1425 Y0.17 I0 J0.0275
G1 Y1.0287
X-1.1428 Y1.031 Z-0.4995
X-1.1435 Y1.0333 Z-0.499
X-1.1445 Y1.0351 Z-0.4977
X-1.1458 Y1.0367 Z-0.4963
X-1.1478 Y1.0384 Z-0.4923
X-1.1486 Y1.0389 Z-0.4875
Z0.18
X-0.6104 Y0.9819
Z0.0925 F10
X-0.6107 Y0.981 Z0.0878 F13.333
X-0.6115 Y0.9785 Z0.0838
X-0.6124 Y0.9747 Z0.0811
X-0.6132 Y0.9702 Z0.08
G3 X-0.4954 Y0.9549 Z0.0735 I0.0589 J-0.0077
X-0.6132 Y0.9702 Z0.067 I-0.0589 J0.0076
X-0.4954 Y0.9549 Z0.0605 I0.0589 J-0.0077
X-0.6132 Y0.9702 Z0.0539 I-0.0589 J0.0076
X-0.4954 Y0.9549 Z0.0474 I0.0589 J-0.0077
X-0.6132 Y0.9702 Z0.0409 I-0.0589 J0.0076
X-0.4954 Y0.9549 Z0.0344 I0.0589 J-0.0077
X-0.6132 Y0.9702 Z0.0279 I-0.0589 J0.0076
X-0.4954 Y0.9549 Z0.0214 I0.0589 J-0.0077
X-0.6132 Y0.9702 Z0.0149 I-0.0589 J0.0076
X-0.4954 Y0.9549 Z0.0083 I0.0589 J-0.0077
X-0.6132 Y0.9702 Z0.0018 I-0.0589 J0.0076
X-0.4954 Y0.9549 Z-0.0047 I0.0589 J-0.0077
X-0.6132 Y0.9702 Z-0.0112 I-0.0589 J0.0076
X-0.4954 Y0.9549 Z-0.0177 I0.0589 J-0.0077
X-0.6132 Y0.9702 Z-0.0242 I-0.0589 J0.0076
X-0.4954 Y0.9549 Z-0.0307 I0.0589 J-0.0077
X-0.6132 Y0.9702 Z-0.0372 I-0.0589 J0.0076
X-0.4954 Y0.9549 Z-0.0438 I0.0589 J-0.0077
X-0.6132 Y0.9702 Z-0.0503 I-0.0589 J0.0076
X-0.4954 Y0.9549 Z-0.0568 I0.0589 J-0.0077
X-0.6132 Y0.9702 Z-0.0633 I-0.0589 J0.0076
X-0.4954 Y0.9549 Z-0.0698 I0.0589 J-0.0077
X-0.6132 Y0.9702 Z-0.0763 I-0.0589 J0.0076
X-0.4954 Y0.9549 Z-0.0828 I0.0589 J-0.0077
X-0.6132 Y0.9702 Z-0.0894 I-0.0589 J0.0076
X-0.4954 Y0.9549 Z-0.0959 I0.0589 J-0.0077
X-0.6132 Y0.9702 Z-0.1024 I-0.0589 J0.0076
X-0.4954 Y0.9549 Z-0.1089 I0.0589 J-0.0077
X-0.6132 Y0.9702 Z-0.1154 I-0.0589 J0.0076
X-0.4954 Y0.9549 Z-0.1219 I0.0589 J-0.0077
X-0.6132 Y0.9702 Z-0.1284 I-0.0589 J0.0076
X-0.4954 Y0.9549 Z-0.135 I0.0589 J-0.0077
X-0.6132 Y0.9702 Z-0.1415 I-0.0589 J0.0076
X-0.4954 Y0.9549 Z-0.148 I0.0589 J-0.0077
X-0.6132 Y0.9702 Z-0.1545 I-0.0589 J0.0076
X-0.4954 Y0.9549 Z-0.161 I0.0589 J-0.0077
X-0.6132 Y0.9702 Z-0.1675 I-0.0589 J0.0076
X-0.4954 Y0.9549 Z-0.174 I0.0589 J-0.0077
X-0.6132 Y0.9702 Z-0.1806 I-0.0589 J0.0076
X-0.4954 Y0.9549 Z-0.1871 I0.0589 J-0.0077
X-0.6132 Y0.9702 Z-0.1936 I-0.0589 J0.0076
X-0.4954 Y0.9549 Z-0.2001 I0.0589 J-0.0077
X-0.6132 Y0.9702 Z-0.2066 I-0.0589 J0.0076
X-0.4954 Y0.9549 Z-0.2131 I0.0589 J-0.0077
X-0.6132 Y0.9702 Z-0.2196 I-0.0589 J0.0076
X-0.4954 Y0.9549 Z-0.2262 I0.0589 J-0.0077
X-0.6132 Y0.9702 Z-0.2327 I-0.0589 J0.0076
X-0.4954 Y0.9549 Z-0.2392 I0.0589 J-0.0077
X-0.6132 Y0.9702 Z-0.2457 I-0.0589 J0.0076
X-0.4954 Y0.9549 Z-0.2522 I0.0589 J-0.0077
X-0.6132 Y0.9702 Z-0.2587 I-0.0589 J0.0076
X-0.4954 Y0.9549 Z-0.2652 I0.0589 J-0.0077
X-0.6132 Y0.9702 Z-0.2717 I-0.0589 J0.0076
X-0.4954 Y0.9549 Z-0.2783 I0.0589 J-0.0077
X-0.6132 Y0.9702 Z-0.2848 I-0.0589 J0.0076
X-0.4954 Y0.9549 Z-0.2913 I0.0589 J-0.0077
X-0.6132 Y0.9702 Z-0.2978 I-0.0589 J0.0076
X-0.4954 Y0.9549 Z-0.3043 I0.0589 J-0.0077
X-0.6132 Y0.9702 Z-0.3108 I-0.0589 J0.0076
X-0.4954 Y0.9549 Z-0.3173 I0.0589 J-0.0077
X-0.6132 Y0.9702 Z-0.3239 I-0.0589 J0.0076
X-0.4954 Y0.9549 Z-0.3304 I0.0589 J-0.0077
X-0.6132 Y0.9702 Z-0.3369 I-0.0589 J0.0076
X-0.4954 Y0.9549 Z-0.3434 I0.0589 J-0.0077
X-0.6132 Y0.9702 Z-0.3499 I-0.0589 J0.0076
X-0.4954 Y0.9549 Z-0.3564 I0.0589 J-0.0077
X-0.6132 Y0.9702 Z-0.3629 I-0.0589 J0.0076
X-0.4954 Y0.9549 Z-0.3695 I0.0589 J-0.0077
X-0.6132 Y0.9702 Z-0.376 I-0.0589 J0.0076
X-0.4954 Y0.9549 Z-0.3825 I0.0589 J-0.0077
X-0.6132 Y0.9702 Z-0.389 I-0.0589 J0.0076
X-0.4954 Y0.9549 Z-0.3955 I0.0589 J-0.0077
X-0.6132 Y0.9702 Z-0.402 I-0.0589 J0.0076
X-0.4954 Y0.9549 Z-0.4085 I0.0589 J-0.0077
X-0.6132 Y0.9702 Z-0.4151 I-0.0589 J0.0076
X-0.4954 Y0.9549 Z-0.4216 I0.0589 J-0.0077
X-0.6132 Y0.9702 Z-0.4281 I-0.0589 J0.0076
X-0.4954 Y0.9549 Z-0.4346 I0.0589 J-0.0077
X-0.6132 Y0.9702 Z-0.4411 I-0.0589 J0.0076
X-0.4954 Y0.9549 Z-0.4476 I0.0589 J-0.0077
X-0.6132 Y0.9702 Z-0.4541 I-0.0589 J0.0076
X-0.4954 Y0.9549 Z-0.4606 I0.0589 J-0.0077
X-0.6132 Y0.9702 Z-0.4672 I-0.0589 J0.0076
X-0.4954 Y0.9549 Z-0.4737 I0.0589 J-0.0077
X-0.6132 Y0.9702 Z-0.4802 I-0.0589 J0.0076
X-0.4954 Y0.9549 Z-0.4867 I0.0589 J-0.0077
X-0.6132 Y0.9702 Z-0.4932 I-0.0589 J0.0076
X-0.5582 Y0.9032 Z-0.4966 I0.0589 J-0.0077
X-0.4949 Y0.9625 Z-0.5 I0.0039 J0.0593
G1 Y0.9631 F12.5
X-0.4951 Y0.9643
X-0.4957 Y0.9654
X-0.4965 Y0.9662
X-0.4977 Y0.9671
X-0.4988 Y0.9677
X-0.5 Y0.9679
X-0.5012 Y0.9677
X-0.5023 Y0.9671
X-0.5035 Y0.9662
X-0.5043 Y0.9654
X-0.5049 Y0.9643
X-0.5051 Y0.9631
Y0.5286 F50
Y0.5036 F12.5
G3 X-0.4949 I0.0051 J0
G1 Y0.9625 F50
G2 X-0.4791 Y0.9999 I0.0521 J0
G3 X-0.48 Y1.0406 I-0.0193 J0.0199
G1 X-0.491 Y1.0507
G3 X-0.509 I-0.009 J-0.0092
G2 X-0.5596 Y1.0102 I-0.241 J0.2493
G3 X-0.5733 Y0.9849 I0.0166 J-0.0253
G1 Y0.4395
G3 X-0.5605 Y0.4267 I0.0128 J0
G1 X-0.4395
G3 X-0.4267 Y0.4395 I0 J0.0128
G1 Y0.9849
G3 X-0.4404 Y1.0102 I-0.0303 J0
G2 X-0.48 Y1.0405 I0.1904 J0.2898
X-0.4942 Y1.0929 I0.0328 J0.037
G3 X-0.5414 Y1.1196 I-0.0263 J0.0086
G2 X-0.6311 Y1.0512 I-0.2086 J0.1804
G3 X-0.6442 Y1.0304 I0.0099 J-0.0208
G1 X-0.6443 Y0.3683
G3 X-0.6317 Y0.3557 I0.0126 J0
G1 X-0.3683
G3 X-0.3557 Y0.3683 I0 J0.0126
G1 Y1.0304
G3 X-0.3689 Y1.0512 I-0.0231 J0
G2 X-0.4941 Y1.1718 I0.1189 J0.2488
G3 X-0.5059 I-0.0059 J-0.0031
G2 X-0.5415 Y1.1196 I-0.2441 J0.1282
X-0.6104 Y1.1044 I-0.0447 J0.0387
G3 X-0.681 Y1.1073 I-0.0389 J-0.0864
G2 X-0.7024 Y1.101 I-0.07 J0.1968
G3 X-0.7154 Y1.0845 I0.004 J-0.0165
G1 X-0.7153 Y0.2975
G3 X-0.7025 Y0.2847 I0.0128 J0
G1 X-0.2975
G3 X-0.2847 Y0.2975 I0 J0.0128
G1 Y1.0845
G3 X-0.2976 Y1.1009 I-0.0169 J0
G2 X-0.4116 Y1.1729 I0.0486 J0.2032
X-0.4565 Y1.3 I0.1575 J0.1271
G3 X-0.5435 I-0.0435 J0
G2 X-0.5884 Y1.1729 I-0.2024 J0
X-0.681 Y1.1072 I-0.1626 J0.1312
X-0.7315 Y1.1307 I-0.0133 J0.0375
G3 X-0.7863 Y1.1207 I-0.0265 J-0.01
G1 Y0.2265
G3 X-0.7735 Y0.2137 I0.0128 J0
G1 X-0.2265
G3 X-0.2137 Y0.2265 I0 J0.0128
G1 Y1.1535
G3 X-0.2265 Y1.1663 I-0.0128 J0
G1 X-0.2382 Y1.1659
X-0.25 Y1.1656
G2 X-0.3456 Y1.2048 I0 J0.1362
X-0.3854 Y1.3 I0.0938 J0.0952
G3 X-0.6146 I-0.1146 J0
G2 X-0.6545 Y1.2048 I-0.1336 J0
X-0.75 Y1.1657 I-0.0955 J0.097
G1 X-0.7618 Y1.1659
X-0.7735 Y1.1663
G3 X-0.7863 Y1.1535 I0 J-0.0128
G1 Y1.1207
G2 X-0.8219 Y1.0673 I-0.0579 J0
G3 X-0.8575 Y1.0139 I0.0223 J-0.0534
G1 Y0.17
G3 X-0.83 Y0.1425 I0.0275 J0
G1 X-0.17
G3 X-0.1425 Y0.17 I0 J0.0275
G1 Y1.21
G3 X-0.17 Y1.2375 I-0.0275 J0
G1 X-0.25
G2 X-0.3125 Y1.3 I0 J0.0625
G3 X-0.6875 I-0.1875 J0
G2 X-0.75 Y1.2375 I-0.0625 J0
G1 X-0.83
G3 X-0.8575 Y1.21 I0 J-0.0275
G1 Y1.0139
X-0.8572 Y1.0115 Z-0.4995
X-0.8565 Y1.0093 Z-0.499
X-0.8555 Y1.0075 Z-0.4977
X-0.8542 Y1.0059 Z-0.4963
X-0.8522 Y1.0041 Z-0.4923
X-0.8514 Y1.0036 Z-0.4875
Z0.18
X0.3896 Y0.5194
Z0.0925 F10
X0.3893 Y0.5185 Z0.0878 F13.333
X0.3885 Y0.516 Z0.0838
X0.3876 Y0.5122 Z0.0811
X0.3868 Y0.5077 Z0.08
G3 X0.5046 Y0.4923 Z0.0735 I0.0589 J-0.0077
X0.3868 Y0.5077 Z0.067 I-0.0589 J0.0077
X0.5046 Y0.4923 Z0.0605 I0.0589 J-0.0077
X0.3868 Y0.5077 Z0.0539 I-0.0589 J0.0077
X0.5046 Y0.4923 Z0.0474 I0.0589 J-0.0077
X0.3868 Y0.5077 Z0.0409 I-0.0589 J0.0077
X0.5046 Y0.4923 Z0.0344 I0.0589 J-0.0077
X0.3868 Y0.5077 Z0.0279 I-0.0589 J0.0077
X0.5046 Y0.4923 Z0.0214 I0.0589 J-0.0077
X0.3868 Y0.5077 Z0.0149 I-0.0589 J0.0077
X0.5046 Y0.4923 Z0.0083 I0.0589 J-0.0077
X0.3868 Y0.5077 Z0.0018 I-0.0589 J0.0077
X0.5046 Y0.4923 Z-0.0047 I0.0589 J-0.0077
X0.3868 Y0.5077 Z-0.0112 I-0.0589 J0.0077
X0.5046 Y0.4923 Z-0.0177 I0.0589 J-0.0077
X0.3868 Y0.5077 Z-0.0242 I-0.0589 J0.0077
X0.5046 Y0.4923 Z-0.0307 I0.0589 J-0.0077
X0.3868 Y0.5077 Z-0.0372 I-0.0589 J0.0077
X0.5046 Y0.4923 Z-0.0438 I0.0589 J-0.0077
X0.3868 Y0.5077 Z-0.0503 I-0.0589 J0.0077
X0.5046 Y0.4923 Z-0.0568 I0.0589 J-0.0077
X0.3868 Y0.5077 Z-0.0633 I-0.0589 J0.0077
X0.5046 Y0.4923 Z-0.0698 I0.0589 J-0.0077
X0.3868 Y0.5077 Z-0.0763 I-0.0589 J0.0077
X0.5046 Y0.4923 Z-0.0828 I0.0589 J-0.0077
X0.3868 Y0.5077 Z-0.0894 I-0.0589 J0.0077
X0.5046 Y0.4923 Z-0.0959 I0.0589 J-0.0077
X0.3868 Y0.5077 Z-0.1024 I-0.0589 J0.0077
X0.5046 Y0.4923 Z-0.1089 I0.0589 J-0.0077
X0.3868 Y0.5077 Z-0.1154 I-0.0589 J0.0077
X0.5046 Y0.4923 Z-0.1219 I0.0589 J-0.0077
X0.3868 Y0.5077 Z-0.1284 I-0.0589 J0.0077
X0.5046 Y0.4923 Z-0.135 I0.0589 J-0.0077
X0.3868 Y0.5077 Z-0.1415 I-0.0589 J0.0077
X0.5046 Y0.4923 Z-0.148 I0.0589 J-0.0077
X0.3868 Y0.5077 Z-0.1545 I-0.0589 J0.0077
X0.5046 Y0.4923 Z-0.161 I0.0589 J-0.0077
X0.3868 Y0.5077 Z-0.1675 I-0.0589 J0.0077
X0.5046 Y0.4923 Z-0.174 I0.0589 J-0.0077
X0.3868 Y0.5077 Z-0.1806 I-0.0589 J0.0077
X0.5046 Y0.4923 Z-0.1871 I0.0589 J-0.0077
X0.3868 Y0.5077 Z-0.1936 I-0.0589 J0.0077
X0.5046 Y0.4923 Z-0.2001 I0.0589 J-0.0077
X0.3868 Y0.5077 Z-0.2066 I-0.0589 J0.0077
X0.5046 Y0.4923 Z-0.2131 I0.0589 J-0.0077
X0.3868 Y0.5077 Z-0.2196 I-0.0589 J0.0077
X0.5046 Y0.4923 Z-0.2262 I0.0589 J-0.0077
X0.3868 Y0.5077 Z-0.2327 I-0.0589 J0.0077
X0.5046 Y0.4923 Z-0.2392 I0.0589 J-0.0077
X0.3868 Y0.5077 Z-0.2457 I-0.0589 J0.0077
X0.5046 Y0.4923 Z-0.2522 I0.0589 J-0.0077
X0.3868 Y0.5077 Z-0.2587 I-0.0589 J0.0077
X0.5046 Y0.4923 Z-0.2652 I0.0589 J-0.0077
X0.3868 Y0.5077 Z-0.2717 I-0.0589 J0.0077
X0.5046 Y0.4923 Z-0.2783 I0.0589 J-0.0077
X0.3868 Y0.5077 Z-0.2848 I-0.0589 J0.0077
X0.5046 Y0.4923 Z-0.2913 I0.0589 J-0.0077
X0.3868 Y0.5077 Z-0.2978 I-0.0589 J0.0077
X0.5046 Y0.4923 Z-0.3043 I0.0589 J-0.0077
X0.3868 Y0.5077 Z-0.3108 I-0.0589 J0.0077
X0.5046 Y0.4923 Z-0.3173 I0.0589 J-0.0077
X0.3868 Y0.5077 Z-0.3239 I-0.0589 J0.0077
X0.5046 Y0.4923 Z-0.3304 I0.0589 J-0.0077
X0.3868 Y0.5077 Z-0.3369 I-0.0589 J0.0077
X0.5046 Y0.4923 Z-0.3434 I0.0589 J-0.0077
X0.3868 Y0.5077 Z-0.3499 I-0.0589 J0.0077
X0.5046 Y0.4923 Z-0.3564 I0.0589 J-0.0077
X0.3868 Y0.5077 Z-0.3629 I-0.0589 J0.0077
X0.5046 Y0.4923 Z-0.3695 I0.0589 J-0.0077
X0.3868 Y0.5077 Z-0.376 I-0.0589 J0.0077
X0.5046 Y0.4923 Z-0.3825 I0.0589 J-0.0077
X0.3868 Y0.5077 Z-0.389 I-0.0589 J0.0077
X0.5046 Y0.4923 Z-0.3955 I0.0589 J-0.0077
X0.3868 Y0.5077 Z-0.402 I-0.0589 J0.0077
X0.5046 Y0.4923 Z-0.4085 I0.0589 J-0.0077
X0.3868 Y0.5077 Z-0.4151 I-0.0589 J0.0077
X0.5046 Y0.4923 Z-0.4216 I0.0589 J-0.0077
X0.3868 Y0.5077 Z-0.4281 I-0.0589 J0.0077
X0.5046 Y0.4923 Z-0.4346 I0.0589 J-0.0077
X0.3868 Y0.5077 Z-0.4411 I-0.0589 J0.0077
X0.5046 Y0.4923 Z-0.4476 I0.0589 J-0.0077
X0.3868 Y0.5077 Z-0.4541 I-0.0589 J0.0077
X0.5046 Y0.4923 Z-0.4606 I0.0589 J-0.0077
X0.3868 Y0.5077 Z-0.4672 I-0.0589 J0.0077
X0.5046 Y0.4923 Z-0.4737 I0.0589 J-0.0077
X0.3868 Y0.5077 Z-0.4802 I-0.0589 J0.0077
X0.5046 Y0.4923 Z-0.4867 I0.0589 J-0.0077
X0.3868 Y0.5077 Z-0.4932 I-0.0589 J0.0077
X0.4418 Y0.4407 Z-0.4966 I0.0589 J-0.0077
X0.5051 Y0.5 Z-0.5 I0.0039 J0.0593
G1 Y0.9381 F50
Y0.9631 F12.5
X0.5049 Y0.9643
X0.5043 Y0.9654
X0.5035 Y0.9662
X0.5023 Y0.9671
X0.5012 Y0.9677
X0.5 Y0.9679
X0.4988 Y0.9677
X0.4977 Y0.9671
X0.4965 Y0.9662
X0.4957 Y0.9654
X0.4951 Y0.9643
X0.4949 Y0.9631
Y0.5238 F50
Y0.4988 F12.5
X0.4952 Y0.4973
X0.4961 Y0.4961
X0.4973 Y0.4952
X0.4988 Y0.4949
X0.5012
X0.5027 Y0.4952
X0.5039 Y0.4961
X0.5048 Y0.4973
X0.5051 Y0.4988
Y0.5 F50
G2 X0.5392 Y0.5511 I0.0554 J0
G3 X0.5733 Y0.6023 I-0.0214 J0.0512
G1 Y0.9849
G3 X0.5596 Y1.0102 I-0.0303 J0
G2 X0.509 Y1.0507 I0.1904 J0.2898
G3 X0.491 I-0.009 J-0.0092
G2 X0.4404 Y1.0102 I-0.241 J0.2493
G3 X0.4267 Y0.9849 I0.0166 J-0.0253
G1 Y0.4395
G3 X0.4395 Y0.4267 I0.0128 J0
G1 X0.5605
G3 X0.5733 Y0.4395 I0 J0.0128
G1 Y0.6023
G2 X0.6088 Y0.6555 I0.0577 J0
G3 X0.6443 Y0.7088 I-0.0222 J0.0533
G1 Y1.0304
G3 X0.6311 Y1.0512 I-0.0231 J0
G2 X0.5059 Y1.1718 I0.1189 J0.2488
G3 X0.4941 I-0.0059 J-0.0031
G2 X0.3689 Y1.0512 I-0.2441 J0.1282
G3 X0.3558 Y1.0304 I0.0099 J-0.0208
G1 X0.3557 Y0.3683
G3 X0.3683 Y0.3557 I0.0126 J0
G1 X0.6317
G3 X0.6443 Y0.3683 I0 J0.0126
G1 Y0.7088
G2 X0.6798 Y0.7621 I0.0577 J0
G3 X0.7153 Y0.8154 I-0.0222 J0.0533
G1 Y1.0845
G3 X0.7024 Y1.1009 I-0.0169 J0
G2 X0.5884 Y1.1729 I0.0486 J0.2032
X0.5435 Y1.3 I0.1575 J0.1271
G3 X0.4565 I-0.0435 J0
G2 X0.4116 Y1.1729 I-0.2024 J0
X0.2976 Y1.1009 I-0.1626 J0.1312
G3 X0.2847 Y1.0845 I0.004 J-0.0164
G1 Y0.2975
G3 X0.2975 Y0.2847 I0.0128 J0
G1 X0.7025
G3 X0.7153 Y0.2975 I0 J0.0128
G1 Y0.8154
G2 X0.7508 Y0.8687 I0.0577 J0
G3 X0.7862 Y0.9219 I-0.0222 J0.0532
G1 X0.7863 Y1.1535
G3 X0.7735 Y1.1663 I-0.0128 J0
G1 X0.7618 Y1.1659
X0.75 Y1.1656
G2 X0.6544 Y1.2048 I0 J0.1362
X0.6146 Y1.3 I0.0938 J0.0952
G3 X0.3854 I-0.1146 J0
G2 X0.3455 Y1.2048 I-0.1336 J0
X0.25 Y1.1657 I-0.0955 J0.097
G1 X0.2382 Y1.1659
X0.2265 Y1.1663
G3 X0.2137 Y1.1535 I0 J-0.0128
G1 Y0.2265
G3 X0.2265 Y0.2137 I0.0128 J0
G1 X0.7735
G3 X0.7863 Y0.2265 I0 J0.0128
G1 Y0.9219
G2 X0.8219 Y0.9753 I0.0579 J0
G3 X0.8575 Y1.0287 I-0.0223 J0.0534
G1 Y1.21
G3 X0.83 Y1.2375 I-0.0275 J0
G1 X0.75
G2 X0.6875 Y1.3 I0 J0.0625
G3 X0.3125 I-0.1875 J0
G2 X0.25 Y1.2375 I-0.0625 J0
G1 X0.17
G3 X0.1425 Y1.21 I0 J-0.0275
G1 Y0.17
G3 X0.17 Y0.1425 I0.0275 J0
G1 X0.83
G3 X0.8575 Y0.17 I0 J0.0275
G1 Y1.0287
X0.8572 Y1.031 Z-0.4995
X0.8565 Y1.0333 Z-0.499
X0.8555 Y1.0351 Z-0.4977
X0.8542 Y1.0367 Z-0.4963
X0.8522 Y1.0384 Z-0.4923
X0.8514 Y1.0389 Z-0.4875
Z0.18
X1.3896 Y0.9819
Z0.0925 F10
X1.3893 Y0.981 Z0.0878 F13.333
X1.3885 Y0.9785 Z0.0838
X1.3876 Y0.9747 Z0.0811
X1.3868 Y0.9702 Z0.08
G3 X1.5046 Y0.9549 Z0.0735 I0.0589 J-0.0077
X1.3868 Y0.9702 Z0.067 I-0.0589 J0.0076
X1.5046 Y0.9549 Z0.0605 I0.0589 J-0.0077
X1.3868 Y0.9702 Z0.0539 I-0.0589 J0.0076
X1.5046 Y0.9549 Z0.0474 I0.0589 J-0.0077
X1.3868 Y0.9702 Z0.0409 I-0.0589 J0.0076
X1.5046 Y0.9549 Z0.0344 I0.0589 J-0.0077
X1.3868 Y0.9702 Z0.0279 I-0.0589 J0.0076
X1.5046 Y0.9549 Z0.0214 I0.0589 J-0.0077
X1.3868 Y0.9702 Z0.0149 I-0.0589 J0.0076
X1.5046 Y0.9549 Z0.0083 I0.0589 J-0.0077
X1.3868 Y0.9702 Z0.0018 I-0.0589 J0.0076
X1.5046 Y0.9549 Z-0.0047 I0.0589 J-0.0077
X1.3868 Y0.9702 Z-0.0112 I-0.0589 J0.0076
X1.5046 Y0.9549 Z-0.0177 I0.0589 J-0.0077
X1.3868 Y0.9702 Z-0.0242 I-0.0589 J0.0076
X1.5046 Y0.9549 Z-0.0307 I0.0589 J-0.0077
X1.3868 Y0.9702 Z-0.0372 I-0.0589 J0.0076
X1.5046 Y0.9549 Z-0.0438 I0.0589 J-0.0077
X1.3868 Y0.9702 Z-0.0503 I-0.0589 J0.0076
X1.5046 Y0.9549 Z-0.0568 I0.0589 J-0.0077
X1.3868 Y0.9702 Z-0.0633 I-0.0589 J0.0076
X1.5046 Y0.9549 Z-0.0698 I0.0589 J-0.0077
X1.3868 Y0.9702 Z-0.0763 I-0.0589 J0.0076
X1.5046 Y0.9549 Z-0.0828 I0.0589 J-0.0077
X1.3868 Y0.9702 Z-0.0894 I-0.0589 J0.0076
X1.5046 Y0.9549 Z-0.0959 I0.0589 J-0.0077
X1.3868 Y0.9702 Z-0.1024 I-0.0589 J0.0076
X1.5046 Y0.9549 Z-0.1089 I0.0589 J-0.0077
X1.3868 Y0.9702 Z-0.1154 I-0.0589 J0.0076
X1.5046 Y0.9549 Z-0.1219 I0.0589 J-0.0077
X1.3868 Y0.9702 Z-0.1284 I-0.0589 J0.0076
X1.5046 Y0.9549 Z-0.135 I0.0589 J-0.0077
X1.3868 Y0.9702 Z-0.1415 I-0.0589 J0.0076
X1.5046 Y0.9549 Z-0.148 I0.0589 J-0.0077
X1.3868 Y0.9702 Z-0.1545 I-0.0589 J0.0076
X1.5046 Y0.9549 Z-0.161 I0.0589 J-0.0077
X1.3868 Y0.9702 Z-0.1675 I-0.0589 J0.0076
X1.5046 Y0.9549 Z-0.174 I0.0589 J-0.0077
X1.3868 Y0.9702 Z-0.1806 I-0.0589 J0.0076
X1.5046 Y0.9549 Z-0.1871 I0.0589 J-0.0077
X1.3868 Y0.9702 Z-0.1936 I-0.0589 J0.0076
X1.5046 Y0.9549 Z-0.2001 I0.0589 J-0.0077
X1.3868 Y0.9702 Z-0.2066 I-0.0589 J0.0076
X1.5046 Y0.9549 Z-0.2131 I0.0589 J-0.0077
X1.3868 Y0.9702 Z-0.2196 I-0.0589 J0.0076
X1.5046 Y0.9549 Z-0.2262 I0.0589 J-0.0077
X1.3868 Y0.9702 Z-0.2327 I-0.0589 J0.0076
X1.5046 Y0.9549 Z-0.2392 I0.0589 J-0.0077
X1.3868 Y0.9702 Z-0.2457 I-0.0589 J0.0076
X1.5046 Y0.9549 Z-0.2522 I0.0589 J-0.0077
X1.3868 Y0.9702 Z-0.2587 I-0.0589 J0.0076
X1.5046 Y0.9549 Z-0.2652 I0.0589 J-0.0077
X1.3868 Y0.9702 Z-0.2717 I-0.0589 J0.0076
X1.5046 Y0.9549 Z-0.2783 I0.0589 J-0.0077
X1.3868 Y0.9702 Z-0.2848 I-0.0589 J0.0076
X1.5046 Y0.9549 Z-0.2913 I0.0589 J-0.0077
X1.3868 Y0.9702 Z-0.2978 I-0.0589 J0.0076
X1.5046 Y0.9549 Z-0.3043 I0.0589 J-0.0077
X1.3868 Y0.9702 Z-0.3108 I-0.0589 J0.0076
X1.5046 Y0.9549 Z-0.3173 I0.0589 J-0.0077
X1.3868 Y0.9702 Z-0.3239 I-0.0589 J0.0076
X1.5046 Y0.9549 Z-0.3304 I0.0589 J-0.0077
X1.3868 Y0.9702 Z-0.3369 I-0.0589 J0.0076
X1.5046 Y0.9549 Z-0.3434 I0.0589 J-0.0077
X1.3868 Y0.9702 Z-0.3499 I-0.0589 J0.0076
X1.5046 Y0.9549 Z-0.3564 I0.0589 J-0.0077
X1.3868 Y0.9702 Z-0.3629 I-0.0589 J0.0076
X1.5046 Y0.9549 Z-0.3695 I0.0589 J-0.0077
X1.3868 Y0.9702 Z-0.376 I-0.0589 J0.0076
X1.5046 Y0.9549 Z-0.3825 I0.0589 J-0.0077
X1.3868 Y0.9702 Z-0.389 I-0.0589 J0.0076
X1.5046 Y0.9549 Z-0.3955 I0.0589 J-0.0077
X1.3868 Y0.9702 Z-0.402 I-0.0589 J0.0076
X1.5046 Y0.9549 Z-0.4085 I0.0589 J-0.0077
X1.3868 Y0.9702 Z-0.4151 I-0.0589 J0.0076
X1.5046 Y0.9549 Z-0.4216 I0.0589 J-0.0077
X1.3868 Y0.9702 Z-0.4281 I-0.0589 J0.0076
X1.5046 Y0.9549 Z-0.4346 I0.0589 J-0.0077
X1.3868 Y0.9702 Z-0.4411 I-0.0589 J0.0076
X1.5046 Y0.9549 Z-0.4476 I0.0589 J-0.0077
X1.3868 Y0.9702 Z-0.4541 I-0.0589 J0.0076
X1.5046 Y0.9549 Z-0.4606 I0.0589 J-0.0077
X1.3868 Y0.9702 Z-0.4672 I-0.0589 J0.0076
X1.5046 Y0.9549 Z-0.4737 I0.0589 J-0.0077
X1.3868 Y0.9702 Z-0.4802 I-0.0589 J0.0076
X1.5046 Y0.9549 Z-0.4867 I0.0589 J-0.0077
X1.3868 Y0.9702 Z-0.4932 I-0.0589 J0.0076
X1.4418 Y0.9032 Z-0.4966 I0.0589 J-0.0077
X1.5051 Y0.9625 Z-0.5 I0.0039 J0.0593
G1 Y0.9631 F12.5
X1.5049 Y0.9643
X1.5043 Y0.9654
X1.5035 Y0.9662
X1.5023 Y0.9671
X1.5012 Y0.9677
X1.5 Y0.9679
X1.4988 Y0.9677
X1.4977 Y0.9671
X1.4965 Y0.9662
X1.4957 Y0.9654
X1.4951 Y0.9643
X1.4949 Y0.9631
Y0.5286 F50
Y0.5036 F12.5
G3 X1.5051 I0.0051 J0
G1 Y0.9625 F50
G2 X1.5209 Y0.9999 I0.0521 J0
G3 X1.52 Y1.0406 I-0.0193 J0.0199
G1 X1.509 Y1.0507
G3 X1.491 I-0.009 J-0.0092
G2 X1.4404 Y1.0102 I-0.241 J0.2493
G3 X1.4267 Y0.9849 I0.0166 J-0.0253
G1 Y0.4395
G3 X1.4395 Y0.4267 I0.0128 J0
G1 X1.5605
G3 X1.5733 Y0.4395 I0 J0.0128
G1 Y0.9849
G3 X1.5596 Y1.0102 I-0.0303 J0
G2 X1.52 Y1.0405 I0.1904 J0.2898
X1.5058 Y1.0929 I0.0328 J0.037
G3 X1.4586 Y1.1196 I-0.0263 J0.0086
G2 X1.3689 Y1.0512 I-0.2086 J0.1804
G3 X1.3558 Y1.0304 I0.0099 J-0.0208
G1 X1.3557 Y0.3683
G3 X1.3683 Y0.3557 I0.0126 J0
G1 X1.6317
G3 X1.6443 Y0.3683 I0 J0.0126
G1 Y1.0304
G3 X1.6311 Y1.0512 I-0.0231 J0
G2 X1.5059 Y1.1718 I0.1189 J0.2488
G3 X1.4941 I-0.0059 J-0.0031
G2 X1.4585 Y1.1196 I-0.2441 J0.1282
X1.3896 Y1.1044 I-0.0447 J0.0387
G3 X1.319 Y1.1073 I-0.0389 J-0.0864
G2 X1.2976 Y1.101 I-0.07 J0.1968
G3 X1.2846 Y1.0845 I0.004 J-0.0165
G1 X1.2847 Y0.2975
G3 X1.2975 Y0.2847 I0.0128 J0
G1 X1.7025
G3 X1.7153 Y0.2975 I0 J0.0128
G1 Y1.0845
G3 X1.7024 Y1.1009 I-0.0169 J0
G2 X1.5884 Y1.1729 I0.0486 J0.2032
X1.5435 Y1.3 I0.1575 J0.1271
G3 X1.4565 I-0.0435 J0
G2 X1.4116 Y1.1729 I-0.2024 J0
X1.319 Y1.1072 I-0.1626 J0.1312
X1.2685 Y1.1307 I-0.0133 J0.0375
G3 X1.2137 Y1.1207 I-0.0265 J-0.01
G1 Y0.2265
G3 X1.2265 Y0.2137 I0.0128 J0
G1 X1.7735
G3 X1.7863 Y0.2265 I0 J0.0128
G1 Y1.1535
G3 X1.7735 Y1.1663 I-0.0128 J0
G1 X1.7618 Y1.1659
X1.75 Y1.1656
G2 X1.6544 Y1.2048 I0 J0.1362
X1.6146 Y1.3 I0.0938 J0.0952
G3 X1.3854 I-0.1146 J0
G2 X1.3455 Y1.2048 I-0.1336 J0
X1.25 Y1.1657 I-0.0955 J0.097
G1 X1.2382 Y1.1659
X1.2265 Y1.1663
G3 X1.2137 Y1.1535 I0 J-0.0128
G1 Y1.1207
G2 X1.1781 Y1.0673 I-0.0579 J0
G3 X1.1425 Y1.0139 I0.0222 J-0.0534
G1 Y0.17
G3 X1.17 Y0.1425 I0.0275 J0
G1 X1.83
G3 X1.8575 Y0.17 I0 J0.0275
G1 Y1.21
G3 X1.83 Y1.2375 I-0.0275 J0
G1 X1.75
G2 X1.6875 Y1.3 I0 J0.0625
G3 X1.3125 I-0.1875 J0
G2 X1.25 Y1.2375 I-0.0625 J0
G1 X1.17
G3 X1.1425 Y1.21 I0 J-0.0275
G1 Y1.0139
X1.1428 Y1.0115 Z-0.4995
X1.1435 Y1.0093 Z-0.499
X1.1445 Y1.0075 Z-0.4977
X1.1458 Y1.0059 Z-0.4963
X1.1478 Y1.0041 Z-0.4923
X1.1486 Y1.0036 Z-0.4875
Z0.18
X2.3896 Y0.5194
Z0.0925 F10
X2.3893 Y0.5185 Z0.0878 F13.333
X2.3885 Y0.516 Z0.0838
X2.3876 Y0.5122 Z0.0811
X2.3868 Y0.5077 Z0.08
G3 X2.5046 Y0.4923 Z0.0735 I0.0589 J-0.0077
X2.3868 Y0.5077 Z0.067 I-0.0589 J0.0077
X2.5046 Y0.4923 Z0.0605 I0.0589 J-0.0077
X2.3868 Y0.5077 Z0.0539 I-0.0589 J0.0077
X2.5046 Y0.4923 Z0.0474 I0.0589 J-0.0077
X2.3868 Y0.5077 Z0.0409 I-0.0589 J0.0077
X2.5046 Y0.4923 Z0.0344 I0.0589 J-0.0077
X2.3868 Y0.5077 Z0.0279 I-0.0589 J0.0077
X2.5046 Y0.4923 Z0.0214 I0.0589 J-0.0077
X2.3868 Y0.5077 Z0.0149 I-0.0589 J0.0077
X2.5046 Y0.4923 Z0.0083 I0.0589 J-0.0077
X2.3868 Y0.5077 Z0.0018 I-0.0589 J0.0077
X2.5046 Y0.4923 Z-0.0047 I0.0589 J-0.0077
X2.3868 Y0.5077 Z-0.0112 I-0.0589 J0.0077
X2.5046 Y0.4923 Z-0.0177 I0.0589 J-0.0077
X2.3868 Y0.5077 Z-0.0242 I-0.0589 J0.0077
X2.5046 Y0.4923 Z-0.0307 I0.0589 J-0.0077
X2.3868 Y0.5077 Z-0.0372 I-0.0589 J0.0077
X2.5046 Y0.4923 Z-0.0438 I0.0589 J-0.0077
X2.3868 Y0.5077 Z-0.0503 I-0.0589 J0.0077
X2.5046 Y0.4923 Z-0.0568 I0.0589 J-0.0077
X2.3868 Y0.5077 Z-0.0633 I-0.0589 J0.0077
X2.5046 Y0.4923 Z-0.0698 I0.0589 J-0.0077
X2.3868 Y0.5077 Z-0.0763 I-0.0589 J0.0077
X2.5046 Y0.4923 Z-0.0828 I0.0589 J-0.0077
X2.3868 Y0.5077 Z-0.0894 I-0.0589 J0.0077
X2.5046 Y0.4923 Z-0.0959 I0.0589 J-0.0077
X2.3868 Y0.5077 Z-0.1024 I-0.0589 J0.0077
X2.5046 Y0.4923 Z-0.1089 I0.0589 J-0.0077
X2.3868 Y0.5077 Z-0.1154 I-0.0589 J0.0077
X2.5046 Y0.4923 Z-0.1219 I0.0589 J-0.0077
X2.3868 Y0.5077 Z-0.1284 I-0.0589 J0.0077
X2.5046 Y0.4923 Z-0.135 I0.0589 J-0.0077
X2.3868 Y0.5077 Z-0.1415 I-0.0589 J0.0077
X2.5046 Y0.4923 Z-0.148 I0.0589 J-0.0077
X2.3868 Y0.5077 Z-0.1545 I-0.0589 J0.0077
X2.5046 Y0.4923 Z-0.161 I0.0589 J-0.0077
X2.3868 Y0.5077 Z-0.1675 I-0.0589 J0.0077
X2.5046 Y0.4923 Z-0.174 I0.0589 J-0.0077
X2.3868 Y0.5077 Z-0.1806 I-0.0589 J0.0077
X2.5046 Y0.4923 Z-0.1871 I0.0589 J-0.0077
X2.3868 Y0.5077 Z-0.1936 I-0.0589 J0.0077
X2.5046 Y0.4923 Z-0.2001 I0.0589 J-0.0077
X2.3868 Y0.5077 Z-0.2066 I-0.0589 J0.0077
X2.5046 Y0.4923 Z-0.2131 I0.0589 J-0.0077
X2.3868 Y0.5077 Z-0.2196 I-0.0589 J0.0077
X2.5046 Y0.4923 Z-0.2262 I0.0589 J-0.0077
X2.3868 Y0.5077 Z-0.2327 I-0.0589 J0.0077
X2.5046 Y0.4923 Z-0.2392 I0.0589 J-0.0077
X2.3868 Y0.5077 Z-0.2457 I-0.0589 J0.0077
X2.5046 Y0.4923 Z-0.2522 I0.0589 J-0.0077
X2.3868 Y0.5077 Z-0.2587 I-0.0589 J0.0077
X2.5046 Y0.4923 Z-0.2652 I0.0589 J-0.0077
X2.3868 Y0.5077 Z-0.2717 I-0.0589 J0.0077
X2.5046 Y0.4923 Z-0.2783 I0.0589 J-0.0077
X2.3868 Y0.5077 Z-0.2848 I-0.0589 J0.0077
X2.5046 Y0.4923 Z-0.2913 I0.0589 J-0.0077
X2.3868 Y0.5077 Z-0.2978 I-0.0589 J0.0077
X2.5046 Y0.4923 Z-0.3043 I0.0589 J-0.0077
X2.3868 Y0.5077 Z-0.3108 I-0.0589 J0.0077
X2.5046 Y0.4923 Z-0.3173 I0.0589 J-0.0077
X2.3868 Y0.5077 Z-0.3239 I-0.0589 J0.0077
X2.5046 Y0.4923 Z-0.3304 I0.0589 J-0.0077
X2.3868 Y0.5077 Z-0.3369 I-0.0589 J0.0077
X2.5046 Y0.4923 Z-0.3434 I0.0589 J-0.0077
X2.3868 Y0.5077 Z-0.3499 I-0.0589 J0.0077
X2.5046 Y0.4923 Z-0.3564 I0.0589 J-0.0077
X2.3868 Y0.5077 Z-0.3629 I-0.0589 J0.0077
X2.5046 Y0.4923 Z-0.3695 I0.0589 J-0.0077
X2.3868 Y0.5077 Z-0.376 I-0.0589 J0.0077
X2.5046 Y0.4923 Z-0.3825 I0.0589 J-0.0077
X2.3868 Y0.5077 Z-0.389 I-0.0589 J0.0077
X2.5046 Y0.4923 Z-0.3955 I0.0589 J-0.0077
X2.3868 Y0.5077 Z-0.402 I-0.0589 J0.0077
X2.5046 Y0.4923 Z-0.4085 I0.0589 J-0.0077
X2.3868 Y0.5077 Z-0.4151 I-0.0589 J0.0077
X2.5046 Y0.4923 Z-0.4216 I0.0589 J-0.0077
X2.3868 Y0.5077 Z-0.4281 I-0.0589 J0.0077
X2.5046 Y0.4923 Z-0.4346 I0.0589 J-0.0077
X2.3868 Y0.5077 Z-0.4411 I-0.0589 J0.0077
X2.5046 Y0.4923 Z-0.4476 I0.0589 J-0.0077
X2.3868 Y0.5077 Z-0.4541 I-0.0589 J0.0077
X2.5046 Y0.4923 Z-0.4606 I0.0589 J-0.0077
X2.3868 Y0.5077 Z-0.4672 I-0.0589 J0.0077
X2.5046 Y0.4923 Z-0.4737 I0.0589 J-0.0077
X2.3868 Y0.5077 Z-0.4802 I-0.0589 J0.0077
X2.5046 Y0.4923 Z-0.4867 I0.0589 J-0.0077
X2.3868 Y0.5077 Z-0.4932 I-0.0589 J0.0077
X2.4418 Y0.4407 Z-0.4966 I0.0589 J-0.0077
X2.5051 Y0.5 Z-0.5 I0.0039 J0.0593
G1 Y0.9381 F50
Y0.9631 F12.5
X2.5049 Y0.9643
X2.5043 Y0.9654
X2.5035 Y0.9662
X2.5023 Y0.9671
X2.5012 Y0.9677
X2.5 Y0.9679
X2.4988 Y0.9677
X2.4977 Y0.9671
X2.4965 Y0.9662
X2.4957 Y0.9654
X2.4951 Y0.9643
X2.4949 Y0.9631
Y0.5238 F50
Y0.4988 F12.5
X2.4952 Y0.4973
X2.4961 Y0.4961
X2.4973 Y0.4952
X2.4988 Y0.4949
X2.5012
X2.5027 Y0.4952
X2.5039 Y0.4961
X2.5048 Y0.4973
X2.5051 Y0.4988
Y0.5 F50
G2 X2.5392 Y0.5511 I0.0554 J0
G3 X2.5733 Y0.6023 I-0.0214 J0.0512
G1 Y0.9849
G3 X2.5596 Y1.0102 I-0.0303 J0
G2 X2.509 Y1.0507 I0.1904 J0.2898
G3 X2.491 I-0.009 J-0.0092
G2 X2.4404 Y1.0102 I-0.241 J0.2493
G3 X2.4267 Y0.9849 I0.0166 J-0.0253
G1 Y0.4395
G3 X2.4395 Y0.4267 I0.0128 J0
G1 X2.5605
G3 X2.5733 Y0.4395 I0 J0.0128
G1 Y0.6023
G2 X2.6088 Y0.6555 I0.0577 J0
G3 X2.6443 Y0.7088 I-0.0222 J0.0533
G1 Y1.0304
G3 X2.6311 Y1.0512 I-0.0231 J0
G2 X2.5059 Y1.1718 I0.1189 J0.2488
G3 X2.4941 I-0.0059 J-0.0031
G2 X2.3689 Y1.0512 I-0.2441 J0.1282
G3 X2.3558 Y1.0304 I0.0099 J-0.0208
G1 X2.3557 Y0.3683
G3 X2.3683 Y0.3557 I0.0126 J0
G1 X2.6317
G3 X2.6443 Y0.3683 I0 J0.0126
G1 Y0.7088
G2 X2.6798 Y0.7621 I0.0577 J0
G3 X2.7153 Y0.8154 I-0.0222 J0.0533
G1 Y1.0845
G3 X2.7024 Y1.1009 I-0.0169 J0
G2 X2.5884 Y1.1729 I0.0486 J0.2032
X2.5435 Y1.3 I0.1575 J0.1271
G3 X2.4565 I-0.0435 J0
G2 X2.4116 Y1.1729 I-0.2024 J0
X2.2976 Y1.1009 I-0.1626 J0.1312
G3 X2.2847 Y1.0845 I0.004 J-0.0164
G1 Y0.2975
G3 X2.2975 Y0.2847 I0.0128 J0
G1 X2.7025
G3 X2.7153 Y0.2975 I0 J0.0128
G1 Y0.8154
G2 X2.7508 Y0.8687 I0.0577 J0
G3 X2.7862 Y0.9219 I-0.0222 J0.0532
G1 X2.7863 Y1.1535
G3 X2.7735 Y1.1663 I-0.0128 J0
G1 X2.7618 Y1.1659
X2.75 Y1.1656
G2 X2.6544 Y1.2048 I0 J0.1362
X2.6146 Y1.3 I0.0938 J0.0952
G3 X2.3854 I-0.1146 J0
G2 X2.3455 Y1.2048 I-0.1336 J0
X2.25 Y1.1657 I-0.0955 J0.097
G1 X2.2382 Y1.1659
X2.2265 Y1.1663
G3 X2.2137 Y1.1535 I0 J-0.0128
G1 Y0.2265
G3 X2.2265 Y0.2137 I0.0128 J0
G1 X2.7735
G3 X2.7863 Y0.2265 I0 J0.0128
G1 Y0.9219
G2 X2.8219 Y0.9753 I0.0578 J0
G3 X2.8575 Y1.0287 I-0.0223 J0.0534
G1 Y1.21
G3 X2.83 Y1.2375 I-0.0275 J0
G1 X2.75
G2 X2.6875 Y1.3 I0 J0.0625
G3 X2.3125 I-0.1875 J0
G2 X2.25 Y1.2375 I-0.0625 J0
G1 X2.17
G3 X2.1425 Y1.21 I0 J-0.0275
G1 Y0.17
G3 X2.17 Y0.1425 I0.0275 J0
G1 X2.83
G3 X2.8575 Y0.17 I0 J0.0275
G1 Y1.0287
X2.8572 Y1.031 Z-0.4995
X2.8565 Y1.0333 Z-0.499
X2.8555 Y1.0351 Z-0.4977
X2.8542 Y1.0367 Z-0.4963
X2.8522 Y1.0384 Z-0.4923
X2.8514 Y1.0389 Z-0.4875
Z0.18
X2.3896 Y-0.9431
Z0.0925 F10
X2.3893 Y-0.944 Z0.0878 F13.333
X2.3885 Y-0.9465 Z0.0838
X2.3876 Y-0.9503 Z0.0811
X2.3868 Y-0.9549 Z0.08
G3 X2.5046 Y-0.9702 Z0.0735 I0.0589 J-0.0076
X2.3868 Y-0.9549 Z0.067 I-0.0589 J0.0077
X2.5046 Y-0.9702 Z0.0605 I0.0589 J-0.0076
X2.3868 Y-0.9549 Z0.0539 I-0.0589 J0.0077
X2.5046 Y-0.9702 Z0.0474 I0.0589 J-0.0076
X2.3868 Y-0.9549 Z0.0409 I-0.0589 J0.0077
X2.5046 Y-0.9702 Z0.0344 I0.0589 J-0.0076
X2.3868 Y-0.9549 Z0.0279 I-0.0589 J0.0077
X2.5046 Y-0.9702 Z0.0214 I0.0589 J-0.0076
X2.3868 Y-0.9549 Z0.0149 I-0.0589 J0.0077
X2.5046 Y-0.9702 Z0.0083 I0.0589 J-0.0076
X2.3868 Y-0.9549 Z0.0018 I-0.0589 J0.0077
X2.5046 Y-0.9702 Z-0.0047 I0.0589 J-0.0076
X2.3868 Y-0.9549 Z-0.0112 I-0.0589 J0.0077
X2.5046 Y-0.9702 Z-0.0177 I0.0589 J-0.0076
X2.3868 Y-0.9549 Z-0.0242 I-0.0589 J0.0077
X2.5046 Y-0.9702 Z-0.0307 I0.0589 J-0.0076
X2.3868 Y-0.9549 Z-0.0372 I-0.0589 J0.0077
X2.5046 Y-0.9702 Z-0.0438 I0.0589 J-0.0076
X2.3868 Y-0.9549 Z-0.0503 I-0.0589 J0.0077
X2.5046 Y-0.9702 Z-0.0568 I0.0589 J-0.0076
X2.3868 Y-0.9549 Z-0.0633 I-0.0589 J0.0077
X2.5046 Y-0.9702 Z-0.0698 I0.0589 J-0.0076
X2.3868 Y-0.9549 Z-0.0763 I-0.0589 J0.0077
X2.5046 Y-0.9702 Z-0.0828 I0.0589 J-0.0076
X2.3868 Y-0.9549 Z-0.0894 I-0.0589 J0.0077
X2.5046 Y-0.9702 Z-0.0959 I0.0589 J-0.0076
X2.3868 Y-0.9549 Z-0.1024 I-0.0589 J0.0077
X2.5046 Y-0.9702 Z-0.1089 I0.0589 J-0.0076
X2.3868 Y-0.9549 Z-0.1154 I-0.0589 J0.0077
X2.5046 Y-0.9702 Z-0.1219 I0.0589 J-0.0076
X2.3868 Y-0.9549 Z-0.1284 I-0.0589 J0.0077
X2.5046 Y-0.9702 Z-0.135 I0.0589 J-0.0076
X2.3868 Y-0.9549 Z-0.1415 I-0.0589 J0.0077
X2.5046 Y-0.9702 Z-0.148 I0.0589 J-0.0076
X2.3868 Y-0.9549 Z-0.1545 I-0.0589 J0.0077
X2.5046 Y-0.9702 Z-0.161 I0.0589 J-0.0076
X2.3868 Y-0.9549 Z-0.1675 I-0.0589 J0.0077
X2.5046 Y-0.9702 Z-0.174 I0.0589 J-0.0076
X2.3868 Y-0.9549 Z-0.1806 I-0.0589 J0.0077
X2.5046 Y-0.9702 Z-0.1871 I0.0589 J-0.0076
X2.3868 Y-0.9549 Z-0.1936 I-0.0589 J0.0077
X2.5046 Y-0.9702 Z-0.2001 I0.0589 J-0.0076
X2.3868 Y-0.9549 Z-0.2066 I-0.0589 J0.0077
X2.5046 Y-0.9702 Z-0.2131 I0.0589 J-0.0076
X2.3868 Y-0.9549 Z-0.2196 I-0.0589 J0.0077
X2.5046 Y-0.9702 Z-0.2262 I0.0589 J-0.0076
X2.3868 Y-0.9549 Z-0.2327 I-0.0589 J0.0077
X2.5046 Y-0.9702 Z-0.2392 I0.0589 J-0.0076
X2.3868 Y-0.9549 Z-0.2457 I-0.0589 J0.0077
X2.5046 Y-0.9702 Z-0.2522 I0.0589 J-0.0076
X2.3868 Y-0.9549 Z-0.2587 I-0.0589 J0.0077
X2.5046 Y-0.9702 Z-0.2652 I0.0589 J-0.0076
X2.3868 Y-0.9549 Z-0.2717 I-0.0589 J0.0077
X2.5046 Y-0.9702 Z-0.2783 I0.0589 J-0.0076
X2.3868 Y-0.9549 Z-0.2848 I-0.0589 J0.0077
X2.5046 Y-0.9702 Z-0.2913 I0.0589 J-0.0076
X2.3868 Y-0.9549 Z-0.2978 I-0.0589 J0.0077
X2.5046 Y-0.9702 Z-0.3043 I0.0589 J-0.0076
X2.3868 Y-0.9549 Z-0.3108 I-0.0589 J0.0077
X2.5046 Y-0.9702 Z-0.3173 I0.0589 J-0.0076
X2.3868 Y-0.9549 Z-0.3239 I-0.0589 J0.0077
X2.5046 Y-0.9702 Z-0.3304 I0.0589 J-0.0076
X2.3868 Y-0.9549 Z-0.3369 I-0.0589 J0.0077
X2.5046 Y-0.9702 Z-0.3434 I0.0589 J-0.0076
X2.3868 Y-0.9549 Z-0.3499 I-0.0589 J0.0077
X2.5046 Y-0.9702 Z-0.3564 I0.0589 J-0.0076
X2.3868 Y-0.9549 Z-0.3629 I-0.0589 J0.0077
X2.5046 Y-0.9702 Z-0.3695 I0.0589 J-0.0076
X2.3868 Y-0.9549 Z-0.376 I-0.0589 J0.0077
X2.5046 Y-0.9702 Z-0.3825 I0.0589 J-0.0076
X2.3868 Y-0.9549 Z-0.389 I-0.0589 J0.0077
X2.5046 Y-0.9702 Z-0.3955 I0.0589 J-0.0076
X2.3868 Y-0.9549 Z-0.402 I-0.0589 J0.0077
X2.5046 Y-0.9702 Z-0.4085 I0.0589 J-0.0076
X2.3868 Y-0.9549 Z-0.4151 I-0.0589 J0.0077
X2.5046 Y-0.9702 Z-0.4216 I0.0589 J-0.0076
X2.3868 Y-0.9549 Z-0.4281 I-0.0589 J0.0077
X2.5046 Y-0.9702 Z-0.4346 I0.0589 J-0.0076
X2.3868 Y-0.9549 Z-0.4411 I-0.0589 J0.0077
X2.5046 Y-0.9702 Z-0.4476 I0.0589 J-0.0076
X2.3868 Y-0.9549 Z-0.4541 I-0.0589 J0.0077
X2.5046 Y-0.9702 Z-0.4606 I0.0589 J-0.0076
X2.3868 Y-0.9549 Z-0.4672 I-0.0589 J0.0077
X2.5046 Y-0.9702 Z-0.4737 I0.0589 J-0.0076
X2.3868 Y-0.9549 Z-0.4802 I-0.0589 J0.0077
X2.5046 Y-0.9702 Z-0.4867 I0.0589 J-0.0076
X2.3868 Y-0.9549 Z-0.4932 I-0.0589 J0.0077
X2.4418 Y-1.0218 Z-0.4966 I0.0589 J-0.0076
X2.5051 Y-0.9625 Z-0.5 I0.0039 J0.0593
G1 Y-0.5286 F50
Y-0.5036 F12.5
G3 X2.4949 I-0.0051 J0
G1 Y-0.9381 F50
Y-0.9631 F12.5
X2.4951 Y-0.9643
X2.4957 Y-0.9654
X2.4965 Y-0.9662
X2.4977 Y-0.9671
X2.4988 Y-0.9677
X2.5 Y-0.9679
X2.5012 Y-0.9677
X2.5023 Y-0.9671
X2.5035 Y-0.9662
X2.5043 Y-0.9654
X2.5049 Y-0.9643
X2.5051 Y-0.9631
Y-0.9625 F50
G2 X2.5392 Y-0.9114 I0.0554 J0
G3 X2.5733 Y-0.8602 I-0.0214 J0.0512
G1 Y-0.4395
G3 X2.5605 Y-0.4267 I-0.0128 J0
G1 X2.4395
G3 X2.4267 Y-0.4395 I0 J-0.0128
G1 Y-0.9849
G3 X2.4404 Y-1.0102 I0.0303 J0
G2 X2.491 Y-1.0507 I-0.1904 J-0.2898
G3 X2.509 I0.009 J0.0092
G2 X2.5596 Y-1.0102 I0.241 J-0.2493
G3 X2.5733 Y-0.9849 I-0.0166 J0.0253
G1 Y-0.8602
G2 X2.6088 Y-0.807 I0.0577 J0
G3 X2.6443 Y-0.7537 I-0.0222 J0.0533
G1 Y-0.3683
G3 X2.6317 Y-0.3557 I-0.0126 J0
G1 X2.3683
G3 X2.3557 Y-0.3683 I0 J-0.0126
G1 Y-1.0304
G3 X2.3689 Y-1.0512 I0.0231 J0
G2 X2.4941 Y-1.1718 I-0.1189 J-0.2488
G3 X2.5059 I0.0059 J0.0031
G2 X2.6311 Y-1.0512 I0.2441 J-0.1282
G3 X2.6442 Y-1.0304 I-0.0099 J0.0208
G1 X2.6443 Y-0.7537
G2 X2.6798 Y-0.7004 I0.0577 J0
G3 X2.7153 Y-0.6471 I-0.0222 J0.0533
G1 Y-0.2975
G3 X2.7025 Y-0.2847 I-0.0128 J0
G1 X2.2975
G3 X2.2847 Y-0.2975 I0 J-0.0128
G1 Y-1.0845
G3 X2.2976 Y-1.1009 I0.0169 J0
G2 X2.4116 Y-1.1729 I-0.0486 J-0.2032
X2.4565 Y-1.3 I-0.1575 J-0.1271
G3 X2.5435 I0.0435 J0
G2 X2.5884 Y-1.1729 I0.2024 J0
X2.7024 Y-1.1009 I0.1626 J-0.1312
G3 X2.7153 Y-1.0845 I-0.004 J0.0164
G1 Y-0.6471
G2 X2.7508 Y-0.5938 I0.0577 J0
G3 X2.7862 Y-0.5406 I-0.0222 J0.0532
G1 X2.7863 Y-0.2265
G3 X2.7735 Y-0.2137 I-0.0128 J0
G1 X2.2265
G3 X2.2137 Y-0.2265 I0 J-0.0128
G1 Y-1.1535
G3 X2.2265 Y-1.1663 I0.0128 J0
G1 X2.2382 Y-1.1659
X2.25 Y-1.1656
G2 X2.3456 Y-1.2048 I0 J-0.1362
X2.3854 Y-1.3 I-0.0938 J-0.0952
G3 X2.6146 I0.1146 J0
G2 X2.6545 Y-1.2048 I0.1336 J0
X2.75 Y-1.1657 I0.0955 J-0.097
G1 X2.7618 Y-1.1659
X2.7735 Y-1.1663
G3 X2.7863 Y-1.1535 I0 J0.0128
G1 Y-0.5406
G2 X2.8219 Y-0.4872 I0.0578 J0
G3 X2.8575 Y-0.4338 I-0.0223 J0.0534
G1 Y-0.17
G3 X2.83 Y-0.1425 I-0.0275 J0
G1 X2.17
G3 X2.1425 Y-0.17 I0 J-0.0275
G1 Y-1.21
G3 X2.17 Y-1.2375 I0.0275 J0
G1 X2.25
G2 X2.3125 Y-1.3 I0 J-0.0625
G3 X2.6875 I0.1875 J0
G2 X2.75 Y-1.2375 I0.0625 J0
G1 X2.83
G3 X2.8575 Y-1.21 I0 J0.0275
G1 Y-0.4338
X2.8572 Y-0.4315 Z-0.4995
X2.8565 Y-0.4292 Z-0.499
X2.8555 Y-0.4274 Z-0.4977
X2.8542 Y-0.4258 Z-0.4963
X2.8522 Y-0.4241 Z-0.4923
X2.8514 Y-0.4236 Z-0.4875
Z0.18
X1.3896 Y-0.9431
Z0.0925 F10
X1.3893 Y-0.944 Z0.0878 F13.333
X1.3885 Y-0.9465 Z0.0838
X1.3876 Y-0.9503 Z0.0811
X1.3868 Y-0.9549 Z0.08
G3 X1.5046 Y-0.9702 Z0.0735 I0.0589 J-0.0076
X1.3868 Y-0.9549 Z0.067 I-0.0589 J0.0077
X1.5046 Y-0.9702 Z0.0605 I0.0589 J-0.0076
X1.3868 Y-0.9549 Z0.0539 I-0.0589 J0.0077
X1.5046 Y-0.9702 Z0.0474 I0.0589 J-0.0076
X1.3868 Y-0.9549 Z0.0409 I-0.0589 J0.0077
X1.5046 Y-0.9702 Z0.0344 I0.0589 J-0.0076
X1.3868 Y-0.9549 Z0.0279 I-0.0589 J0.0077
X1.5046 Y-0.9702 Z0.0214 I0.0589 J-0.0076
X1.3868 Y-0.9549 Z0.0149 I-0.0589 J0.0077
X1.5046 Y-0.9702 Z0.0083 I0.0589 J-0.0076
X1.3868 Y-0.9549 Z0.0018 I-0.0589 J0.0077
X1.5046 Y-0.9702 Z-0.0047 I0.0589 J-0.0076
X1.3868 Y-0.9549 Z-0.0112 I-0.0589 J0.0077
X1.5046 Y-0.9702 Z-0.0177 I0.0589 J-0.0076
X1.3868 Y-0.9549 Z-0.0242 I-0.0589 J0.0077
X1.5046 Y-0.9702 Z-0.0307 I0.0589 J-0.0076
X1.3868 Y-0.9549 Z-0.0372 I-0.0589 J0.0077
X1.5046 Y-0.9702 Z-0.0438 I0.0589 J-0.0076
X1.3868 Y-0.9549 Z-0.0503 I-0.0589 J0.0077
X1.5046 Y-0.9702 Z-0.0568 I0.0589 J-0.0076
X1.3868 Y-0.9549 Z-0.0633 I-0.0589 J0.0077
X1.5046 Y-0.9702 Z-0.0698 I0.0589 J-0.0076
X1.3868 Y-0.9549 Z-0.0763 I-0.0589 J0.0077
X1.5046 Y-0.9702 Z-0.0828 I0.0589 J-0.0076
X1.3868 Y-0.9549 Z-0.0894 I-0.0589 J0.0077
X1.5046 Y-0.9702 Z-0.0959 I0.0589 J-0.0076
X1.3868 Y-0.9549 Z-0.1024 I-0.0589 J0.0077
X1.5046 Y-0.9702 Z-0.1089 I0.0589 J-0.0076
X1.3868 Y-0.9549 Z-0.1154 I-0.0589 J0.0077
X1.5046 Y-0.9702 Z-0.1219 I0.0589 J-0.0076
X1.3868 Y-0.9549 Z-0.1284 I-0.0589 J0.0077
X1.5046 Y-0.9702 Z-0.135 I0.0589 J-0.0076
X1.3868 Y-0.9549 Z-0.1415 I-0.0589 J0.0077
X1.5046 Y-0.9702 Z-0.148 I0.0589 J-0.0076
X1.3868 Y-0.9549 Z-0.1545 I-0.0589 J0.0077
X1.5046 Y-0.9702 Z-0.161 I0.0589 J-0.0076
X1.3868 Y-0.9549 Z-0.1675 I-0.0589 J0.0077
X1.5046 Y-0.9702 Z-0.174 I0.0589 J-0.0076
X1.3868 Y-0.9549 Z-0.1806 I-0.0589 J0.0077
X1.5046 Y-0.9702 Z-0.1871 I0.0589 J-0.0076
X1.3868 Y-0.9549 Z-0.1936 I-0.0589 J0.0077
X1.5046 Y-0.9702 Z-0.2001 I0.0589 J-0.0076
X1.3868 Y-0.9549 Z-0.2066 I-0.0589 J0.0077
X1.5046 Y-0.9702 Z-0.2131 I0.0589 J-0.0076
X1.3868 Y-0.9549 Z-0.2196 I-0.0589 J0.0077
X1.5046 Y-0.9702 Z-0.2262 I0.0589 J-0.0076
X1.3868 Y-0.9549 Z-0.2327 I-0.0589 J0.0077
X1.5046 Y-0.9702 Z-0.2392 I0.0589 J-0.0076
X1.3868 Y-0.9549 Z-0.2457 I-0.0589 J0.0077
X1.5046 Y-0.9702 Z-0.2522 I0.0589 J-0.0076
X1.3868 Y-0.9549 Z-0.2587 I-0.0589 J0.0077
X1.5046 Y-0.9702 Z-0.2652 I0.0589 J-0.0076
X1.3868 Y-0.9549 Z-0.2717 I-0.0589 J0.0077
X1.5046 Y-0.9702 Z-0.2783 I0.0589 J-0.0076
X1.3868 Y-0.9549 Z-0.2848 I-0.0589 J0.0077
X1.5046 Y-0.9702 Z-0.2913 I0.0589 J-0.0076
X1.3868 Y-0.9549 Z-0.2978 I-0.0589 J0.0077
X1.5046 Y-0.9702 Z-0.3043 I0.0589 J-0.0076
X1.3868 Y-0.9549 Z-0.3108 I-0.0589 J0.0077
X1.5046 Y-0.9702 Z-0.3173 I0.0589 J-0.0076
X1.3868 Y-0.9549 Z-0.3239 I-0.0589 J0.0077
X1.5046 Y-0.9702 Z-0.3304 I0.0589 J-0.0076
X1.3868 Y-0.9549 Z-0.3369 I-0.0589 J0.0077
X1.5046 Y-0.9702 Z-0.3434 I0.0589 J-0.0076
X1.3868 Y-0.9549 Z-0.3499 I-0.0589 J0.0077
X1.5046 Y-0.9702 Z-0.3564 I0.0589 J-0.0076
X1.3868 Y-0.9549 Z-0.3629 I-0.0589 J0.0077
X1.5046 Y-0.9702 Z-0.3695 I0.0589 J-0.0076
X1.3868 Y-0.9549 Z-0.376 I-0.0589 J0.0077
X1.5046 Y-0.9702 Z-0.3825 I0.0589 J-0.0076
X1.3868 Y-0.9549 Z-0.389 I-0.0589 J0.0077
X1.5046 Y-0.9702 Z-0.3955 I0.0589 J-0.0076
X1.3868 Y-0.9549 Z-0.402 I-0.0589 J0.0077
X1.5046 Y-0.9702 Z-0.4085 I0.0589 J-0.0076
X1.3868 Y-0.9549 Z-0.4151 I-0.0589 J0.0077
X1.5046 Y-0.9702 Z-0.4216 I0.0589 J-0.0076
X1.3868 Y-0.9549 Z-0.4281 I-0.0589 J0.0077
X1.5046 Y-0.9702 Z-0.4346 I0.0589 J-0.0076
X1.3868 Y-0.9549 Z-0.4411 I-0.0589 J0.0077
X1.5046 Y-0.9702 Z-0.4476 I0.0589 J-0.0076
X1.3868 Y-0.9549 Z-0.4541 I-0.0589 J0.0077
X1.5046 Y-0.9702 Z-0.4606 I0.0589 J-0.0076
X1.3868 Y-0.9549 Z-0.4672 I-0.0589 J0.0077
X1.5046 Y-0.9702 Z-0.4737 I0.0589 J-0.0076
X1.3868 Y-0.9549 Z-0.4802 I-0.0589 J0.0077
X1.5046 Y-0.9702 Z-0.4867 I0.0589 J-0.0076
X1.3868 Y-0.9549 Z-0.4932 I-0.0589 J0.0077
X1.4418 Y-1.0218 Z-0.4966 I0.0589 J-0.0076
X1.5051 Y-0.9625 Z-0.5 I0.0039 J0.0593
G1 Y-0.5286 F50
Y-0.5036 F12.5
G3 X1.4949 I-0.0051 J0
G1 Y-0.9381 F50
Y-0.9631 F12.5
X1.4951 Y-0.9643
X1.4957 Y-0.9654
X1.4965 Y-0.9662
X1.4977 Y-0.9671
X1.4988 Y-0.9677
X1.5 Y-0.9679
X1.5012 Y-0.9677
X1.5023 Y-0.9671
X1.5035 Y-0.9662
X1.5043 Y-0.9654
X1.5049 Y-0.9643
X1.5051 Y-0.9631
Y-0.9625 F50
G2 X1.5392 Y-0.9114 I0.0554 J0
G3 X1.5733 Y-0.8602 I-0.0214 J0.0512
G1 Y-0.4395
G3 X1.5605 Y-0.4267 I-0.0128 J0
G1 X1.4395
G3 X1.4267 Y-0.4395 I0 J-0.0128
G1 Y-0.9849
G3 X1.4404 Y-1.0102 I0.0303 J0
G2 X1.491 Y-1.0507 I-0.1904 J-0.2898
G3 X1.509 I0.009 J0.0092
G2 X1.5596 Y-1.0102 I0.241 J-0.2493
G3 X1.5733 Y-0.9849 I-0.0166 J0.0253
G1 Y-0.8602
G2 X1.6088 Y-0.807 I0.0577 J0
G3 X1.6443 Y-0.7537 I-0.0222 J0.0533
G1 Y-0.3683
G3 X1.6317 Y-0.3557 I-0.0126 J0
G1 X1.3683
G3 X1.3557 Y-0.3683 I0 J-0.0126
G1 Y-1.0304
G3 X1.3689 Y-1.0512 I0.0231 J0
G2 X1.4941 Y-1.1718 I-0.1189 J-0.2488
G3 X1.5059 I0.0059 J0.0031
G2 X1.6311 Y-1.0512 I0.2441 J-0.1282
G3 X1.6442 Y-1.0304 I-0.0099 J0.0208
G1 X1.6443 Y-0.7537
G2 X1.6798 Y-0.7004 I0.0577 J0
G3 X1.7153 Y-0.6471 I-0.0222 J0.0533
G1 Y-0.2975
G3 X1.7025 Y-0.2847 I-0.0128 J0
G1 X1.2975
G3 X1.2847 Y-0.2975 I0 J-0.0128
G1 Y-1.0845
G3 X1.2976 Y-1.1009 I0.0169 J0
G2 X1.4116 Y-1.1729 I-0.0486 J-0.2032
X1.4565 Y-1.3 I-0.1575 J-0.1271
G3 X1.5435 I0.0435 J0
G2 X1.5884 Y-1.1729 I0.2024 J0
X1.7024 Y-1.1009 I0.1626 J-0.1312
G3 X1.7153 Y-1.0845 I-0.004 J0.0164
G1 Y-0.6471
G2 X1.7508 Y-0.5938 I0.0577 J0
G3 X1.7862 Y-0.5406 I-0.0222 J0.0532
G1 X1.7863 Y-0.2265
G3 X1.7735 Y-0.2137 I-0.0128 J0
G1 X1.2265
G3 X1.2137 Y-0.2265 I0 J-0.0128
G1 Y-1.1535
G3 X1.2265 Y-1.1663 I0.0128 J0
G1 X1.2382 Y-1.1659
X1.25 Y-1.1656
G2 X1.3456 Y-1.2048 I0 J-0.1362
X1.3854 Y-1.3 I-0.0938 J-0.0952
G3 X1.6146 I0.1146 J0
G2 X1.6545 Y-1.2048 I0.1336 J0
X1.75 Y-1.1657 I0.0955 J-0.097
G1 X1.7618 Y-1.1659
X1.7735 Y-1.1663
G3 X1.7863 Y-1.1535 I0 J0.0128
G1 Y-0.5406
G2 X1.8219 Y-0.4872 I0.0579 J0
G3 X1.8575 Y-0.4338 I-0.0223 J0.0534
G1 Y-0.17
G3 X1.83 Y-0.1425 I-0.0275 J0
G1 X1.17
G3 X1.1425 Y-0.17 I0 J-0.0275
G1 Y-1.21
G3 X1.17 Y-1.2375 I0.0275 J0
G1 X1.25
G2 X1.3125 Y-1.3 I0 J-0.0625
G3 X1.6875 I0.1875 J0
G2 X1.75 Y-1.2375 I0.0625 J0
G1 X1.83
G3 X1.8575 Y-1.21 I0 J0.0275
G1 Y-0.4338
X1.8572 Y-0.4315 Z-0.4995
X1.8565 Y-0.4292 Z-0.499
X1.8555 Y-0.4274 Z-0.4977
X1.8542 Y-0.4258 Z-0.4963
X1.8522 Y-0.4241 Z-0.4923
X1.8514 Y-0.4236 Z-0.4875
Z0.18
X-2.6104 Y-0.9431
Z0.0925 F10
X-2.6107 Y-0.944 Z0.0878 F13.333
X-2.6115 Y-0.9465 Z0.0838
X-2.6124 Y-0.9503 Z0.0811
X-2.6132 Y-0.9549 Z0.08
G3 X-2.4954 Y-0.9702 Z0.0735 I0.0589 J-0.0076
X-2.6132 Y-0.9549 Z0.067 I-0.0589 J0.0077
X-2.4954 Y-0.9702 Z0.0605 I0.0589 J-0.0076
X-2.6132 Y-0.9549 Z0.0539 I-0.0589 J0.0077
X-2.4954 Y-0.9702 Z0.0474 I0.0589 J-0.0076
X-2.6132 Y-0.9549 Z0.0409 I-0.0589 J0.0077
X-2.4954 Y-0.9702 Z0.0344 I0.0589 J-0.0076
X-2.6132 Y-0.9549 Z0.0279 I-0.0589 J0.0077
X-2.4954 Y-0.9702 Z0.0214 I0.0589 J-0.0076
X-2.6132 Y-0.9549 Z0.0149 I-0.0589 J0.0077
X-2.4954 Y-0.9702 Z0.0083 I0.0589 J-0.0076
X-2.6132 Y-0.9549 Z0.0018 I-0.0589 J0.0077
X-2.4954 Y-0.9702 Z-0.0047 I0.0589 J-0.0076
X-2.6132 Y-0.9549 Z-0.0112 I-0.0589 J0.0077
X-2.4954 Y-0.9702 Z-0.0177 I0.0589 J-0.0076
X-2.6132 Y-0.9549 Z-0.0242 I-0.0589 J0.0077
X-2.4954 Y-0.9702 Z-0.0307 I0.0589 J-0.0076
X-2.6132 Y-0.9549 Z-0.0372 I-0.0589 J0.0077
X-2.4954 Y-0.9702 Z-0.0438 I0.0589 J-0.0076
X-2.6132 Y-0.9549 Z-0.0503 I-0.0589 J0.0077
X-2.4954 Y-0.9702 Z-0.0568 I0.0589 J-0.0076
X-2.6132 Y-0.9549 Z-0.0633 I-0.0589 J0.0077
X-2.4954 Y-0.9702 Z-0.0698 I0.0589 J-0.0076
X-2.6132 Y-0.9549 Z-0.0763 I-0.0589 J0.0077
X-2.4954 Y-0.9702 Z-0.0828 I0.0589 J-0.0076
X-2.6132 Y-0.9549 Z-0.0894 I-0.0589 J0.0077
X-2.4954 Y-0.9702 Z-0.0959 I0.0589 J-0.0076
X-2.6132 Y-0.9549 Z-0.1024 I-0.0589 J0.0077
X-2.4954 Y-0.9702 Z-0.1089 I0.0589 J-0.0076
X-2.6132 Y-0.9549 Z-0.1154 I-0.0589 J0.0077
X-2.4954 Y-0.9702 Z-0.1219 I0.0589 J-0.0076
X-2.6132 Y-0.9549 Z-0.1284 I-0.0589 J0.0077
X-2.4954 Y-0.9702 Z-0.135 I0.0589 J-0.0076
X-2.6132 Y-0.9549 Z-0.1415 I-0.0589 J0.0077
X-2.4954 Y-0.9702 Z-0.148 I0.0589 J-0.0076
X-2.6132 Y-0.9549 Z-0.1545 I-0.0589 J0.0077
X-2.4954 Y-0.9702 Z-0.161 I0.0589 J-0.0076
X-2.6132 Y-0.9549 Z-0.1675 I-0.0589 J0.0077
X-2.4954 Y-0.9702 Z-0.174 I0.0589 J-0.0076
X-2.6132 Y-0.9549 Z-0.1806 I-0.0589 J0.0077
X-2.4954 Y-0.9702 Z-0.1871 I0.0589 J-0.0076
X-2.6132 Y-0.9549 Z-0.1936 I-0.0589 J0.0077
X-2.4954 Y-0.9702 Z-0.2001 I0.0589 J-0.0076
X-2.6132 Y-0.9549 Z-0.2066 I-0.0589 J0.0077
X-2.4954 Y-0.9702 Z-0.2131 I0.0589 J-0.0076
X-2.6132 Y-0.9549 Z-0.2196 I-0.0589 J0.0077
X-2.4954 Y-0.9702 Z-0.2262 I0.0589 J-0.0076
X-2.6132 Y-0.9549 Z-0.2327 I-0.0589 J0.0077
X-2.4954 Y-0.9702 Z-0.2392 I0.0589 J-0.0076
X-2.6132 Y-0.9549 Z-0.2457 I-0.0589 J0.0077
X-2.4954 Y-0.9702 Z-0.2522 I0.0589 J-0.0076
X-2.6132 Y-0.9549 Z-0.2587 I-0.0589 J0.0077
X-2.4954 Y-0.9702 Z-0.2652 I0.0589 J-0.0076
X-2.6132 Y-0.9549 Z-0.2717 I-0.0589 J0.0077
X-2.4954 Y-0.9702 Z-0.2783 I0.0589 J-0.0076
X-2.6132 Y-0.9549 Z-0.2848 I-0.0589 J0.0077
X-2.4954 Y-0.9702 Z-0.2913 I0.0589 J-0.0076
X-2.6132 Y-0.9549 Z-0.2978 I-0.0589 J0.0077
X-2.4954 Y-0.9702 Z-0.3043 I0.0589 J-0.0076
X-2.6132 Y-0.9549 Z-0.3108 I-0.0589 J0.0077
X-2.4954 Y-0.9702 Z-0.3173 I0.0589 J-0.0076
X-2.6132 Y-0.9549 Z-0.3239 I-0.0589 J0.0077
X-2.4954 Y-0.9702 Z-0.3304 I0.0589 J-0.0076
X-2.6132 Y-0.9549 Z-0.3369 I-0.0589 J0.0077
X-2.4954 Y-0.9702 Z-0.3434 I0.0589 J-0.0076
X-2.6132 Y-0.9549 Z-0.3499 I-0.0589 J0.0077
X-2.4954 Y-0.9702 Z-0.3564 I0.0589 J-0.0076
X-2.6132 Y-0.9549 Z-0.3629 I-0.0589 J0.0077
X-2.4954 Y-0.9702 Z-0.3695 I0.0589 J-0.0076
X-2.6132 Y-0.9549 Z-0.376 I-0.0589 J0.0077
X-2.4954 Y-0.9702 Z-0.3825 I0.0589 J-0.0076
X-2.6132 Y-0.9549 Z-0.389 I-0.0589 J0.0077
X-2.4954 Y-0.9702 Z-0.3955 I0.0589 J-0.0076
X-2.6132 Y-0.9549 Z-0.402 I-0.0589 J0.0077
X-2.4954 Y-0.9702 Z-0.4085 I0.0589 J-0.0076
X-2.6132 Y-0.9549 Z-0.4151 I-0.0589 J0.0077
X-2.4954 Y-0.9702 Z-0.4216 I0.0589 J-0.0076
X-2.6132 Y-0.9549 Z-0.4281 I-0.0589 J0.0077
X-2.4954 Y-0.9702 Z-0.4346 I0.0589 J-0.0076
X-2.6132 Y-0.9549 Z-0.4411 I-0.0589 J0.0077
X-2.4954 Y-0.9702 Z-0.4476 I0.0589 J-0.0076
X-2.6132 Y-0.9549 Z-0.4541 I-0.0589 J0.0077
X-2.4954 Y-0.9702 Z-0.4606 I0.0589 J-0.0076
X-2.6132 Y-0.9549 Z-0.4672 I-0.0589 J0.0077
X-2.4954 Y-0.9702 Z-0.4737 I0.0589 J-0.0076
X-2.6132 Y-0.9549 Z-0.4802 I-0.0589 J0.0077
X-2.4954 Y-0.9702 Z-0.4867 I0.0589 J-0.0076
X-2.6132 Y-0.9549 Z-0.4932 I-0.0589 J0.0077
X-2.5582 Y-1.0218 Z-0.4966 I0.0589 J-0.0076
X-2.4949 Y-0.9625 Z-0.5 I0.0039 J0.0593
G1 Y-0.5286 F50
Y-0.5036 F12.5
G3 X-2.5051 I-0.0051 J0
G1 Y-0.9381 F50
Y-0.9631 F12.5
X-2.5049 Y-0.9643
X-2.5043 Y-0.9654
X-2.5035 Y-0.9662
X-2.5023 Y-0.9671
X-2.5012 Y-0.9677
X-2.5 Y-0.9679
X-2.4988 Y-0.9677
X-2.4977 Y-0.9671
X-2.4965 Y-0.9662
X-2.4957 Y-0.9654
X-2.4951 Y-0.9643
X-2.4949 Y-0.9631
Y-0.9625 F50
G2 X-2.4608 Y-0.9114 I0.0554 J0
G3 X-2.4267 Y-0.8602 I-0.0214 J0.0512
G1 Y-0.4395
G3 X-2.4395 Y-0.4267 I-0.0128 J0
G1 X-2.5605
G3 X-2.5733 Y-0.4395 I0 J-0.0128
G1 Y-0.9849
G3 X-2.5596 Y-1.0102 I0.0303 J0
G2 X-2.509 Y-1.0507 I-0.1904 J-0.2898
G3 X-2.491 I0.009 J0.0092
G2 X-2.4404 Y-1.0102 I0.241 J-0.2493
G3 X-2.4267 Y-0.9849 I-0.0166 J0.0253
G1 Y-0.8602
G2 X-2.3912 Y-0.807 I0.0577 J0
G3 X-2.3557 Y-0.7537 I-0.0222 J0.0533
G1 Y-0.3683
G3 X-2.3683 Y-0.3557 I-0.0126 J0
G1 X-2.6317
G3 X-2.6443 Y-0.3683 I0 J-0.0126
G1 Y-1.0304
G3 X-2.6311 Y-1.0512 I0.0231 J0
G2 X-2.5059 Y-1.1718 I-0.1189 J-0.2488
G3 X-2.4941 I0.0059 J0.0031
G2 X-2.3689 Y-1.0512 I0.2441 J-0.1282
G3 X-2.3558 Y-1.0304 I-0.0099 J0.0208
G1 X-2.3557 Y-0.7537
G2 X-2.3202 Y-0.7004 I0.0577 J0
G3 X-2.2847 Y-0.6471 I-0.0222 J0.0533
G1 Y-0.2975
G3 X-2.2975 Y-0.2847 I-0.0128 J0
G1 X-2.7025
G3 X-2.7153 Y-0.2975 I0 J-0.0128
G1 Y-1.0845
G3 X-2.7024 Y-1.1009 I0.0169 J0
G2 X-2.5884 Y-1.1729 I-0.0486 J-0.2032
X-2.5435 Y-1.3 I-0.1575 J-0.1271
G3 X-2.4565 I0.0435 J0
G2 X-2.4116 Y-1.1729 I0.2024 J0
X-2.2976 Y-1.1009 I0.1626 J-0.1312
G3 X-2.2847 Y-1.0845 I-0.004 J0.0164
G1 Y-0.6471
G2 X-2.2492 Y-0.5938 I0.0577 J0
G3 X-2.2138 Y-0.5406 I-0.0222 J0.0532
G1 X-2.2137 Y-0.2265
G3 X-2.2265 Y-0.2137 I-0.0128 J0
G1 X-2.7735
G3 X-2.7863 Y-0.2265 I0 J-0.0128
G1 Y-1.1535
G3 X-2.7735 Y-1.1663 I0.0128 J0
G1 X-2.7618 Y-1.1659
X-2.75 Y-1.1656
G2 X-2.6544 Y-1.2048 I0 J-0.1362
X-2.6146 Y-1.3 I-0.0938 J-0.0952
G3 X-2.3854 I0.1146 J0
G2 X-2.3455 Y-1.2048 I0.1336 J0
X-2.25 Y-1.1657 I0.0955 J-0.097
G1 X-2.2382 Y-1.1659
X-2.2265 Y-1.1663
G3 X-2.2137 Y-1.1535 I0 J0.0128
G1 Y-0.5406
G2 X-2.1781 Y-0.4872 I0.0578 J0
G3 X-2.1425 Y-0.4338 I-0.0222 J0.0534
G1 Y-0.17
G3 X-2.17 Y-0.1425 I-0.0275 J0
G1 X-2.83
G3 X-2.8575 Y-0.17 I0 J-0.0275
G1 Y-1.21
G3 X-2.83 Y-1.2375 I0.0275 J0
G1 X-2.75
G2 X-2.6875 Y-1.3 I0 J-0.0625
G3 X-2.3125 I0.1875 J0
G2 X-2.25 Y-1.2375 I0.0625 J0
G1 X-2.17
G3 X-2.1425 Y-1.21 I0 J0.0275
G1 Y-0.4338
X-2.1428 Y-0.4315 Z-0.4995
X-2.1435 Y-0.4292 Z-0.499
X-2.1445 Y-0.4274 Z-0.4977
X-2.1458 Y-0.4258 Z-0.4963
X-2.1478 Y-0.4241 Z-0.4923
X-2.1486 Y-0.4236 Z-0.4875
Z0.18
X-2.6104 Y0.9819
Z0.0925 F10
X-2.6107 Y0.981 Z0.0878 F13.333
X-2.6115 Y0.9785 Z0.0838
X-2.6124 Y0.9747 Z0.0811
X-2.6132 Y0.9702 Z0.08
G3 X-2.4954 Y0.9549 Z0.0735 I0.0589 J-0.0077
X-2.6132 Y0.9702 Z0.067 I-0.0589 J0.0076
X-2.4954 Y0.9549 Z0.0605 I0.0589 J-0.0077
X-2.6132 Y0.9702 Z0.0539 I-0.0589 J0.0076
X-2.4954 Y0.9549 Z0.0474 I0.0589 J-0.0077
X-2.6132 Y0.9702 Z0.0409 I-0.0589 J0.0076
X-2.4954 Y0.9549 Z0.0344 I0.0589 J-0.0077
X-2.6132 Y0.9702 Z0.0279 I-0.0589 J0.0076
X-2.4954 Y0.9549 Z0.0214 I0.0589 J-0.0077
X-2.6132 Y0.9702 Z0.0149 I-0.0589 J0.0076
X-2.4954 Y0.9549 Z0.0083 I0.0589 J-0.0077
X-2.6132 Y0.9702 Z0.0018 I-0.0589 J0.0076
X-2.4954 Y0.9549 Z-0.0047 I0.0589 J-0.0077
X-2.6132 Y0.9702 Z-0.0112 I-0.0589 J0.0076
X-2.4954 Y0.9549 Z-0.0177 I0.0589 J-0.0077
X-2.6132 Y0.9702 Z-0.0242 I-0.0589 J0.0076
X-2.4954 Y0.9549 Z-0.0307 I0.0589 J-0.0077
X-2.6132 Y0.9702 Z-0.0372 I-0.0589 J0.0076
X-2.4954 Y0.9549 Z-0.0438 I0.0589 J-0.0077
X-2.6132 Y0.9702 Z-0.0503 I-0.0589 J0.0076
X-2.4954 Y0.9549 Z-0.0568 I0.0589 J-0.0077
X-2.6132 Y0.9702 Z-0.0633 I-0.0589 J0.0076
X-2.4954 Y0.9549 Z-0.0698 I0.0589 J-0.0077
X-2.6132 Y0.9702 Z-0.0763 I-0.0589 J0.0076
X-2.4954 Y0.9549 Z-0.0828 I0.0589 J-0.0077
X-2.6132 Y0.9702 Z-0.0894 I-0.0589 J0.0076
X-2.4954 Y0.9549 Z-0.0959 I0.0589 J-0.0077
X-2.6132 Y0.9702 Z-0.1024 I-0.0589 J0.0076
X-2.4954 Y0.9549 Z-0.1089 I0.0589 J-0.0077
X-2.6132 Y0.9702 Z-0.1154 I-0.0589 J0.0076
X-2.4954 Y0.9549 Z-0.1219 I0.0589 J-0.0077
X-2.6132 Y0.9702 Z-0.1284 I-0.0589 J0.0076
X-2.4954 Y0.9549 Z-0.135 I0.0589 J-0.0077
X-2.6132 Y0.9702 Z-0.1415 I-0.0589 J0.0076
X-2.4954 Y0.9549 Z-0.148 I0.0589 J-0.0077
X-2.6132 Y0.9702 Z-0.1545 I-0.0589 J0.0076
X-2.4954 Y0.9549 Z-0.161 I0.0589 J-0.0077
X-2.6132 Y0.9702 Z-0.1675 I-0.0589 J0.0076
X-2.4954 Y0.9549 Z-0.174 I0.0589 J-0.0077
X-2.6132 Y0.9702 Z-0.1806 I-0.0589 J0.0076
X-2.4954 Y0.9549 Z-0.1871 I0.0589 J-0.0077
X-2.6132 Y0.9702 Z-0.1936 I-0.0589 J0.0076
X-2.4954 Y0.9549 Z-0.2001 I0.0589 J-0.0077
X-2.6132 Y0.9702 Z-0.2066 I-0.0589 J0.0076
X-2.4954 Y0.9549 Z-0.2131 I0.0589 J-0.0077
X-2.6132 Y0.9702 Z-0.2196 I-0.0589 J0.0076
X-2.4954 Y0.9549 Z-0.2262 I0.0589 J-0.0077
X-2.6132 Y0.9702 Z-0.2327 I-0.0589 J0.0076
X-2.4954 Y0.9549 Z-0.2392 I0.0589 J-0.0077
X-2.6132 Y0.9702 Z-0.2457 I-0.0589 J0.0076
X-2.4954 Y0.9549 Z-0.2522 I0.0589 J-0.0077
X-2.6132 Y0.9702 Z-0.2587 I-0.0589 J0.0076
X-2.4954 Y0.9549 Z-0.2652 I0.0589 J-0.0077
X-2.6132 Y0.9702 Z-0.2717 I-0.0589 J0.0076
X-2.4954 Y0.9549 Z-0.2783 I0.0589 J-0.0077
X-2.6132 Y0.9702 Z-0.2848 I-0.0589 J0.0076
X-2.4954 Y0.9549 Z-0.2913 I0.0589 J-0.0077
X-2.6132 Y0.9702 Z-0.2978 I-0.0589 J0.0076
X-2.4954 Y0.9549 Z-0.3043 I0.0589 J-0.0077
X-2.6132 Y0.9702 Z-0.3108 I-0.0589 J0.0076
X-2.4954 Y0.9549 Z-0.3173 I0.0589 J-0.0077
X-2.6132 Y0.9702 Z-0.3239 I-0.0589 J0.0076
X-2.4954 Y0.9549 Z-0.3304 I0.0589 J-0.0077
X-2.6132 Y0.9702 Z-0.3369 I-0.0589 J0.0076
X-2.4954 Y0.9549 Z-0.3434 I0.0589 J-0.0077
X-2.6132 Y0.9702 Z-0.3499 I-0.0589 J0.0076
X-2.4954 Y0.9549 Z-0.3564 I0.0589 J-0.0077
X-2.6132 Y0.9702 Z-0.3629 I-0.0589 J0.0076
X-2.4954 Y0.9549 Z-0.3695 I0.0589 J-0.0077
X-2.6132 Y0.9702 Z-0.376 I-0.0589 J0.0076
X-2.4954 Y0.9549 Z-0.3825 I0.0589 J-0.0077
X-2.6132 Y0.9702 Z-0.389 I-0.0589 J0.0076
X-2.4954 Y0.9549 Z-0.3955 I0.0589 J-0.0077
X-2.6132 Y0.9702 Z-0.402 I-0.0589 J0.0076
X-2.4954 Y0.9549 Z-0.4085 I0.0589 J-0.0077
X-2.6132 Y0.9702 Z-0.4151 I-0.0589 J0.0076
X-2.4954 Y0.9549 Z-0.4216 I0.0589 J-0.0077
X-2.6132 Y0.9702 Z-0.4281 I-0.0589 J0.0076
X-2.4954 Y0.9549 Z-0.4346 I0.0589 J-0.0077
X-2.6132 Y0.9702 Z-0.4411 I-0.0589 J0.0076
X-2.4954 Y0.9549 Z-0.4476 I0.0589 J-0.0077
X-2.6132 Y0.9702 Z-0.4541 I-0.0589 J0.0076
X-2.4954 Y0.9549 Z-0.4606 I0.0589 J-0.0077
X-2.6132 Y0.9702 Z-0.4672 I-0.0589 J0.0076
X-2.4954 Y0.9549 Z-0.4737 I0.0589 J-0.0077
X-2.6132 Y0.9702 Z-0.4802 I-0.0589 J0.0076
X-2.4954 Y0.9549 Z-0.4867 I0.0589 J-0.0077
X-2.6132 Y0.9702 Z-0.4932 I-0.0589 J0.0076
X-2.5582 Y0.9032 Z-0.4966 I0.0589 J-0.0077
X-2.4949 Y0.9625 Z-0.5 I0.0039 J0.0593
G1 Y0.9631 F12.5
X-2.4951 Y0.9643
X-2.4957 Y0.9654
X-2.4965 Y0.9662
X-2.4977 Y0.9671
X-2.4988 Y0.9677
X-2.5 Y0.9679
X-2.5012 Y0.9677
X-2.5023 Y0.9671
X-2.5035 Y0.9662
X-2.5043 Y0.9654
X-2.5049 Y0.9643
X-2.5051 Y0.9631
Y0.5286 F50
Y0.5036 F12.5
G3 X-2.4949 I0.0051 J0
G1 Y0.9625 F50
G2 X-2.4791 Y0.9999 I0.0521 J0
G3 X-2.48 Y1.0406 I-0.0193 J0.0199
G1 X-2.491 Y1.0507
G3 X-2.509 I-0.009 J-0.0092
G2 X-2.5596 Y1.0102 I-0.241 J0.2493
G3 X-2.5733 Y0.9849 I0.0166 J-0.0253
G1 Y0.4395
G3 X-2.5605 Y0.4267 I0.0128 J0
G1 X-2.4395
G3 X-2.4267 Y0.4395 I0 J0.0128
G1 Y0.9849
G3 X-2.4404 Y1.0102 I-0.0303 J0
G2 X-2.48 Y1.0405 I0.1904 J0.2898
X-2.4942 Y1.0929 I0.0328 J0.037
G3 X-2.5414 Y1.1196 I-0.0263 J0.0086
G2 X-2.6311 Y1.0512 I-0.2086 J0.1804
G3 X-2.6442 Y1.0304 I0.0099 J-0.0208
G1 X-2.6443 Y0.3683
G3 X-2.6317 Y0.3557 I0.0126 J0
G1 X-2.3683
G3 X-2.3557 Y0.3683 I0 J0.0126
G1 Y1.0304
G3 X-2.3689 Y1.0512 I-0.0231 J0
G2 X-2.4941 Y1.1718 I0.1189 J0.2488
G3 X-2.5059 I-0.0059 J-0.0031
G2 X-2.5415 Y1.1196 I-0.2441 J0.1282
X-2.6104 Y1.1044 I-0.0447 J0.0387
G3 X-2.681 Y1.1073 I-0.0389 J-0.0864
G2 X-2.7024 Y1.101 I-0.07 J0.1968
G3 X-2.7154 Y1.0845 I0.004 J-0.0165
G1 X-2.7153 Y0.2975
G3 X-2.7025 Y0.2847 I0.0128 J0
G1 X-2.2975
G3 X-2.2847 Y0.2975 I0 J0.0128
G1 Y1.0845
G3 X-2.2976 Y1.1009 I-0.0169 J0
G2 X-2.4116 Y1.1729 I0.0486 J0.2032
X-2.4565 Y1.3 I0.1575 J0.1271
G3 X-2.5435 I-0.0435 J0
G2 X-2.5884 Y1.1729 I-0.2024 J0
X-2.681 Y1.1072 I-0.1626 J0.1312
X-2.7315 Y1.1307 I-0.0133 J0.0375
G3 X-2.7863 Y1.1207 I-0.0265 J-0.01
G1 Y0.2265
G3 X-2.7735 Y0.2137 I0.0128 J0
G1 X-2.2265
G3 X-2.2137 Y0.2265 I0 J0.0128
G1 Y1.1535
G3 X-2.2265 Y1.1663 I-0.0128 J0
G1 X-2.2382 Y1.1659
X-2.25 Y1.1656
G2 X-2.3456 Y1.2048 I0 J0.1362
X-2.3854 Y1.3 I0.0938 J0.0952
G3 X-2.6146 I-0.1146 J0
G2 X-2.6545 Y1.2048 I-0.1336 J0
X-2.75 Y1.1657 I-0.0955 J0.097
G1 X-2.7618 Y1.1659
X-2.7735 Y1.1663
G3 X-2.7863 Y1.1535 I0 J-0.0128
G1 Y1.1207
G2 X-2.8219 Y1.0673 I-0.0578 J0
G3 X-2.8575 Y1.0139 I0.0223 J-0.0534
G1 Y0.17
G3 X-2.83 Y0.1425 I0.0275 J0
G1 X-2.17
G3 X-2.1425 Y0.17 I0 J0.0275
G1 Y1.21
G3 X-2.17 Y1.2375 I-0.0275 J0
G1 X-2.25
G2 X-2.3125 Y1.3 I0 J0.0625
G3 X-2.6875 I-0.1875 J0
G2 X-2.75 Y1.2375 I-0.0625 J0
G1 X-2.83
G3 X-2.8575 Y1.21 I0 J-0.0275
G1 Y1.0139
X-2.8572 Y1.0115 Z-0.4995
X-2.8565 Y1.0093 Z-0.499
X-2.8555 Y1.0075 Z-0.4977
X-2.8542 Y1.0059 Z-0.4963
X-2.8522 Y1.0041 Z-0.4923
X-2.8514 Y1.0036 Z-0.4875
Z0.58
G28 G91 Z0
G90
G28 G91 X0 Y0
G90
M30
%
