%
(003 - Magnets Finish Pass Lip)
(T5 D=0.0625 CR=0 - ZMIN=-0.195 - flat end mill)
G90
G17
G20
(When using Fusion for Personal Use, the feedrate of rapid)
(moves is reduced to match the feedrate of cutting moves,)
(which can increase machining time. Unrestricted rapid moves)
(are available with a Fusion Subscription.)
G28 G91 Z0
G90

(Magnet Holes)
T5 M6
S13000 M3
G17 G90
G54
G0 X3.389 Y-2.2747
Z0.58
G1 Z0.18 F60
Z0.0862 F7.5
X3.3898 Z0.0832 F13.333
X3.392 Y-2.2745 Z0.0809
X3.395 Y-2.2741 Z0.08
G3 X3.3831 Y-2.2159 Z0.0767 I-0.0059 J0.0291
X3.395 Y-2.2741 Z0.0735 I0.006 J-0.0291
X3.3831 Y-2.2159 Z0.0702 I-0.0059 J0.0291
X3.395 Y-2.2741 Z0.067 I0.006 J-0.0291
X3.3831 Y-2.2159 Z0.0637 I-0.0059 J0.0291
X3.395 Y-2.2741 Z0.0605 I0.006 J-0.0291
X3.3831 Y-2.2159 Z0.0572 I-0.0059 J0.0291
X3.395 Y-2.2741 Z0.0539 I0.006 J-0.0291
X3.3831 Y-2.2159 Z0.0507 I-0.0059 J0.0291
X3.395 Y-2.2741 Z0.0474 I0.006 J-0.0291
X3.3831 Y-2.2159 Z0.0442 I-0.0059 J0.0291
X3.395 Y-2.2741 Z0.0409 I0.006 J-0.0291
X3.3831 Y-2.2159 Z0.0377 I-0.0059 J0.0291
X3.395 Y-2.2741 Z0.0344 I0.006 J-0.0291
X3.3831 Y-2.2159 Z0.0311 I-0.0059 J0.0291
X3.395 Y-2.2741 Z0.0279 I0.006 J-0.0291
X3.3831 Y-2.2159 Z0.0246 I-0.0059 J0.0291
X3.395 Y-2.2741 Z0.0214 I0.006 J-0.0291
X3.3831 Y-2.2159 Z0.0181 I-0.0059 J0.0291
X3.395 Y-2.2741 Z0.0149 I0.006 J-0.0291
X3.3831 Y-2.2159 Z0.0116 I-0.0059 J0.0291
X3.395 Y-2.2741 Z0.0083 I0.006 J-0.0291
X3.3831 Y-2.2159 Z0.0051 I-0.0059 J0.0291
X3.395 Y-2.2741 Z0.0018 I0.006 J-0.0291
X3.3831 Y-2.2159 Z-0.0014 I-0.0059 J0.0291
X3.395 Y-2.2741 Z-0.0047 I0.006 J-0.0291
X3.3831 Y-2.2159 Z-0.0079 I-0.0059 J0.0291
X3.395 Y-2.2741 Z-0.0112 I0.006 J-0.0291
X3.3831 Y-2.2159 Z-0.0145 I-0.0059 J0.0291
X3.395 Y-2.2741 Z-0.0177 I0.006 J-0.0291
X3.3831 Y-2.2159 Z-0.021 I-0.0059 J0.0291
X3.395 Y-2.2741 Z-0.0242 I0.006 J-0.0291
X3.3831 Y-2.2159 Z-0.0275 I-0.0059 J0.0291
X3.395 Y-2.2741 Z-0.0307 I0.006 J-0.0291
X3.3831 Y-2.2159 Z-0.034 I-0.0059 J0.0291
X3.395 Y-2.2741 Z-0.0372 I0.006 J-0.0291
X3.3831 Y-2.2159 Z-0.0405 I-0.0059 J0.0291
X3.395 Y-2.2741 Z-0.0438 I0.006 J-0.0291
X3.3831 Y-2.2159 Z-0.047 I-0.0059 J0.0291
X3.395 Y-2.2741 Z-0.0503 I0.006 J-0.0291
X3.3831 Y-2.2159 Z-0.0535 I-0.0059 J0.0291
X3.395 Y-2.2741 Z-0.0568 I0.006 J-0.0291
X3.3831 Y-2.2159 Z-0.06 I-0.0059 J0.0291
X3.395 Y-2.2741 Z-0.0633 I0.006 J-0.0291
X3.3831 Y-2.2159 Z-0.0666 I-0.0059 J0.0291
X3.395 Y-2.2741 Z-0.0698 I0.006 J-0.0291
X3.3831 Y-2.2159 Z-0.0731 I-0.0059 J0.0291
X3.395 Y-2.2741 Z-0.0763 I0.006 J-0.0291
X3.3831 Y-2.2159 Z-0.0796 I-0.0059 J0.0291
X3.395 Y-2.2741 Z-0.0828 I0.006 J-0.0291
X3.3831 Y-2.2159 Z-0.0861 I-0.0059 J0.0291
X3.395 Y-2.2741 Z-0.0894 I0.006 J-0.0291
X3.3831 Y-2.2159 Z-0.0926 I-0.0059 J0.0291
X3.395 Y-2.2741 Z-0.0959 I0.006 J-0.0291
X3.3831 Y-2.2159 Z-0.0991 I-0.0059 J0.0291
X3.395 Y-2.2741 Z-0.1024 I0.006 J-0.0291
X3.3831 Y-2.2159 Z-0.1056 I-0.0059 J0.0291
X3.395 Y-2.2741 Z-0.1089 I0.006 J-0.0291
X3.3831 Y-2.2159 Z-0.1122 I-0.0059 J0.0291
X3.395 Y-2.2741 Z-0.1154 I0.006 J-0.0291
X3.3831 Y-2.2159 Z-0.1187 I-0.0059 J0.0291
X3.395 Y-2.2741 Z-0.1219 I0.006 J-0.0291
X3.3831 Y-2.2159 Z-0.1252 I-0.0059 J0.0291
X3.395 Y-2.2741 Z-0.1284 I0.006 J-0.0291
X3.3831 Y-2.2159 Z-0.1317 I-0.0059 J0.0291
X3.395 Y-2.2741 Z-0.135 I0.006 J-0.0291
X3.3831 Y-2.2159 Z-0.1382 I-0.0059 J0.0291
X3.395 Y-2.2741 Z-0.1415 I0.006 J-0.0291
X3.3831 Y-2.2159 Z-0.1447 I-0.0059 J0.0291
X3.395 Y-2.2741 Z-0.148 I0.006 J-0.0291
X3.3831 Y-2.2159 Z-0.1512 I-0.0059 J0.0291
X3.395 Y-2.2741 Z-0.1545 I0.006 J-0.0291
X3.3831 Y-2.2159 Z-0.1578 I-0.0059 J0.0291
X3.395 Y-2.2741 Z-0.161 I0.006 J-0.0291
X3.3831 Y-2.2159 Z-0.1643 I-0.0059 J0.0291
X3.395 Y-2.2741 Z-0.1675 I0.006 J-0.0291
X3.3831 Y-2.2159 Z-0.1708 I-0.0059 J0.0291
X3.395 Y-2.2741 Z-0.174 I0.006 J-0.0291
X3.3831 Y-2.2159 Z-0.1773 I-0.0059 J0.0291
X3.395 Y-2.2741 Z-0.1806 I0.006 J-0.0291
X3.3831 Y-2.2159 Z-0.1838 I-0.0059 J0.0291
X3.395 Y-2.2741 Z-0.1871 I0.006 J-0.0291
X3.3831 Y-2.2159 Z-0.1903 I-0.0059 J0.0291
X3.395 Y-2.2741 Z-0.1936 I0.006 J-0.0291
X3.4188 Y-2.245 Z-0.195 I-0.0059 J0.0291
X3.3962 I-0.0113 J0 F60
X3.4562 I0.03 J0
X3.3588 I-0.0487 J0
X3.4936 I0.0674 J0
X3.3214 I-0.0861 J0
X3.4936 I0.0861 J0
G1 X3.4935 Y-2.2435 Z-0.1946
X3.4929 Y-2.242 Z-0.1942
X3.4922 Y-2.2411 Z-0.193
X3.4914 Y-2.2403 Z-0.1919
X3.4907 Y-2.2399 Z-0.1888
Z0.18
X-3.426 Y-2.2747
Z0.0862 F7.5
X-3.4252 Z0.0832 F13.333
X-3.423 Y-2.2745 Z0.0809
X-3.42 Y-2.2741 Z0.08
G3 X-3.4319 Y-2.2159 Z0.0767 I-0.0059 J0.0291
X-3.42 Y-2.2741 Z0.0735 I0.006 J-0.0291
X-3.4319 Y-2.2159 Z0.0702 I-0.0059 J0.0291
X-3.42 Y-2.2741 Z0.067 I0.006 J-0.0291
X-3.4319 Y-2.2159 Z0.0637 I-0.0059 J0.0291
X-3.42 Y-2.2741 Z0.0605 I0.006 J-0.0291
X-3.4319 Y-2.2159 Z0.0572 I-0.0059 J0.0291
X-3.42 Y-2.2741 Z0.0539 I0.006 J-0.0291
X-3.4319 Y-2.2159 Z0.0507 I-0.0059 J0.0291
X-3.42 Y-2.2741 Z0.0474 I0.006 J-0.0291
X-3.4319 Y-2.2159 Z0.0442 I-0.0059 J0.0291
X-3.42 Y-2.2741 Z0.0409 I0.006 J-0.0291
X-3.4319 Y-2.2159 Z0.0377 I-0.0059 J0.0291
X-3.42 Y-2.2741 Z0.0344 I0.006 J-0.0291
X-3.4319 Y-2.2159 Z0.0311 I-0.0059 J0.0291
X-3.42 Y-2.2741 Z0.0279 I0.006 J-0.0291
X-3.4319 Y-2.2159 Z0.0246 I-0.0059 J0.0291
X-3.42 Y-2.2741 Z0.0214 I0.006 J-0.0291
X-3.4319 Y-2.2159 Z0.0181 I-0.0059 J0.0291
X-3.42 Y-2.2741 Z0.0149 I0.006 J-0.0291
X-3.4319 Y-2.2159 Z0.0116 I-0.0059 J0.0291
X-3.42 Y-2.2741 Z0.0083 I0.006 J-0.0291
X-3.4319 Y-2.2159 Z0.0051 I-0.0059 J0.0291
X-3.42 Y-2.2741 Z0.0018 I0.006 J-0.0291
X-3.4319 Y-2.2159 Z-0.0014 I-0.0059 J0.0291
X-3.42 Y-2.2741 Z-0.0047 I0.006 J-0.0291
X-3.4319 Y-2.2159 Z-0.0079 I-0.0059 J0.0291
X-3.42 Y-2.2741 Z-0.0112 I0.006 J-0.0291
X-3.4319 Y-2.2159 Z-0.0145 I-0.0059 J0.0291
X-3.42 Y-2.2741 Z-0.0177 I0.006 J-0.0291
X-3.4319 Y-2.2159 Z-0.021 I-0.0059 J0.0291
X-3.42 Y-2.2741 Z-0.0242 I0.006 J-0.0291
X-3.4319 Y-2.2159 Z-0.0275 I-0.0059 J0.0291
X-3.42 Y-2.2741 Z-0.0307 I0.006 J-0.0291
X-3.4319 Y-2.2159 Z-0.034 I-0.0059 J0.0291
X-3.42 Y-2.2741 Z-0.0372 I0.006 J-0.0291
X-3.4319 Y-2.2159 Z-0.0405 I-0.0059 J0.0291
X-3.42 Y-2.2741 Z-0.0438 I0.006 J-0.0291
X-3.4319 Y-2.2159 Z-0.047 I-0.0059 J0.0291
X-3.42 Y-2.2741 Z-0.0503 I0.006 J-0.0291
X-3.4319 Y-2.2159 Z-0.0535 I-0.0059 J0.0291
X-3.42 Y-2.2741 Z-0.0568 I0.006 J-0.0291
X-3.4319 Y-2.2159 Z-0.06 I-0.0059 J0.0291
X-3.42 Y-2.2741 Z-0.0633 I0.006 J-0.0291
X-3.4319 Y-2.2159 Z-0.0666 I-0.0059 J0.0291
X-3.42 Y-2.2741 Z-0.0698 I0.006 J-0.0291
X-3.4319 Y-2.2159 Z-0.0731 I-0.0059 J0.0291
X-3.42 Y-2.2741 Z-0.0763 I0.006 J-0.0291
X-3.4319 Y-2.2159 Z-0.0796 I-0.0059 J0.0291
X-3.42 Y-2.2741 Z-0.0828 I0.006 J-0.0291
X-3.4319 Y-2.2159 Z-0.0861 I-0.0059 J0.0291
X-3.42 Y-2.2741 Z-0.0894 I0.006 J-0.0291
X-3.4319 Y-2.2159 Z-0.0926 I-0.0059 J0.0291
X-3.42 Y-2.2741 Z-0.0959 I0.006 J-0.0291
X-3.4319 Y-2.2159 Z-0.0991 I-0.0059 J0.0291
X-3.42 Y-2.2741 Z-0.1024 I0.006 J-0.0291
X-3.4319 Y-2.2159 Z-0.1056 I-0.0059 J0.0291
X-3.42 Y-2.2741 Z-0.1089 I0.006 J-0.0291
X-3.4319 Y-2.2159 Z-0.1122 I-0.0059 J0.0291
X-3.42 Y-2.2741 Z-0.1154 I0.006 J-0.0291
X-3.4319 Y-2.2159 Z-0.1187 I-0.0059 J0.0291
X-3.42 Y-2.2741 Z-0.1219 I0.006 J-0.0291
X-3.4319 Y-2.2159 Z-0.1252 I-0.0059 J0.0291
X-3.42 Y-2.2741 Z-0.1284 I0.006 J-0.0291
X-3.4319 Y-2.2159 Z-0.1317 I-0.0059 J0.0291
X-3.42 Y-2.2741 Z-0.135 I0.006 J-0.0291
X-3.4319 Y-2.2159 Z-0.1382 I-0.0059 J0.0291
X-3.42 Y-2.2741 Z-0.1415 I0.006 J-0.0291
X-3.4319 Y-2.2159 Z-0.1447 I-0.0059 J0.0291
X-3.42 Y-2.2741 Z-0.148 I0.006 J-0.0291
X-3.4319 Y-2.2159 Z-0.1512 I-0.0059 J0.0291
X-3.42 Y-2.2741 Z-0.1545 I0.006 J-0.0291
X-3.4319 Y-2.2159 Z-0.1578 I-0.0059 J0.0291
X-3.42 Y-2.2741 Z-0.161 I0.006 J-0.0291
X-3.4319 Y-2.2159 Z-0.1643 I-0.0059 J0.0291
X-3.42 Y-2.2741 Z-0.1675 I0.006 J-0.0291
X-3.4319 Y-2.2159 Z-0.1708 I-0.0059 J0.0291
X-3.42 Y-2.2741 Z-0.174 I0.006 J-0.0291
X-3.4319 Y-2.2159 Z-0.1773 I-0.0059 J0.0291
X-3.42 Y-2.2741 Z-0.1806 I0.006 J-0.0291
X-3.4319 Y-2.2159 Z-0.1838 I-0.0059 J0.0291
X-3.42 Y-2.2741 Z-0.1871 I0.006 J-0.0291
X-3.4319 Y-2.2159 Z-0.1903 I-0.0059 J0.0291
X-3.42 Y-2.2741 Z-0.1936 I0.006 J-0.0291
X-3.3962 Y-2.245 Z-0.195 I-0.0059 J0.0291
X-3.4188 I-0.0113 J0 F60
X-3.3586 I0.0301 J0
X-3.4564 I-0.0489 J0
X-3.321 I0.0677 J0
X-3.494 I-0.0865 J0
X-3.321 I0.0865 J0
G1 X-3.3215 Y-2.2435 Z-0.1946
X-3.3221 Y-2.242 Z-0.1942
X-3.3228 Y-2.2411 Z-0.193
X-3.3236 Y-2.2403 Z-0.1919
X-3.3243 Y-2.2399 Z-0.1888
Z0.58
(When using Fusion for Personal Use, the feedrate of rapid)
(moves is reduced to match the feedrate of cutting moves,)
(which can increase machining time. Unrestricted rapid moves)
(are available with a Fusion Subscription.)

(Finish Pass Lip)
G0 X3.9782 Y-2.4774
G1 Z0.4 F60
Z0
Z-0.0738 F7.5
X3.9779 Z-0.0757 F60
X3.977 Z-0.0774
X3.9757 Z-0.0788
X3.9739 Z-0.0797
X3.972 Z-0.08
X-3.972
X-4.165
G2 Y-2.4618 I0 J0.0078
G1 X4.165
X4.1657 Z-0.0799
X4.1664 Z-0.0797
X4.167 Z-0.0794
X4.1677
X4.2493
G3 Y-2.4462 I0 J0.0078
G1 X4.2486
X4.2479 Z-0.0797
X4.2472 Z-0.0799
X4.2465 Z-0.08
X-4.2465
X-4.2472 Z-0.0799
X-4.2479 Z-0.0797
X-4.2486 Z-0.0794
X-4.2493
X-4.3113
G2 Y-2.4304 I0 J0.0079
G1 X-4.3106 Y-2.4305
X-4.31 Z-0.0797
X-4.3093 Z-0.0799
X-4.3086 Z-0.08
X4.3086
X4.3093 Z-0.0799
X4.31 Z-0.0797
X4.3106 Z-0.0794
X4.3113
X4.3632
G3 Y-2.4149 I0 J0.0078
G1 X4.3625
X4.3618 Z-0.0797
X4.3611 Z-0.0799
X4.3604 Z-0.08
X-4.3604
X-4.3611 Z-0.0799
X-4.3618 Z-0.0797
X-4.3625 Z-0.0794
X-4.3632
X-4.408
G2 Y-2.3993 I0 J0.0078
G1 X-4.4072
X-4.4066 Z-0.0797
X-4.4059 Z-0.0799
X-4.4052 Z-0.08
X4.4052
X4.4059 Z-0.0799
X4.4066 Z-0.0797
X4.4072 Z-0.0794
X4.408
X4.4482
G3 Y-2.3837 I0 J0.0078
G1 X4.4475 Y-2.3836
X4.4469 Z-0.0797
X4.4462 Z-0.0799
X4.4455 Z-0.08
X-4.4455
X-4.4462 Z-0.0799
X-4.4469 Z-0.0797
X-4.4475 Z-0.0794
X-4.4482
X-4.485
G2 Y-2.368 I0 J0.0078
G1 X-4.4843
X-4.4836 Z-0.0797
X-4.483 Z-0.0799
X-4.4823 Z-0.08
X4.4823
X4.483 Z-0.0799
X4.4836 Z-0.0797
X4.4843 Z-0.0794
X4.485
X4.5186
G3 Y-2.3524 I0 J0.0078
G1 X4.5178
X4.5172 Z-0.0797
X4.5165 Z-0.0799
X4.5158 Z-0.08
X3.455
X3.4543 Z-0.0799
X3.4537 Z-0.0797
X3.453 Z-0.0794
X3.4523
G2 Y-2.3368 I0 J0.0078
G1 X3.4779
X3.4786
X3.4793 Z-0.0797
X3.4799 Z-0.0799
X3.4806 Z-0.08
X4.547
X4.5477 Z-0.0799
X4.5484 Z-0.0797
X4.549 Z-0.0794
X4.5498
X4.5791
G3 Y-2.321 I0 J0.0079
G1 X4.5784 Y-2.3211
X4.5777 Z-0.0797
X4.5771 Z-0.0799
X4.5764 Z-0.08
X3.4969
X3.4962 Z-0.0799
X3.4956 Z-0.0797
X3.4949 Z-0.0794
X3.4942
G2 Y-2.3055 I0 J0.0078
G1 X3.5053
X3.506
X3.5066 Z-0.0797
X3.5073 Z-0.0799
X3.508 Z-0.08
X4.6042
X4.6049 Z-0.0799
X4.6056 Z-0.0797
X4.6062 Z-0.0794
X4.607
X4.633
G3 Y-2.2899 I0 J0.0078
G1 X4.6322
X4.6316 Z-0.0797
X4.6309 Z-0.0799
X4.6302 Z-0.08
X3.5159
X3.5152 Z-0.0799
X3.5145 Z-0.0797
X3.5138 Z-0.0794
X3.5131
G2 Y-2.2743 I0 J0.0078
G1 X3.5184 Y-2.2742
X3.5191
X3.5198 Z-0.0797
X3.5205 Z-0.0799
X3.5212 Z-0.08
X4.6548
X4.6555 Z-0.0799
X4.6562 Z-0.0797
X4.6569 Z-0.0794
X4.6576
X4.6814
G3 Y-2.2586 I0 J0.0078
G1 X4.6807
X4.68 Z-0.0797
X4.6793 Z-0.0799
X4.6786 Z-0.08
X3.5242
X3.5235 Z-0.0799
X3.5228 Z-0.0797
X3.5222 Z-0.0794
X3.5215
G2 Y-2.243 I0 J0.0078
G1 X3.5221
X3.5228
X3.5235 Z-0.0797
X3.5242 Z-0.0799
X3.5249 Z-0.08
X4.701
X4.7017 Z-0.0799
X4.7023 Z-0.0797
X4.703 Z-0.0794
X4.7037
X4.7252
G3 Y-2.2274 I0 J0.0078
G1 X4.7245
X4.7238 Z-0.0797
X4.7231 Z-0.0799
X4.7224 Z-0.08
X3.5235
X3.5228 Z-0.0799
X3.5221 Z-0.0797
X3.5215 Z-0.0794
X3.5207
X3.5172
G2 Y-2.2116 I0 J0.0079
G1 X3.5179 Y-2.2117
X3.5186 Z-0.0797
X3.5193 Z-0.0799
X3.52 Z-0.08
X3.7654
Z-0.0798
X3.7655 Z-0.045
X3.7668 Z-0.0445
X3.7762 Z-0.0415
X3.784 Z-0.0402
X3.9632 Z-0.04
X4.0067 Z-0.0408
X4.0458 Z-0.0431
X4.0658 Z-0.045
X4.0659 Z-0.08
X4.7431
X4.7438 Z-0.0799
X4.7445 Z-0.0797
X4.7452 Z-0.0794
X4.7459
X4.7654
G3 Y-2.1961 I0 J0.0078
G1 X4.7647
X4.764 Z-0.0797
X4.7634 Z-0.0799
X4.7627 Z-0.08
X4.17
Z-0.045
X4.1259 Z-0.037
X4.0848 Z-0.0313
X4.0461 Z-0.0275
X4.0055 Z-0.0251
X3.9659 Z-0.0243
X3.7999 Z-0.0245
X3.7923 Z-0.0258
X3.7831 Z-0.0286
X3.7726 Z-0.0331
X3.7619 Z-0.0391
X3.7531 Z-0.045
X3.7529 Z-0.08
X3.5142
X3.5134 Z-0.0799
X3.5128 Z-0.0797
X3.5121 Z-0.0794
X3.5114
X3.5029
G2 Y-2.1805 I0 J0.0078
G1 X3.5036
X3.5043 Z-0.0797
X3.505 Z-0.0799
X3.5057 Z-0.08
X3.7511
X3.7513 Z-0.045
X3.755 Z-0.0413
X3.763 Z-0.0338
X3.7727 Z-0.0266
X3.7832 Z-0.0201
X4.1143 Z-0.02
X4.1228 Z-0.0211
X4.1629 Z-0.0283
X4.2038 Z-0.0372
X4.2343 Z-0.045
X4.2344 Z-0.08
X4.7819
X4.7826 Z-0.0799
X4.7833 Z-0.0797
X4.7839 Z-0.0794
X4.7846
X4.8026
G3 Y-2.1647 I0 J0.0079
G1 X4.8019 Y-2.1648
X4.8012 Z-0.0797
X4.8006 Z-0.0799
X4.7998 Z-0.08
X4.2862
X4.2861 Z-0.045
X4.2413 Z-0.0317
X4.2003 Z-0.0212
X4.1948 Z-0.02
X3.7764 Z-0.0201
X3.7688 Z-0.0275
X3.7513 Z-0.045
X3.7512 Z-0.08
X3.4931
X3.4924 Z-0.0799
X3.4918 Z-0.0797
X3.4911 Z-0.0794
X3.4904
X3.4726
G2 Y-2.1492 I0 J0.0078
G1 X3.4733
X3.4739 Z-0.0797
X3.4746 Z-0.0799
X3.4753 Z-0.08
X3.7512
X3.7513 Z-0.045
X3.7761 Z-0.0201
X4.2524 Z-0.02
X4.2779 Z-0.0276
X4.3184 Z-0.0411
X4.3292 Z-0.045
X4.3293 Z-0.08
X4.8176
X4.8183 Z-0.0799
X4.8189 Z-0.0797
X4.8196 Z-0.0794
X4.8203
X4.8371
G3 Y-2.1336 I0 J0.0078
G1 X4.8364
X4.8357 Z-0.0797
X4.835 Z-0.0799
X4.8343 Z-0.08
X4.3674
X4.3673 Z-0.045
X4.3561 Z-0.0405
X4.3146 Z-0.0251
X4.2992 Z-0.02
X3.7762 Z-0.0201
X3.7513 Z-0.045
X3.7512 Z-0.08
X3.4443
X3.4424 Z-0.0797
X3.4407 Z-0.0788
X3.4393 Z-0.0774
X3.4384 Z-0.0757
X3.4381 Z-0.0738
Z0.18
X3.3662 Y-2.3524
Z0
Z-0.0738 F7.5
X3.3659 Z-0.0757 F60
X3.365 Z-0.0774
X3.3636 Z-0.0788
X3.3619 Z-0.0797
X3.36 Z-0.08
X-3.36
X-3.3607 Z-0.0799
X-3.3613 Z-0.0797
X-3.362 Z-0.0794
X-3.3627
G2 Y-2.3368 I0 J0.0078
G1 X-3.3371
X-3.3364
X-3.3357 Z-0.0797
X-3.3351 Z-0.0799
X-3.3344 Z-0.08
X3.3344
X3.3351 Z-0.0799
X3.3357 Z-0.0797
X3.3364 Z-0.0794
X3.3371
G3 Y-2.321 I0 J0.0079
G1 X3.3208 Y-2.3211
X3.3201
X3.3194 Z-0.0797
X3.3188 Z-0.0799
X3.3181 Z-0.08
X-3.3181
X-3.3188 Z-0.0799
X-3.3194 Z-0.0797
X-3.3201 Z-0.0794
X-3.3208
G2 Y-2.3055 I0 J0.0078
G1 X-3.3097
X-3.309
X-3.3084 Z-0.0797
X-3.3077 Z-0.0799
X-3.307 Z-0.08
X3.307
X3.3077 Z-0.0799
X3.3084 Z-0.0797
X3.309 Z-0.0794
X3.3097
G3 Y-2.2899 I0 J0.0078
G1 X3.3019
X3.3012
X3.3005 Z-0.0797
X3.2998 Z-0.0799
X3.2991 Z-0.08
X-3.2991
X-3.2998 Z-0.0799
X-3.3005 Z-0.0797
X-3.3012 Z-0.0794
X-3.3019
G2 Y-2.2743 I0 J0.0078
G1 X-3.2966 Y-2.2742
X-3.2959
X-3.2952 Z-0.0797
X-3.2945 Z-0.0799
X-3.2938 Z-0.08
X3.2938
X3.2945 Z-0.0799
X3.2952 Z-0.0797
X3.2959 Z-0.0794
X3.2966
G3 Y-2.2586 I0 J0.0078
G1 X3.2935
X3.2928
X3.2922 Z-0.0797
X3.2915 Z-0.0799
X3.2908 Z-0.08
X-3.2908
X-3.2915 Z-0.0799
X-3.2922 Z-0.0797
X-3.2928 Z-0.0794
X-3.2935
G2 Y-2.243 I0 J0.0078
G1 X-3.2929
X-3.2922
X-3.2915 Z-0.0797
X-3.2908 Z-0.0799
X-3.2901 Z-0.08
X3.2901
X3.2908 Z-0.0799
X3.2915 Z-0.0797
X3.2922 Z-0.0794
X3.2929
X3.2943
G3 Y-2.2274 I0 J0.0078
G1 X3.2935
X3.2929 Z-0.0797
X3.2922 Z-0.0799
X3.2915 Z-0.08
X-3.2915
X-3.2922 Z-0.0799
X-3.2929 Z-0.0797
X-3.2935 Z-0.0794
X-3.2943
X-3.2978
G2 Y-2.2116 I0 J0.0079
G1 X-3.2971 Y-2.2117
X-3.2964 Z-0.0797
X-3.2957 Z-0.0799
X-3.295 Z-0.08
X-3.0496
X-3.0495 Z-0.045
X-3.0478 Z-0.0444
X-3.0385 Z-0.0415
X-3.0307 Z-0.0401
X3.0257 Z-0.04
X3.0323 Z-0.0403
X3.0401 Z-0.0419
X3.0495 Z-0.045
Z-0.0452
Z-0.08
X3.295
X3.2957 Z-0.0799
X3.2964 Z-0.0797
X3.2971 Z-0.0794
X3.2978
X3.3036
G3 Y-2.1961 I0 J0.0078
G1 X3.3029
X3.3022 Z-0.0797
X3.3016 Z-0.0799
X3.3008 Z-0.08
X3.0619
X3.0618 Z-0.0449
X3.0517 Z-0.0382
X3.0411 Z-0.0325
X3.031 Z-0.0283
X3.0219 Z-0.0256
X3.0147 Z-0.0245
X-3.0144 Z-0.0244
X-3.0219 Z-0.0256
X-3.0311 Z-0.0283
X-3.0415 Z-0.0327
X-3.0523 Z-0.0386
X-3.0619 Z-0.045
X-3.062 Z-0.08
X-3.3008
X-3.3016 Z-0.0799
X-3.3022 Z-0.0797
X-3.3029 Z-0.0794
X-3.3036
X-3.3121
G2 Y-2.1805 I0 J0.0078
G1 X-3.3114
X-3.3107 Z-0.0797
X-3.31 Z-0.0799
X-3.3093 Z-0.08
X-3.0639
X-3.0637 Z-0.045
X-3.0601 Z-0.0413
X-3.0519 Z-0.0338
X-3.0423 Z-0.0266
X-3.0318 Z-0.0201
X3.0313 Z-0.02
X3.0356 Z-0.0223
X3.0457 Z-0.029
X3.0547 Z-0.0362
X3.0637 Z-0.045
Z-0.08
X3.3093
X3.31 Z-0.0799
X3.3107 Z-0.0797
X3.3114 Z-0.0794
X3.3121
X3.3246
G3 Y-2.1647 I0 J0.0079
G1 X3.3239 Y-2.1648
X3.3232 Z-0.0797
X3.3226 Z-0.0799
X3.3219 Z-0.08
X3.0637
Z-0.0449
X3.0401 Z-0.0215
X3.0383 Z-0.02
X-3.0385 Z-0.0201
X-3.0475 Z-0.0288
X-3.0637 Z-0.045
X-3.0638 Z-0.08
X-3.3219
X-3.3226 Z-0.0799
X-3.3232 Z-0.0797
X-3.3239 Z-0.0794
X-3.3246
X-3.3424
G2 Y-2.1492 I0 J0.0078
G1 X-3.3417
X-3.3411 Z-0.0797
X-3.3404 Z-0.0799
X-3.3397 Z-0.08
X-3.0638
X-3.0637 Z-0.045
X-3.0389 Z-0.0202
X3.0387 Z-0.02
X3.0636 Z-0.0449
X3.0637 Z-0.08
X3.3397
X3.3404 Z-0.0799
X3.3411 Z-0.0797
X3.3417 Z-0.0794
X3.3424
X3.3734
G3 Y-2.1336 I0 J0.0078
G1 X3.3727
X3.372 Z-0.0797
X3.3714 Z-0.0799
X3.3707 Z-0.08
X3.0637
X3.0636 Z-0.0449
X3.0387 Z-0.02
X-3.0389 Z-0.0202
X-3.0637 Z-0.045
X-3.0638 Z-0.08
X-3.3707
X-3.3726 Z-0.0797
X-3.3743 Z-0.0788
X-3.3757 Z-0.0774
X-3.3766 Z-0.0757
X-3.3769 Z-0.0738
Z0.18
X-3.4488 Y-2.3524
Z0
Z-0.0738 F7.5
X-3.4491 Z-0.0757 F60
X-3.45 Z-0.0774
X-3.4514 Z-0.0788
X-3.4531 Z-0.0797
X-3.455 Z-0.08
X-4.5158
X-4.5165 Z-0.0799
X-4.5172 Z-0.0797
X-4.5178 Z-0.0794
X-4.5186
X-4.5498
G2 Y-2.3368 I0 J0.0078
G1 X-4.549
X-4.5484 Z-0.0797
X-4.5477 Z-0.0799
X-4.547 Z-0.08
X-3.4806
X-3.4799 Z-0.0799
X-3.4793 Z-0.0797
X-3.4786 Z-0.0794
X-3.4779
G3 Y-2.321 I0 J0.0079
G1 X-3.4942 Y-2.3211
X-3.4949
X-3.4956 Z-0.0797
X-3.4962 Z-0.0799
X-3.4969 Z-0.08
X-4.5764
X-4.5771 Z-0.0799
X-4.5777 Z-0.0797
X-4.5784 Z-0.0794
X-4.5791
X-4.607
G2 Y-2.3055 I0 J0.0078
G1 X-4.6062
X-4.6056 Z-0.0797
X-4.6049 Z-0.0799
X-4.6042 Z-0.08
X-3.508
X-3.5073 Z-0.0799
X-3.5066 Z-0.0797
X-3.506 Z-0.0794
X-3.5053
G3 Y-2.2899 I0 J0.0078
G1 X-3.5131
X-3.5138
X-3.5145 Z-0.0797
X-3.5152 Z-0.0799
X-3.5159 Z-0.08
X-4.6302
X-4.6309 Z-0.0799
X-4.6316 Z-0.0797
X-4.6322 Z-0.0794
X-4.633
X-4.6576
G2 Y-2.2743 I0 J0.0078
G1 X-4.6569 Y-2.2742
X-4.6562 Z-0.0797
X-4.6555 Z-0.0799
X-4.6548 Z-0.08
X-3.5212
X-3.5205 Z-0.0799
X-3.5198 Z-0.0797
X-3.5191 Z-0.0794
X-3.5184
G3 Y-2.2586 I0 J0.0078
G1 X-3.5215
X-3.5222
X-3.5228 Z-0.0797
X-3.5235 Z-0.0799
X-3.5242 Z-0.08
X-4.6786
X-4.6793 Z-0.0799
X-4.68 Z-0.0797
X-4.6807 Z-0.0794
X-4.6814
X-4.7037
G2 Y-2.243 I0 J0.0078
G1 X-4.703
X-4.7023 Z-0.0797
X-4.7017 Z-0.0799
X-4.701 Z-0.08
X-3.5249
X-3.5242 Z-0.0799
X-3.5235 Z-0.0797
X-3.5228 Z-0.0794
X-3.5221
X-3.5207
G3 Y-2.2274 I0 J0.0078
G1 X-3.5215
X-3.5221 Z-0.0797
X-3.5228 Z-0.0799
X-3.5235 Z-0.08
X-4.7224
X-4.7231 Z-0.0799
X-4.7238 Z-0.0797
X-4.7245 Z-0.0794
X-4.7252
X-4.7459
G2 Y-2.2116 I0 J0.0079
G1 X-4.7452 Y-2.2117
X-4.7445 Z-0.0797
X-4.7438 Z-0.0799
X-4.7431 Z-0.08
X-4.0659
Z-0.045
X-4.0504 Z-0.0434
X-4.0105 Z-0.0409
X-3.9698 Z-0.04
X-3.7893
X-3.7827 Z-0.0403
X-3.7749 Z-0.0419
X-3.7655 Z-0.045
Z-0.08
X-3.52
X-3.5193 Z-0.0799
X-3.5186 Z-0.0797
X-3.5179 Z-0.0794
X-3.5172
X-3.5114
G3 Y-2.1961 I0 J0.0078
G1 X-3.5121
X-3.5128 Z-0.0797
X-3.5134 Z-0.0799
X-3.5142 Z-0.08
X-3.7531
X-3.7532 Z-0.0449
X-3.7633 Z-0.0382
X-3.7739 Z-0.0325
X-3.784 Z-0.0283
X-3.7931 Z-0.0256
X-3.8003 Z-0.0245
X-3.9724 Z-0.0244
X-4.0089 Z-0.0252
X-4.0483 Z-0.0277
X-4.0885 Z-0.0318
X-4.1293 Z-0.0376
X-4.17 Z-0.045
Z-0.08
X-4.7627
X-4.7634 Z-0.0799
X-4.764 Z-0.0797
X-4.7647 Z-0.0794
X-4.7654
X-4.7846
G2 Y-2.1805 I0 J0.0078
G1 X-4.7839
X-4.7833 Z-0.0797
X-4.7826 Z-0.0799
X-4.7819 Z-0.08
X-4.2344
Z-0.0798
Z-0.045
X-4.2081 Z-0.0382
X-4.167 Z-0.0291
X-4.1278 Z-0.0219
X-4.1154 Z-0.0201
X-3.7837 Z-0.02
X-3.7794 Z-0.0223
X-3.7693 Z-0.029
X-3.7603 Z-0.0362
X-3.7513 Z-0.045
Z-0.08
X-3.5057
X-3.505 Z-0.0799
X-3.5043 Z-0.0797
X-3.5036 Z-0.0794
X-3.5029
X-3.4904
G3 Y-2.1647 I0 J0.0079
G1 X-3.4911 Y-2.1648
X-3.4918 Z-0.0797
X-3.4924 Z-0.0799
X-3.4931 Z-0.08
X-3.7513
Z-0.0798
Z-0.0449
X-3.7749 Z-0.0215
X-3.7767 Z-0.02
X-4.1954 Z-0.0201
X-4.2062 Z-0.0226
X-4.2456 Z-0.0329
X-4.2862 Z-0.045
Z-0.0452
X-4.2864 Z-0.08
X-4.7998
X-4.8006 Z-0.0799
X-4.8012 Z-0.0797
X-4.8019 Z-0.0794
X-4.8026
X-4.8203
G2 Y-2.1492 I0 J0.0078
G1 X-4.8196
X-4.8189 Z-0.0797
X-4.8183 Z-0.0799
X-4.8176 Z-0.08
X-4.3294
X-4.3293 Z-0.045
X-4.325 Z-0.0434
X-4.2826 Z-0.0291
X-4.2528 Z-0.0201
X-3.7763 Z-0.02
X-3.7514 Z-0.0449
X-3.7513 Z-0.08
X-3.4753
X-3.4746 Z-0.0799
X-3.4739 Z-0.0797
X-3.4733 Z-0.0794
X-3.4726
X-3.4416
G3 Y-2.1336 I0 J0.0078
G1 X-3.4423
X-3.443 Z-0.0797
X-3.4436 Z-0.0799
X-3.4443 Z-0.08
X-3.7513
X-3.7514 Z-0.0449
X-3.7763 Z-0.02
X-4.2997 Z-0.0201
X-4.3196 Z-0.0269
X-4.3623 Z-0.0429
X-4.3674 Z-0.045
Z-0.08
X-4.8343
X-4.835 Z-0.0799
X-4.8357 Z-0.0797
X-4.8364 Z-0.0794
X-4.8371
X-4.8535
G2 Y-2.118 I0 J0.0078
G1 X-4.8528 Y-2.1179
X-4.8522 Z-0.0797
X-4.8515 Z-0.0799
X-4.8508 Z-0.08
X-4.4018
X-4.4017 Z-0.045
X-4.3998 Z-0.0441
X-4.3562 Z-0.0261
X-4.34 Z-0.02
X-3.7763
X-3.7513 Z-0.0449
Z-0.08
X-3.0638
X-3.0637 Z-0.045
X-3.0389 Z-0.0202
X3.0387 Z-0.02
X3.0637 Z-0.0449
Z-0.0451
X3.0638 Z-0.08
X3.7512
Z-0.0798
X3.7513 Z-0.045
X3.7761 Z-0.0201
X4.3398 Z-0.02
X4.3509 Z-0.024
X4.3901 Z-0.04
X4.4017 Z-0.045
Z-0.08
X4.8508
X4.8515 Z-0.0799
X4.8522 Z-0.0797
X4.8528 Z-0.0794
X4.8535
X4.8692
G3 Y-2.1023 I0 J0.0078
G1 X4.8685
X4.8678 Z-0.0797
X4.8671 Z-0.0799
X4.8664 Z-0.08
X4.433
X4.4329 Z-0.045
X4.3871 Z-0.0246
X4.3759 Z-0.02
X3.7762 Z-0.0201
X3.7513 Z-0.045
X3.7512 Z-0.08
X3.0638
Z-0.0798
X3.0637 Z-0.0449
X3.0387 Z-0.02
X-3.0389 Z-0.0202
X-3.0637 Z-0.045
X-3.0638 Z-0.08
X-3.7513
Z-0.0449
X-3.7763 Z-0.02
X-4.376
X-4.3928 Z-0.027
X-4.433 Z-0.045
X-4.4331 Z-0.08
X-4.8664
X-4.8671 Z-0.0799
X-4.8678 Z-0.0797
X-4.8685 Z-0.0794
X-4.8692
X-4.8845
G2 Y-2.0867 I0 J0.0078
G1 X-4.8838
X-4.8831 Z-0.0797
X-4.8824 Z-0.0799
X-4.8817 Z-0.08
X-4.4615
Z-0.045
X-4.4293 Z-0.0295
X-4.4085 Z-0.0201
X-3.7763 Z-0.02
X-3.7513 Z-0.0449
X-3.7512 Z-0.08
X-3.0638
X-3.0637 Z-0.045
X-3.0389 Z-0.0202
X3.0387 Z-0.02
X3.0637 Z-0.0449
Z-0.0451
Z-0.08
X3.7512
Z-0.0798
X3.7513 Z-0.045
X3.7762 Z-0.0201
X4.4082 Z-0.02
X4.4237 Z-0.0269
X4.4614 Z-0.045
Z-0.0452
X4.4615 Z-0.08
X4.8817
X4.8824 Z-0.0799
X4.8831 Z-0.0797
X4.8838 Z-0.0794
X4.8845
X4.899
G3 Y-2.0711 I0 J0.0078
G1 X4.8983
X4.8977 Z-0.0797
X4.897 Z-0.0799
X4.8963 Z-0.08
X4.4881
Z-0.045
X4.4602 Z-0.0307
X4.438 Z-0.02
X3.7761 Z-0.0201
X3.7513 Z-0.045
X3.7512 Z-0.08
X3.0637
Z-0.0798
Z-0.0449
X3.0387 Z-0.02
X-3.0389 Z-0.0202
X-3.0637 Z-0.045
X-3.0638 Z-0.08
X-3.7513
Z-0.0449
X-3.7763 Z-0.02
X-4.4382 Z-0.0201
X-4.4662 Z-0.0337
X-4.4881 Z-0.045
Z-0.0452
X-4.4882 Z-0.08
X-4.8963
X-4.897 Z-0.0799
X-4.8977 Z-0.0797
X-4.8983 Z-0.0794
X-4.899
X-4.9134
G2 Y-2.0553 I0 J0.0079
G1 X-4.9127 Y-2.0554
X-4.912 Z-0.0797
X-4.9113 Z-0.0799
X-4.9106 Z-0.08
X-4.5131
Z-0.045
X-4.5035 Z-0.0397
X-4.4657 Z-0.0201
X-3.7763 Z-0.02
X-3.7513 Z-0.0449
X-3.7512 Z-0.08
X-3.0638
X-3.0637 Z-0.045
X-3.0389 Z-0.0202
X3.0387 Z-0.02
X3.0637 Z-0.0449
Z-0.0451
Z-0.08
X3.7512
X3.7513 Z-0.045
X3.7762 Z-0.0201
X4.4656 Z-0.02
X4.4968 Z-0.0361
X4.513 Z-0.045
X4.5131 Z-0.08
X4.9106
X4.9113 Z-0.0799
X4.912 Z-0.0797
X4.9127 Z-0.0794
X4.9134
X4.927
G3 Y-2.0398 I0 J0.0078
G1 X4.9263
X4.9256 Z-0.0797
X4.9249 Z-0.0799
X4.9242 Z-0.08
X4.5368
X4.5367 Z-0.045
X4.4914 Z-0.02
X3.7761 Z-0.0201
X3.7513 Z-0.045
X3.7512 Z-0.08
X3.0637
Z-0.0798
Z-0.0449
X3.0387 Z-0.02
X-3.0389 Z-0.0202
X-3.0637 Z-0.045
X-3.0638 Z-0.08
X-3.7513
Z-0.0449
X-3.7763 Z-0.02
X-4.4915
X-4.5368 Z-0.045
Z-0.08
X-4.9242
X-4.9249 Z-0.0799
X-4.9256 Z-0.0797
X-4.9263 Z-0.0794
X-4.927
X-4.9405
G2 Y-2.0242 I0 J0.0078
G1 X-4.9398
X-4.9391 Z-0.0797
X-4.9384 Z-0.0799
X-4.9377 Z-0.08
X-4.5586
Z-0.0798
Z-0.045
X-4.5316 Z-0.0293
X-4.5151 Z-0.02
X-3.7794
X-3.7748 Z-0.0231
X-3.7661 Z-0.0303
X-3.7513 Z-0.0449
Z-0.08
X-3.0638
X-3.0637 Z-0.045
X-3.0537 Z-0.0349
X-3.0455 Z-0.0273
X-3.036 Z-0.0201
X3.0356 Z-0.02
X3.0403 Z-0.0232
X3.049 Z-0.0304
X3.0637 Z-0.0449
Z-0.0451
Z-0.08
X3.7512
X3.7513 Z-0.045
X3.7613 Z-0.0349
X3.7694 Z-0.0274
X3.779 Z-0.0201
X4.5149 Z-0.02
X4.5245 Z-0.0252
X4.5584 Z-0.0449
X4.5586 Z-0.08
X4.9377
X4.9384 Z-0.0799
X4.9391 Z-0.0797
X4.9398 Z-0.0794
X4.9405
X4.9531
G3 Y-2.0086 I0 J0.0078
G1 X4.9524 Y-2.0085
X4.9518 Z-0.0797
X4.9511 Z-0.0799
X4.9504 Z-0.08
X4.5795
Z-0.045
X4.5616 Z-0.0341
X4.5373 Z-0.02
X4.0456
G2 Y-1.9929 I0 J0.0078
G1 X4.1432
X4.5588
X4.5993 Z-0.0449
X4.5994 Z-0.08
X4.963
X4.9637 Z-0.0799
X4.9644 Z-0.0797
X4.9651 Z-0.0794
X4.9658
X4.9777
G3 Y-1.9773 I0 J0.0078
G1 X4.9769
X4.9763 Z-0.0797
X4.9756 Z-0.0799
X4.9749 Z-0.08
X4.6181
X4.618 Z-0.045
X4.5882 Z-0.0258
X4.5788 Z-0.02
X4.2019
X4.2012 Z-0.0199
X4.2005 Z-0.0197
X4.1998 Z-0.0194
X4.1991
G2 Y-1.9617 I0 J0.0078
G1 X4.2451
X4.2458
X4.2464 Z-0.0197
X4.2471 Z-0.0199
X4.2478 Z-0.02
X4.5978
X4.6191 Z-0.0337
X4.6361 Z-0.045
X4.6362 Z-0.08
X4.9867
X4.9874 Z-0.0799
X4.9881 Z-0.0797
X4.9887 Z-0.0794
X4.9894
X5.0007
G3 Y-1.9459 I0 J0.0079
G1 X5 Y-1.946
X4.9993 Z-0.0797
X4.9986 Z-0.0799
X4.9979 Z-0.08
X4.6531
Z-0.045
X4.6161 Z-0.02
X4.2863
X4.2856 Z-0.0199
X4.285 Z-0.0197
X4.2843 Z-0.0194
X4.2836
G2 Y-1.9304 I0 J0.0078
G1 X4.3173
X4.3181
X4.3187 Z-0.0197
X4.3194 Z-0.0199
X4.3201 Z-0.02
X4.6331
X4.6517 Z-0.0325
X4.6694 Z-0.0449
X4.6696 Z-0.08
X5.0089
X5.0096 Z-0.0799
X5.0102 Z-0.0797
X5.0109 Z-0.0794
X5.0116
X5.0223
G3 Y-1.9148 I0 J0.0078
G1 X5.0216
X5.0209 Z-0.0797
X5.0202 Z-0.0799
X5.0195 Z-0.08
X4.6852
X4.6851 Z-0.0449
X4.6498 Z-0.02
X4.3503
X4.3496 Z-0.0199
X4.3489 Z-0.0197
X4.3482 Z-0.0194
X4.3475
G2 Y-1.899 I0 J0.0079
G1 X4.3749 Y-1.8991
X4.3756
X4.3763 Z-0.0197
X4.377 Z-0.0199
X4.3777 Z-0.02
X4.6653
X4.6775 Z-0.0285
X4.7 Z-0.0449
X4.7001 Z-0.08
X5.0297
X5.0304 Z-0.0799
X5.0311 Z-0.0797
X5.0317 Z-0.0794
X5.0324
X5.0426
G3 Y-1.8835 I0 J0.0078
G1 X5.0419
X5.0412 Z-0.0797
X5.0406 Z-0.0799
X5.0398 Z-0.08
X4.7145
X4.7144 Z-0.0449
X4.6804 Z-0.02
X4.4029
X4.4022 Z-0.0199
X4.4015 Z-0.0197
X4.4008 Z-0.0194
X4.4001
G2 Y-1.8679 I0 J0.0078
G1 X4.4236
X4.4243
X4.4249 Z-0.0197
X4.4256 Z-0.0199
X4.4263 Z-0.02
X4.6948
X4.7022 Z-0.0254
X4.7281 Z-0.045
X4.7282 Z-0.08
X5.0493
X5.05 Z-0.0799
X5.0507 Z-0.0797
X5.0513 Z-0.0794
X5.052
X5.0614
G3 Y-1.8523 I0 J0.0078
G1 X5.0607 Y-1.8522
X5.0601 Z-0.0797
X5.0594 Z-0.0799
X5.0587 Z-0.08
X4.7415
Z-0.045
X4.7086 Z-0.02
X4.4476
X4.4469 Z-0.0199
X4.4462 Z-0.0197
X4.4456 Z-0.0194
X4.4449
G2 Y-1.8366 I0 J0.0078
G1 X4.4649
X4.4656
X4.4663 Z-0.0197
X4.467 Z-0.0199
X4.4677 Z-0.02
X4.7218
X4.7266 Z-0.0235
X4.754 Z-0.045
Z-0.08
X5.0677
X5.0684 Z-0.0799
X5.069 Z-0.0797
X5.0697 Z-0.0794
X5.0704
X5.0791
G3 Y-1.821 I0 J0.0078
G1 X5.0784
X5.0777 Z-0.0797
X5.077 Z-0.0799
X5.0763 Z-0.08
X4.7663
Z-0.045
X4.7345 Z-0.02
X4.4867
X4.486 Z-0.0199
X4.4853 Z-0.0197
X4.4846 Z-0.0194
X4.4839
G2 Y-1.8054 I0 J0.0078
G1 X4.5017
X4.5025
X4.5031 Z-0.0197
X4.5038 Z-0.0199
X4.5045 Z-0.02
X4.7467
X4.7507 Z-0.0231
X4.7778 Z-0.045
Z-0.0452
X4.7779 Z-0.08
X5.0849
X5.0856 Z-0.0799
X5.0863 Z-0.0797
X5.087 Z-0.0794
X5.0877
X5.0957
G3 Y-1.7896 I0 J0.0079
G1 X5.095 Y-1.7897
X5.0943 Z-0.0797
X5.0936 Z-0.0799
X5.0929 Z-0.08
X4.7891
Z-0.0798
X4.789 Z-0.0449
X4.7582 Z-0.02
X4.5211
X4.5204 Z-0.0199
X4.5197 Z-0.0197
X4.5191 Z-0.0194
X4.5184
G2 Y-1.7741 I0 J0.0078
G1 X4.5344
X4.5351
X4.5357 Z-0.0197
X4.5364 Z-0.0199
X4.5371 Z-0.02
X4.7695
X4.7745 Z-0.024
X4.7998 Z-0.0449
X4.7999 Z-0.08
X5.1009
X5.1016 Z-0.0799
X5.1023 Z-0.0797
X5.1029 Z-0.0794
X5.1036
X5.1112
G3 Y-1.7585 I0 J0.0078
G1 X5.1105
X5.1099 Z-0.0797
X5.1092 Z-0.0799
X5.1085 Z-0.08
X4.8102
Z-0.0798
X4.8101 Z-0.0449
X4.7801 Z-0.02
X4.5521
X4.5514 Z-0.0199
X4.5507 Z-0.0197
X4.55 Z-0.0194
X4.5493
G2 Y-1.7429 I0 J0.0078
G1 X4.5635 Y-1.7428
X4.5642
X4.5648 Z-0.0197
X4.5655 Z-0.0199
X4.5662 Z-0.02
X4.7905
X4.797 Z-0.0254
X4.8201 Z-0.045
X4.8202 Z-0.08
X5.1158
X5.1165 Z-0.0799
X5.1171 Z-0.0797
X5.1178 Z-0.0794
X5.1185
X5.1258
G3 Y-1.7272 I0 J0.0078
G1 X5.1251
X5.1244 Z-0.0797
X5.1238 Z-0.0799
X5.1231 Z-0.08
X4.8296
Z-0.0798
Z-0.045
X4.8004 Z-0.02
X4.5799
X4.5792 Z-0.0199
X4.5786 Z-0.0197
X4.5779 Z-0.0194
X4.5772
G2 Y-1.7116 I0 J0.0078
G1 X4.5897
X4.5904
X4.5911 Z-0.0197
X4.5918 Z-0.0199
X4.5925 Z-0.02
X4.8098
X4.8388 Z-0.0449
X4.8389 Z-0.08
X5.1297
X5.1304 Z-0.0799
X5.1311 Z-0.0797
X5.1317 Z-0.0794
X5.1325
X5.1391
G3 Y-1.696 I0 J0.0078
G1 X5.1384
X5.1377 Z-0.0797
X5.137 Z-0.0799
X5.1363 Z-0.08
X4.8475
Z-0.045
X4.8189 Z-0.02
X4.6048
X4.6041 Z-0.0199
X4.6034 Z-0.0197
X4.6027 Z-0.0194
X4.602
G2 Y-1.6802 I0 J0.0079
G1 X4.6135 Y-1.6803
X4.6142
X4.6149 Z-0.0197
X4.6155 Z-0.0199
X4.6163 Z-0.02
X4.8275
X4.856 Z-0.0449
X4.8561 Z-0.08
X5.1427
X5.1434 Z-0.0799
X5.1441 Z-0.0797
X5.1448 Z-0.0794
X5.1455
X5.1515
G3 Y-1.6647 I0 J0.0078
G1 X5.1508
X5.1501 Z-0.0797
X5.1494 Z-0.0799
X5.1487 Z-0.08
X4.864
X4.8638 Z-0.0449
X4.8359 Z-0.02
X4.6273
X4.6266 Z-0.0199
X4.6259 Z-0.0197
X4.6252 Z-0.0194
X4.6245
G2 Y-1.6491 I0 J0.0078
G1 X4.635
X4.6357
X4.6363 Z-0.0197
X4.637 Z-0.0199
X4.6377 Z-0.02
X4.8438
X4.8717 Z-0.0449
X4.8718 Z-0.08
X5.1547
X5.1554 Z-0.0799
X5.1561 Z-0.0797
X5.1568 Z-0.0794
X5.1575
X5.163
G3 Y-1.6333 I0 J0.0079
G1 X5.1623 Y-1.6334
X5.1616 Z-0.0797
X5.161 Z-0.0799
X5.1603 Z-0.08
X4.8791
Z-0.045
X4.8516 Z-0.02
X4.6476
X4.6469 Z-0.0199
X4.6462 Z-0.0197
X4.6456 Z-0.0194
X4.6449
G2 Y-1.6178 I0 J0.0078
G1 X4.6543
X4.6551
X4.6557 Z-0.0197
X4.6564 Z-0.0199
X4.6571 Z-0.02
X4.8587
X4.8861 Z-0.0449
Z-0.08
X5.1656
X5.1663 Z-0.0799
X5.167 Z-0.0797
X5.1677 Z-0.0794
X5.1684
X5.1737
G3 Y-1.6022 I0 J0.0078
G1 X5.173
X5.1723 Z-0.0797
X5.1717 Z-0.0799
X5.171 Z-0.08
X4.893
Z-0.0798
X4.8929 Z-0.0449
X4.8657 Z-0.02
X4.666
X4.6653 Z-0.0199
X4.6646 Z-0.0197
X4.6639 Z-0.0194
X4.6632
G2 Y-1.5866 I0 J0.0078
G1 X4.6718 Y-1.5865
X4.6725
X4.6732 Z-0.0197
X4.6739 Z-0.0199
X4.6746 Z-0.02
X4.8722
X4.8992 Z-0.045
X4.8993 Z-0.08
X5.1757
X5.1765 Z-0.0799
X5.1771 Z-0.0797
X5.1778 Z-0.0794
X5.1785
X5.1833
G3 Y-1.5709 I0 J0.0078
G1 X5.1826
X5.1819 Z-0.0797
X5.1812 Z-0.0799
X5.1805 Z-0.08
X4.9056
Z-0.045
X4.8785 Z-0.02
X4.6825
X4.6818 Z-0.0199
X4.6812 Z-0.0197
X4.6805 Z-0.0194
X4.6798
G2 Y-1.5553 I0 J0.0078
G1 X4.6875
X4.6882
X4.6889 Z-0.0197
X4.6895 Z-0.0199
X4.6902 Z-0.02
X4.8846
X4.9111 Z-0.0449
X4.9112 Z-0.08
X5.1851
X5.1858 Z-0.0799
X5.1865 Z-0.0797
X5.1871 Z-0.0794
X5.1878
X5.192
G3 Y-1.5397 I0 J0.0078
G1 X5.1913
X5.1906 Z-0.0797
X5.19 Z-0.0799
X5.1893 Z-0.08
X4.9168
Z-0.045
X4.8902 Z-0.02
X4.6974
X4.6967 Z-0.0199
X4.696 Z-0.0197
X4.6953 Z-0.0194
X4.6946
G2 Y-1.5239 I0 J0.0079
G1 X4.7015 Y-1.524
X4.7022
X4.7029 Z-0.0197
X4.7035 Z-0.0199
X4.7042 Z-0.02
X4.8958
X4.9221 Z-0.045
Z-0.08
X5.1935
X5.1942 Z-0.0799
X5.1948 Z-0.0797
X5.1955 Z-0.0794
X5.1962
X5.2
G3 Y-1.5084 I0 J0.0078
G1 X5.1993
X5.1986 Z-0.0797
X5.198 Z-0.0799
X5.1973 Z-0.08
X4.927
X4.9269 Z-0.0449
X4.9007 Z-0.02
X4.7106
X4.7099 Z-0.0199
X4.7092 Z-0.0197
X4.7086 Z-0.0194
X4.7078
G2 Y-1.4928 I0 J0.0078
G1 X4.7139
X4.7146
X4.7153 Z-0.0197
X4.716 Z-0.0199
X4.7167 Z-0.02
X4.9056
X4.9318 Z-0.045
Z-0.08
X5.2009
X5.2016 Z-0.0799
X5.2022 Z-0.0797
X5.2029 Z-0.0794
X5.2036
X5.2072
G3 Y-1.4772 I0 J0.0078
G1 X5.2065 Y-1.4771
X5.2058 Z-0.0797
X5.2052 Z-0.0799
X5.2045 Z-0.08
X4.9361
X4.936 Z-0.0449
X4.9101 Z-0.02
X4.7223
X4.7216 Z-0.0199
X4.7209 Z-0.0197
X4.7203 Z-0.0194
X4.7195
G2 Y-1.4615 I0 J0.0078
G1 X4.7249
X4.7256
X4.7262 Z-0.0197
X4.7269 Z-0.0199
X4.7276 Z-0.02
X4.9143
X4.9401 Z-0.0449
X4.9403 Z-0.08
X5.2076
X5.2083 Z-0.0799
X5.2089 Z-0.0797
X5.2096 Z-0.0794
X5.2103
X5.2134
G3 Y-1.4459 I0 J0.0078
G1 X5.2126
X5.212 Z-0.0797
X5.2113 Z-0.0799
X5.2106 Z-0.08
X4.9441
Z-0.045
X4.9185 Z-0.02
X4.7326
X4.7319 Z-0.0199
X4.7312 Z-0.0197
X4.7305 Z-0.0194
X4.7298
G2 Y-1.4303 I0 J0.0078
G1 X4.7344
X4.7351
X4.7357 Z-0.0197
X4.7364 Z-0.0199
X4.7371 Z-0.02
X4.922
X4.9476 Z-0.0449
X4.9477 Z-0.08
X5.2136
X5.2143 Z-0.0799
X5.2149 Z-0.0797
X5.2156 Z-0.0794
X5.2163
X5.2188
G3 Y-1.4145 I0 J0.0079
G1 X5.2181 Y-1.4146
X5.2174 Z-0.0797
X5.2168 Z-0.0799
X5.2161 Z-0.08
X4.9512
Z-0.045
X4.9255 Z-0.02
X4.7414
X4.7407 Z-0.0199
X4.7401 Z-0.0197
X4.7394 Z-0.0194
X4.7387
G2 Y-1.399 I0 J0.0078
G1 X4.7425
X4.7432
X4.7439 Z-0.0197
X4.7446 Z-0.0199
X4.7453 Z-0.02
X4.9286
X4.954 Z-0.0449
Z-0.0451
X4.9541 Z-0.08
X5.2185
X5.2192 Z-0.0799
X5.2199 Z-0.0797
X5.2206 Z-0.0794
X5.2213
X5.2236
G3 Y-1.3834 I0 J0.0078
G1 X5.2229
X5.2222 Z-0.0797
X5.2215 Z-0.0799
X5.2208 Z-0.08
X4.957
Z-0.045
X4.9315 Z-0.02
X4.749
X4.7483 Z-0.0199
X4.7476 Z-0.0197
X4.747 Z-0.0194
X4.7462
G2 Y-1.3676 I0 J0.0079
G1 X4.7494 Y-1.3677
X4.7501
X4.7507 Z-0.0197
X4.7514 Z-0.0199
X4.7521 Z-0.02
X4.9342
X4.9595 Z-0.0449
X4.9596 Z-0.08
X5.2227
X5.2234 Z-0.0799
X5.2241 Z-0.0797
X5.2248 Z-0.0794
X5.2255
X5.2274
G3 Y-1.3521 I0 J0.0078
G1 X5.2267
X5.226 Z-0.0797
X5.2254 Z-0.0799
X5.2247 Z-0.08
X4.9618
Z-0.045
X4.9364 Z-0.02
X4.7552
X4.7545 Z-0.0199
X4.7538 Z-0.0197
X4.7532 Z-0.0194
X4.7525
G2 Y-1.3365 I0 J0.0078
G1 X4.7549
X4.7556
X4.7563 Z-0.0197
X4.757 Z-0.0199
X4.7577 Z-0.02
X4.9387
X4.9639 Z-0.0449
Z-0.0451
X4.964 Z-0.08
X5.2263
X5.227 Z-0.0799
X5.2277 Z-0.0797
X5.2283 Z-0.0794
X5.229
X5.2304
G3 Y-1.3209 I0 J0.0078
G1 X5.2297 Y-1.3208
X5.229 Z-0.0797
X5.2284 Z-0.0799
X5.2276 Z-0.08
X4.9657
X4.9656 Z-0.0449
X4.9405 Z-0.02
X4.7601
X4.7594 Z-0.0199
X4.7587 Z-0.0197
X4.758 Z-0.0194
X4.7573
G2 Y-1.3052 I0 J0.0078
G1 X4.7592
X4.7599
X4.7606 Z-0.0197
X4.7612 Z-0.0199
X4.7619 Z-0.02
X4.9421
X4.9672 Z-0.0449
X4.9673 Z-0.08
X5.229
X5.2297 Z-0.0799
X5.2304 Z-0.0797
X5.2311 Z-0.0794
X5.2318
X5.2327
G3 Y-1.2896 I0 J0.0078
G1 X5.232
X5.2314 Z-0.0797
X5.2307 Z-0.0799
X5.23 Z-0.08
X4.9687
X4.9686 Z-0.0449
X4.9436 Z-0.02
X4.7636
X4.7629 Z-0.0199
X4.7623 Z-0.0197
X4.7616 Z-0.0194
X4.7609
G2 Y-1.274 I0 J0.0078
G1 X4.7622
X4.7629
X4.7636 Z-0.0197
X4.7643 Z-0.0199
X4.765 Z-0.02
X4.9446
X4.9697 Z-0.045
Z-0.08
X5.2308
X5.2315 Z-0.0799
X5.2322 Z-0.0797
X5.2329 Z-0.0794
X5.2336
X5.2344
G3 Y-1.2582 I0 J0.0079
G1 X5.2337 Y-1.2583
X5.233 Z-0.0797
X5.2323 Z-0.0799
X5.2316 Z-0.08
X4.9706
X4.9705 Z-0.0449
X4.9455 Z-0.02
X4.766
X4.7653 Z-0.0199
X4.7646 Z-0.0197
X4.764 Z-0.0194
X4.7633
G2 Y-1.2427 I0 J0.0078
G1 X4.7641
X4.7648
X4.7655 Z-0.0197
X4.7661 Z-0.0199
X4.7668 Z-0.02
X4.9461
X4.9711 Z-0.045
Z-0.0452
Z-0.08
X5.232
X5.2327 Z-0.0799
X5.2333 Z-0.0797
X5.234 Z-0.0794
X5.2347
X5.235
G3 Y-1.2271 I0 J0.0078
G1 X5.2343
X5.2336 Z-0.0797
X5.2329 Z-0.0799
X5.2322 Z-0.08
X4.9715
X4.9714 Z-0.0449
X4.9464 Z-0.02
X4.7672
X4.7665 Z-0.0199
X4.7658 Z-0.0197
X4.7651 Z-0.0194
X4.7644
G2 Y-1.2115 I0 J0.0078
G1 X4.7647 Y-1.2114
X4.7654
X4.7661 Z-0.0197
X4.7668 Z-0.0199
X4.7675 Z-0.02
X4.9467
X4.9716 Z-0.0449
X4.9717 Z-0.08
X5.2325
X5.2332 Z-0.0799
X5.2339 Z-0.0797
X5.2345 Z-0.0794
X5.2352
G3 Y-1.1958 I0 J0.0078
G1 X5.2345
X5.2339 Z-0.0797
X5.2332 Z-0.0799
X5.2325 Z-0.08
X4.9717
X4.9716 Z-0.0449
X4.9467 Z-0.02
X4.7675
X4.7668 Z-0.0199
X4.7661 Z-0.0197
X4.7654 Z-0.0194
X4.7647
G2 Y-1.1802 I0 J0.0078
G1 X4.7654
X4.7661 Z-0.0197
X4.7668 Z-0.0199
X4.7675 Z-0.02
X4.9467
X4.9716 Z-0.0449
X4.9717 Z-0.08
X5.2325
X5.2332 Z-0.0799
X5.2339 Z-0.0797
X5.2345 Z-0.0794
X5.2352
G3 Y-1.1646 I0 J0.0078
G1 X5.2345 Y-1.1645
X5.2339 Z-0.0797
X5.2332 Z-0.0799
X5.2325 Z-0.08
X4.9717
X4.9716 Z-0.0449
X4.9467 Z-0.02
X4.7675
X4.7668 Z-0.0199
X4.7661 Z-0.0197
X4.7654 Z-0.0194
X4.7647
G2 Y-1.1489 I0 J0.0078
G1 X4.7654
X4.7661 Z-0.0197
X4.7668 Z-0.0199
X4.7675 Z-0.02
X4.9467
X4.9716 Z-0.0449
X4.9717 Z-0.08
X5.2325
X5.2332 Z-0.0799
X5.2339 Z-0.0797
X5.2345 Z-0.0794
X5.2352
G3 Y-1.1333 I0 J0.0078
G1 X5.2345
X5.2339 Z-0.0797
X5.2332 Z-0.0799
X5.2325 Z-0.08
X4.9717
X4.9716 Z-0.0449
X4.9467 Z-0.02
X4.7675
X4.7668 Z-0.0199
X4.7661 Z-0.0197
X4.7654 Z-0.0194
X4.7647
G2 Y-1.1177 I0 J0.0078
G1 X4.7654
X4.7661 Z-0.0197
X4.7668 Z-0.0199
X4.7675 Z-0.02
X4.9467
X4.9716 Z-0.0449
Z-0.0451
X4.9717 Z-0.08
X5.2325
X5.2332 Z-0.0799
X5.2339 Z-0.0797
X5.2345 Z-0.0794
X5.2352
G3 Y-1.1019 I0 J0.0079
G1 X5.2345 Y-1.102
X5.2339 Z-0.0797
X5.2332 Z-0.0799
X5.2325 Z-0.08
X4.9717
X4.9716 Z-0.0449
X4.9467 Z-0.02
X4.7675
X4.7668 Z-0.0199
X4.7661 Z-0.0197
X4.7654 Z-0.0194
X4.7647
G2 Y-1.0864 I0 J0.0078
G1 X4.7654
X4.7661 Z-0.0197
X4.7668 Z-0.0199
X4.7675 Z-0.02
X4.9467
X4.9716 Z-0.0449
Z-0.0451
X4.9717 Z-0.08
X5.2325
X5.2332 Z-0.0799
X5.2339 Z-0.0797
X5.2345 Z-0.0794
X5.2352
G3 Y-1.0708 I0 J0.0078
G1 X5.2345
X5.2339 Z-0.0797
X5.2332 Z-0.0799
X5.2325 Z-0.08
X4.9717
X4.9716 Z-0.0449
X4.9467 Z-0.02
X4.7675
X4.7668 Z-0.0199
X4.7661 Z-0.0197
X4.7654 Z-0.0194
X4.7647
G2 Y-1.0552 I0 J0.0078
G1 X4.7654 Y-1.0551
X4.7661 Z-0.0197
X4.7668 Z-0.0199
X4.7675 Z-0.02
X4.9467
X4.9716 Z-0.0449
X4.9717 Z-0.08
X5.2325
X5.2332 Z-0.0799
X5.2339 Z-0.0797
X5.2345 Z-0.0794
X5.2352
G3 Y-1.0395 I0 J0.0078
G1 X5.2345
X5.2339 Z-0.0797
X5.2332 Z-0.0799
X5.2325 Z-0.08
X4.9717
Z-0.0798
X4.9716 Z-0.0449
X4.9467 Z-0.02
X4.7675
X4.7668 Z-0.0199
X4.7661 Z-0.0197
X4.7654 Z-0.0194
X4.7647
G2 Y-1.0239 I0 J0.0078
G1 X4.7654
X4.7661 Z-0.0197
X4.7668 Z-0.0199
X4.7675 Z-0.02
X4.9467
X4.9716 Z-0.0449
X4.9717 Z-0.08
X5.2325
X5.2332 Z-0.0799
X5.2339 Z-0.0797
X5.2345 Z-0.0794
X5.2352
G3 Y-1.0083 I0 J0.0078
G1 X5.2345
X5.2339 Z-0.0797
X5.2332 Z-0.0799
X5.2325 Z-0.08
X4.9717
X4.9716 Z-0.0449
X4.9467 Z-0.02
X4.7675
X4.7668 Z-0.0199
X4.7661 Z-0.0197
X4.7654 Z-0.0194
X4.7647
G2 Y-0.9925 I0 J0.0079
G1 X4.7654 Y-0.9926
X4.7661 Z-0.0197
X4.7668 Z-0.0199
X4.7675 Z-0.02
X4.9467
X4.9716 Z-0.0449
X4.9717 Z-0.08
X5.2325
X5.2332 Z-0.0799
X5.2339 Z-0.0797
X5.2345 Z-0.0794
X5.2352
G3 Y-0.977 I0 J0.0078
G1 X5.2345
X5.2339 Z-0.0797
X5.2332 Z-0.0799
X5.2325 Z-0.08
X4.9717
X4.9716 Z-0.0449
X4.9467 Z-0.02
X4.7675
X4.7668 Z-0.0199
X4.7661 Z-0.0197
X4.7654 Z-0.0194
X4.7647
G2 Y-0.9614 I0 J0.0078
G1 X4.7654
X4.7661 Z-0.0197
X4.7668 Z-0.0199
X4.7675 Z-0.02
X4.9467
X4.9716 Z-0.0449
X4.9717 Z-0.08
X5.2325
X5.2332 Z-0.0799
X5.2339 Z-0.0797
X5.2345 Z-0.0794
X5.2352
G3 Y-0.9458 I0 J0.0078
G1 X5.2345 Y-0.9457
X5.2339 Z-0.0797
X5.2332 Z-0.0799
X5.2325 Z-0.08
X4.9717
X4.9716 Z-0.0449
X4.9467 Z-0.02
X4.7675
X4.7668 Z-0.0199
X4.7661 Z-0.0197
X4.7654 Z-0.0194
X4.7647
G2 Y-0.9301 I0 J0.0078
G1 X4.7654
X4.7661 Z-0.0197
X4.7668 Z-0.0199
X4.7675 Z-0.02
X4.9467
X4.9716 Z-0.0449
X4.9717 Z-0.08
X5.2325
X5.2332 Z-0.0799
X5.2339 Z-0.0797
X5.2345 Z-0.0794
X5.2352
G3 Y-0.9145 I0 J0.0078
G1 X5.2345
X5.2339 Z-0.0797
X5.2332 Z-0.0799
X5.2325 Z-0.08
X4.9717
X4.9716 Z-0.0449
X4.9467 Z-0.02
X4.7675
X4.7668 Z-0.0199
X4.7661 Z-0.0197
X4.7654 Z-0.0194
X4.7647
G2 Y-0.8989 I0 J0.0078
G1 X4.7654 Y-0.8988
X4.7661 Z-0.0197
X4.7668 Z-0.0199
X4.7675 Z-0.02
X4.9467
X4.9716 Z-0.0449
X4.9717 Z-0.08
X5.2325
X5.2332 Z-0.0799
X5.2339 Z-0.0797
X5.2345 Z-0.0794
X5.2352
G3 Y-0.8832 I0 J0.0078
G1 X5.2345
X5.2339 Z-0.0797
X5.2332 Z-0.0799
X5.2325 Z-0.08
X4.9717
X4.9716 Z-0.0449
X4.9467 Z-0.02
X4.7675
X4.7668 Z-0.0199
X4.7661 Z-0.0197
X4.7654 Z-0.0194
X4.7647
G2 Y-0.8676 I0 J0.0078
G1 X4.7654
X4.7661 Z-0.0197
X4.7668 Z-0.0199
X4.7675 Z-0.02
X4.9467
X4.9716 Z-0.0449
X4.9717 Z-0.08
X5.2325
X5.2332 Z-0.0799
X5.2339 Z-0.0797
X5.2345 Z-0.0794
X5.2352
G3 Y-0.852 I0 J0.0078
G1 X5.2345
X5.2339 Z-0.0797
X5.2332 Z-0.0799
X5.2325 Z-0.08
X4.9717
Z-0.0798
X4.9716 Z-0.0449
X4.9467 Z-0.02
X4.7675
X4.7668 Z-0.0199
X4.7661 Z-0.0197
X4.7654 Z-0.0194
X4.7647
G2 Y-0.8362 I0 J0.0079
G1 X4.7654 Y-0.8363
X4.7661 Z-0.0197
X4.7668 Z-0.0199
X4.7675 Z-0.02
X4.9467
X4.9716 Z-0.0449
X4.9717 Z-0.08
X5.2325
X5.2332 Z-0.0799
X5.2339 Z-0.0797
X5.2345 Z-0.0794
X5.2352
G3 Y-0.8207 I0 J0.0078
G1 X5.2345
X5.2339 Z-0.0797
X5.2332 Z-0.0799
X5.2325 Z-0.08
X4.9717
X4.9716 Z-0.0449
X4.9467 Z-0.02
X4.7675
X4.7668 Z-0.0199
X4.7661 Z-0.0197
X4.7654 Z-0.0194
X4.7647
G2 Y-0.8051 I0 J0.0078
G1 X4.7654
X4.7661 Z-0.0197
X4.7668 Z-0.0199
X4.7675 Z-0.02
X4.9467
X4.9716 Z-0.0449
Z-0.0451
X4.9717 Z-0.08
X5.2325
X5.2332 Z-0.0799
X5.2339 Z-0.0797
X5.2345 Z-0.0794
X5.2352
G3 Y-0.7895 I0 J0.0078
G1 X5.2345 Y-0.7894
X5.2339 Z-0.0797
X5.2332 Z-0.0799
X5.2325 Z-0.08
X4.9717
X4.9716 Z-0.0449
X4.9467 Z-0.02
X4.7675
X4.7668 Z-0.0199
X4.7661 Z-0.0197
X4.7654 Z-0.0194
X4.7647
G2 Y-0.7738 I0 J0.0078
G1 X4.7654
X4.7661 Z-0.0197
X4.7668 Z-0.0199
X4.7675 Z-0.02
X4.9467
X4.9716 Z-0.0449
X4.9717 Z-0.08
X5.2325
X5.2332 Z-0.0799
X5.2339 Z-0.0797
X5.2345 Z-0.0794
X5.2352
G3 Y-0.7582 I0 J0.0078
G1 X5.2345
X5.2339 Z-0.0797
X5.2332 Z-0.0799
X5.2325 Z-0.08
X4.9717
X4.9716 Z-0.0449
X4.9467 Z-0.02
X4.7675
X4.7668 Z-0.0199
X4.7661 Z-0.0197
X4.7654 Z-0.0194
X4.7647
G2 Y-0.7426 I0 J0.0078
G1 X4.7654
X4.7661 Z-0.0197
X4.7668 Z-0.0199
X4.7675 Z-0.02
X4.9467
X4.9716 Z-0.0449
X4.9717 Z-0.08
X5.2325
X5.2332 Z-0.0799
X5.2339 Z-0.0797
X5.2345 Z-0.0794
X5.2352
G3 Y-0.7268 I0 J0.0079
G1 X5.2345 Y-0.7269
X5.2339 Z-0.0797
X5.2332 Z-0.0799
X5.2325 Z-0.08
X4.9717
X4.9716 Z-0.0449
X4.9467 Z-0.02
X4.7675
X4.7668 Z-0.0199
X4.7661 Z-0.0197
X4.7654 Z-0.0194
X4.7647
G2 Y-0.7113 I0 J0.0078
G1 X4.7654
X4.7661 Z-0.0197
X4.7668 Z-0.0199
X4.7675 Z-0.02
X4.9467
X4.9716 Z-0.0449
X4.9717 Z-0.08
X5.2325
X5.2332 Z-0.0799
X5.2339 Z-0.0797
X5.2345 Z-0.0794
X5.2352
G3 Y-0.6957 I0 J0.0078
G1 X5.2345
X5.2339 Z-0.0797
X5.2332 Z-0.0799
X5.2325 Z-0.08
X4.9717
X4.9716 Z-0.0449
X4.9467 Z-0.02
X4.7675
X4.7668 Z-0.0199
X4.7661 Z-0.0197
X4.7654 Z-0.0194
X4.7647
G2 Y-0.6801 I0 J0.0078
G1 X4.7654 Y-0.68
X4.7661 Z-0.0197
X4.7668 Z-0.0199
X4.7675 Z-0.02
X4.9467
X4.9716 Z-0.0449
Z-0.0451
X4.9717 Z-0.08
X5.2325
X5.2332 Z-0.0799
X5.2339 Z-0.0797
X5.2345 Z-0.0794
X5.2352
G3 Y-0.6644 I0 J0.0078
G1 X5.2345
X5.2339 Z-0.0797
X5.2332 Z-0.0799
X5.2325 Z-0.08
X4.9717
X4.9716 Z-0.0449
X4.9467 Z-0.02
X4.7675
X4.7668 Z-0.0199
X4.7661 Z-0.0197
X4.7654 Z-0.0194
X4.7647
G2 Y-0.6488 I0 J0.0078
G1 X4.7654
X4.7661 Z-0.0197
X4.7668 Z-0.0199
X4.7675 Z-0.02
X4.9467
X4.9716 Z-0.0449
X4.9717 Z-0.08
X5.2325
X5.2332 Z-0.0799
X5.2339 Z-0.0797
X5.2345 Z-0.0794
X5.2352
G3 Y-0.6332 I0 J0.0078
G1 X5.2345 Y-0.6331
X5.2339 Z-0.0797
X5.2332 Z-0.0799
X5.2325 Z-0.08
X4.9717
X4.9716 Z-0.0449
X4.9467 Z-0.02
X4.7675
X4.7668 Z-0.0199
X4.7661 Z-0.0197
X4.7654 Z-0.0194
X4.7647
G2 Y-0.6175 I0 J0.0078
G1 X4.7654
X4.7661 Z-0.0197
X4.7668 Z-0.0199
X4.7675 Z-0.02
X4.9467
X4.9716 Z-0.0449
X4.9717 Z-0.08
X5.2325
X5.2332 Z-0.0799
X5.2339 Z-0.0797
X5.2345 Z-0.0794
X5.2352
G3 Y-0.6019 I0 J0.0078
G1 X5.2345
X5.2339 Z-0.0797
X5.2332 Z-0.0799
X5.2325 Z-0.08
X4.9717
Z-0.0798
X4.9716 Z-0.0449
X4.9467 Z-0.02
X4.7675
X4.7668 Z-0.0199
X4.7661 Z-0.0197
X4.7654 Z-0.0194
X4.7647
G2 Y-0.5863 I0 J0.0078
G1 X4.7654
X4.7661 Z-0.0197
X4.7668 Z-0.0199
X4.7675 Z-0.02
X4.9467
X4.9716 Z-0.0449
X4.9717 Z-0.08
X5.2325
X5.2332 Z-0.0799
X5.2339 Z-0.0797
X5.2345 Z-0.0794
X5.2352
G3 Y-0.5705 I0 J0.0079
G1 X5.2345 Y-0.5706
X5.2339 Z-0.0797
X5.2332 Z-0.0799
X5.2325 Z-0.08
X4.9717
X4.9716 Z-0.0449
X4.9467 Z-0.02
X4.7675
X4.7668 Z-0.0199
X4.7661 Z-0.0197
X4.7654 Z-0.0194
X4.7647
G2 Y-0.555 I0 J0.0078
G1 X4.7654
X4.7661 Z-0.0197
X4.7668 Z-0.0199
X4.7675 Z-0.02
X4.9467
X4.9716 Z-0.0449
X4.9717 Z-0.08
X5.2325
X5.2332 Z-0.0799
X5.2339 Z-0.0797
X5.2345 Z-0.0794
X5.2352
G3 Y-0.5394 I0 J0.0078
G1 X5.2345
X5.2339 Z-0.0797
X5.2332 Z-0.0799
X5.2325 Z-0.08
X4.9717
X4.9716 Z-0.0449
X4.9467 Z-0.02
X4.7675
X4.7668 Z-0.0199
X4.7661 Z-0.0197
X4.7654 Z-0.0194
X4.7647
G2 Y-0.5238 I0 J0.0078
G1 X4.7654 Y-0.5237
X4.7661 Z-0.0197
X4.7668 Z-0.0199
X4.7675 Z-0.02
X4.9467
X4.9716 Z-0.0449
X4.9717 Z-0.08
X5.2325
X5.2332 Z-0.0799
X5.2339 Z-0.0797
X5.2345 Z-0.0794
X5.2352
G3 Y-0.5081 I0 J0.0078
G1 X5.2345
X5.2339 Z-0.0797
X5.2332 Z-0.0799
X5.2325 Z-0.08
X4.9717
X4.9716 Z-0.0449
X4.9467 Z-0.02
X4.7675
X4.7668 Z-0.0199
X4.7661 Z-0.0197
X4.7654 Z-0.0194
X4.7647
G2 Y-0.4925 I0 J0.0078
G1 X4.7654
X4.7661 Z-0.0197
X4.7668 Z-0.0199
X4.7675 Z-0.02
X4.9467
X4.9716 Z-0.0449
X4.9717 Z-0.08
X5.2325
X5.2332 Z-0.0799
X5.2339 Z-0.0797
X5.2345 Z-0.0794
X5.2352
G3 Y-0.4769 I0 J0.0078
G1 X5.2345
X5.2339 Z-0.0797
X5.2332 Z-0.0799
X5.2325 Z-0.08
X4.9717
X4.9716 Z-0.0449
X4.9467 Z-0.02
X4.7675
X4.7668 Z-0.0199
X4.7661 Z-0.0197
X4.7654 Z-0.0194
X4.7647
G2 Y-0.4611 I0 J0.0079
G1 X4.7654 Y-0.4612
X4.7661 Z-0.0197
X4.7668 Z-0.0199
X4.7675 Z-0.02
X4.9467
X4.9716 Z-0.0449
X4.9717 Z-0.08
X5.2325
X5.2332 Z-0.0799
X5.2339 Z-0.0797
X5.2345 Z-0.0794
X5.2352
G3 Y-0.4456 I0 J0.0078
G1 X5.2345
X5.2339 Z-0.0797
X5.2332 Z-0.0799
X5.2325 Z-0.08
X4.9717
X4.9716 Z-0.0449
X4.9467 Z-0.02
X4.7675
X4.7668 Z-0.0199
X4.7661 Z-0.0197
X4.7654 Z-0.0194
X4.7647
G2 Y-0.43 I0 J0.0078
G1 X4.7654
X4.7661 Z-0.0197
X4.7668 Z-0.0199
X4.7675 Z-0.02
X4.9467
X4.9716 Z-0.0449
X4.9717 Z-0.08
X5.2325
X5.2332 Z-0.0799
X5.2339 Z-0.0797
X5.2345 Z-0.0794
X5.2352
G3 Y-0.4144 I0 J0.0078
G1 X5.2345 Y-0.4143
X5.2339 Z-0.0797
X5.2332 Z-0.0799
X5.2325 Z-0.08
X4.9717
X4.9716 Z-0.0449
X4.9467 Z-0.02
X4.7675
X4.7668 Z-0.0199
X4.7661 Z-0.0197
X4.7654 Z-0.0194
X4.7647
G2 Y-0.3987 I0 J0.0078
G1 X4.7654
X4.7661 Z-0.0197
X4.7668 Z-0.0199
X4.7675 Z-0.02
X4.9467
X4.9716 Z-0.0449
X4.9717 Z-0.08
X5.2325
X5.2332 Z-0.0799
X5.2339 Z-0.0797
X5.2345 Z-0.0794
X5.2352
G3 Y-0.3831 I0 J0.0078
G1 X5.2345
X5.2339 Z-0.0797
X5.2332 Z-0.0799
X5.2325 Z-0.08
X4.9717
X4.9716 Z-0.0449
X4.9467 Z-0.02
X4.7675
X4.7668 Z-0.0199
X4.7661 Z-0.0197
X4.7654 Z-0.0194
X4.7647
G2 Y-0.3675 I0 J0.0078
G1 X4.7654 Y-0.3674
X4.7661 Z-0.0197
X4.7668 Z-0.0199
X4.7675 Z-0.02
X4.9467
X4.9716 Z-0.0449
Z-0.0451
X4.9717 Z-0.08
X5.2325
X5.2332 Z-0.0799
X5.2339 Z-0.0797
X5.2345 Z-0.0794
X5.2352
G3 Y-0.3518 I0 J0.0078
G1 X5.2345
X5.2339 Z-0.0797
X5.2332 Z-0.0799
X5.2325 Z-0.08
X4.9717
X4.9716 Z-0.0449
X4.9467 Z-0.02
X4.7675
X4.7668 Z-0.0199
X4.7661 Z-0.0197
X4.7654 Z-0.0194
X4.7647
G2 Y-0.3362 I0 J0.0078
G1 X4.7654
X4.7661 Z-0.0197
X4.7668 Z-0.0199
X4.7675 Z-0.02
X4.9467
X4.9716 Z-0.0449
X4.9717 Z-0.08
X5.2325
X5.2332 Z-0.0799
X5.2339 Z-0.0797
X5.2345 Z-0.0794
X5.2352
G3 Y-0.3206 I0 J0.0078
G1 X5.2345
X5.2339 Z-0.0797
X5.2332 Z-0.0799
X5.2325 Z-0.08
X4.9717
X4.9716 Z-0.0449
X4.9467 Z-0.02
X4.7675
X4.7668 Z-0.0199
X4.7661 Z-0.0197
X4.7654 Z-0.0194
X4.7647
G2 Y-0.3048 I0 J0.0079
G1 X4.7654 Y-0.3049
X4.7661 Z-0.0197
X4.7668 Z-0.0199
X4.7675 Z-0.02
X4.9467
X4.9716 Z-0.0449
Z-0.0451
X4.9717 Z-0.08
X5.2325
X5.2332 Z-0.0799
X5.2339 Z-0.0797
X5.2345 Z-0.0794
X5.2352
G3 Y-0.2893 I0 J0.0078
G1 X5.2345
X5.2339 Z-0.0797
X5.2332 Z-0.0799
X5.2325 Z-0.08
X4.9717
X4.9716 Z-0.0449
X4.9467 Z-0.02
X4.7675
X4.7668 Z-0.0199
X4.7661 Z-0.0197
X4.7654 Z-0.0194
X4.7647
G2 Y-0.2737 I0 J0.0078
G1 X4.7654
X4.7661 Z-0.0197
X4.7668 Z-0.0199
X4.7675 Z-0.02
X4.9467
X4.9716 Z-0.0449
X4.9717 Z-0.08
X5.2325
X5.2332 Z-0.0799
X5.2339 Z-0.0797
X5.2345 Z-0.0794
X5.2352
G3 Y-0.2581 I0 J0.0078
G1 X5.2345 Y-0.258
X5.2339 Z-0.0797
X5.2332 Z-0.0799
X5.2325 Z-0.08
X4.9717
X4.9716 Z-0.0449
X4.9467 Z-0.02
X4.7675
X4.7668 Z-0.0199
X4.7661 Z-0.0197
X4.7654 Z-0.0194
X4.7647
G2 Y-0.2424 I0 J0.0078
G1 X4.7654
X4.7661 Z-0.0197
X4.7668 Z-0.0199
X4.7675 Z-0.02
X4.9467
X4.9716 Z-0.0449
X4.9717 Z-0.08
X5.2325
X5.2332 Z-0.0799
X5.2339 Z-0.0797
X5.2345 Z-0.0794
X5.2352
G3 Y-0.2268 I0 J0.0078
G1 X5.2345
X5.2339 Z-0.0797
X5.2332 Z-0.0799
X5.2325 Z-0.08
X4.9717
X4.9716 Z-0.0449
X4.9467 Z-0.02
X4.7675
X4.7668 Z-0.0199
X4.7661 Z-0.0197
X4.7654 Z-0.0194
X4.7647
G2 Y-0.2112 I0 J0.0078
G1 X4.7654
X4.7661 Z-0.0197
X4.7668 Z-0.0199
X4.7675 Z-0.02
X4.9467
X4.9716 Z-0.0449
X4.9717 Z-0.08
X5.2325
X5.2332 Z-0.0799
X5.2339 Z-0.0797
X5.2345 Z-0.0794
X5.2352
G3 Y-0.1954 I0 J0.0079
G1 X5.2345 Y-0.1955
X5.2339 Z-0.0797
X5.2332 Z-0.0799
X5.2325 Z-0.08
X4.9717
Z-0.0798
X4.9716 Z-0.0449
X4.9467 Z-0.02
X4.7675
X4.7668 Z-0.0199
X4.7661 Z-0.0197
X4.7654 Z-0.0194
X4.7647
G2 Y-0.1799 I0 J0.0078
G1 X4.7654
X4.7661 Z-0.0197
X4.7668 Z-0.0199
X4.7675 Z-0.02
X4.9467
X4.9716 Z-0.0449
Z-0.0451
X4.9717 Z-0.08
X5.2325
X5.2332 Z-0.0799
X5.2339 Z-0.0797
X5.2345 Z-0.0794
X5.2352
G3 Y-0.1643 I0 J0.0078
G1 X5.2345
X5.2339 Z-0.0797
X5.2332 Z-0.0799
X5.2325 Z-0.08
X4.9717
X4.9716 Z-0.0449
X4.9467 Z-0.02
X4.7675
X4.7668 Z-0.0199
X4.7661 Z-0.0197
X4.7654 Z-0.0194
X4.7647
G2 Y-0.1487 I0 J0.0078
G1 X4.7654 Y-0.1486
X4.7661 Z-0.0197
X4.7668 Z-0.0199
X4.7675 Z-0.02
X4.9467
X4.9716 Z-0.0449
X4.9717 Z-0.08
X5.2325
X5.2332 Z-0.0799
X5.2339 Z-0.0797
X5.2345 Z-0.0794
X5.2352
G3 Y-0.133 I0 J0.0078
G1 X5.2345
X5.2339 Z-0.0797
X5.2332 Z-0.0799
X5.2325 Z-0.08
X4.9717
X4.9716 Z-0.0449
X4.9467 Z-0.02
X4.7675
X4.7668 Z-0.0199
X4.7661 Z-0.0197
X4.7654 Z-0.0194
X4.7647
G2 Y-0.1174 I0 J0.0078
G1 X4.7654
X4.7661 Z-0.0197
X4.7668 Z-0.0199
X4.7675 Z-0.02
X4.9467
X4.9716 Z-0.0449
X4.9717 Z-0.08
X5.2325
X5.2332 Z-0.0799
X5.2339 Z-0.0797
X5.2345 Z-0.0794
X5.2352
G3 Y-0.1018 I0 J0.0078
G1 X5.2345 Y-0.1017
X5.2339 Z-0.0797
X5.2332 Z-0.0799
X5.2325 Z-0.08
X4.9717
X4.9716 Z-0.0449
X4.9467 Z-0.02
X4.7675
X4.7668 Z-0.0199
X4.7661 Z-0.0197
X4.7654 Z-0.0194
X4.7647
G2 Y-0.0861 I0 J0.0078
G1 X4.7654
X4.7661 Z-0.0197
X4.7668 Z-0.0199
X4.7675 Z-0.02
X4.9467
X4.9716 Z-0.0449
Z-0.0451
X4.9717 Z-0.08
X5.2325
X5.2332 Z-0.0799
X5.2339 Z-0.0797
X5.2345 Z-0.0794
X5.2352
G3 Y-0.0705 I0 J0.0078
G1 X5.2345
X5.2339 Z-0.0797
X5.2332 Z-0.0799
X5.2325 Z-0.08
X4.9717
X4.9716 Z-0.0449
X4.9467 Z-0.02
X4.7675
X4.7668 Z-0.0199
X4.7661 Z-0.0197
X4.7654 Z-0.0194
X4.7647
G2 Y-0.0549 I0 J0.0078
G1 X4.7654
X4.7661 Z-0.0197
X4.7668 Z-0.0199
X4.7675 Z-0.02
X4.9467
X4.9716 Z-0.0449
X4.9717 Z-0.08
X5.2325
X5.2332 Z-0.0799
X5.2339 Z-0.0797
X5.2345 Z-0.0794
X5.2352
G3 X5.2353 Y-0.0391 I0 J0.0079
G1 X5.2345 Y-0.0392
X5.2339 Z-0.0797
X5.2332 Z-0.0799
X5.2325 Z-0.08
X4.9717
X4.9716 Z-0.0449
X4.9467 Z-0.02
X4.7675
X4.7668 Z-0.0199
X4.7661 Z-0.0197
X4.7654 Z-0.0194
X4.7647
G2 Y-0.0236 I0 J0.0078
G1 X4.7654
X4.7661 Z-0.0197
X4.7668 Z-0.0199
X4.7675 Z-0.02
X4.9467
X4.9716 Z-0.0449
X4.9717 Z-0.08
X5.2325
X5.2332 Z-0.0799
X5.2339 Z-0.0797
X5.2345 Z-0.0794
X5.2353
G3 Y-0.008 I0 J0.0078
G1 X5.2345
X5.2339 Z-0.0797
X5.2332 Z-0.0799
X5.2325 Z-0.08
X4.9717
X4.9716 Z-0.0449
X4.9467 Z-0.02
X4.7675
X4.7668 Z-0.0199
X4.7661 Z-0.0197
X4.7654 Z-0.0194
X4.7647
G2 Y0.0076 I0 J0.0078
G1 X4.7654 Y0.0077
X4.7661 Z-0.0197
X4.7668 Z-0.0199
X4.7675 Z-0.02
X4.9467
X4.9716 Z-0.0449
X4.9717 Z-0.08
X5.2325
X5.2332 Z-0.0799
X5.2339 Z-0.0797
X5.2345 Z-0.0794
X5.2353
G3 Y0.0233 I0 J0.0078
G1 X5.2345
X5.2339 Z-0.0797
X5.2332 Z-0.0799
X5.2325 Z-0.08
X4.9717
X4.9716 Z-0.0449
X4.9467 Z-0.02
X4.7675
X4.7668 Z-0.0199
X4.7661 Z-0.0197
X4.7654 Z-0.0194
X4.7647
G2 Y0.0389 I0 J0.0078
G1 X4.7654
X4.7661 Z-0.0197
X4.7668 Z-0.0199
X4.7675 Z-0.02
X4.9467
X4.9716 Z-0.0449
Z-0.0451
X4.9717 Z-0.08
X5.2325
X5.2332 Z-0.0799
X5.2339 Z-0.0797
X5.2345 Z-0.0794
X5.2353
G3 Y0.0545 I0 J0.0078
G1 X5.2345
X5.2339 Z-0.0797
X5.2332 Z-0.0799
X5.2325 Z-0.08
X4.9717
X4.9716 Z-0.0449
X4.9467 Z-0.02
X4.7675
X4.7668 Z-0.0199
X4.7661 Z-0.0197
X4.7654 Z-0.0194
X4.7647
G2 Y0.0703 I0 J0.0079
G1 X4.7654 Y0.0702
X4.7661 Z-0.0197
X4.7668 Z-0.0199
X4.7675 Z-0.02
X4.9467
X4.9716 Z-0.0449
Z-0.0451
X4.9717 Z-0.08
X5.2325
X5.2332 Z-0.0799
X5.2339 Z-0.0797
X5.2345 Z-0.0794
X5.2353
G3 Y0.0858 I0 J0.0078
G1 X5.2345
X5.2339 Z-0.0797
X5.2332 Z-0.0799
X5.2325 Z-0.08
X4.9717
X4.9716 Z-0.0449
X4.9467 Z-0.02
X4.7675
X4.7668 Z-0.0199
X4.7661 Z-0.0197
X4.7654 Z-0.0194
X4.7647
G2 Y0.1014 I0 J0.0078
G1 X4.7654
X4.7661 Z-0.0197
X4.7668 Z-0.0199
X4.7675 Z-0.02
X4.9467
X4.9716 Z-0.0449
Z-0.0451
X4.9717 Z-0.08
X5.2325
X5.2332 Z-0.0799
X5.2339 Z-0.0797
X5.2345 Z-0.0794
X5.2353
G3 Y0.117 I0 J0.0078
G1 X5.2345 Y0.1171
X5.2339 Z-0.0797
X5.2332 Z-0.0799
X5.2325 Z-0.08
X4.9717
X4.9716 Z-0.0449
X4.9467 Z-0.02
X4.7675
X4.7668 Z-0.0199
X4.7661 Z-0.0197
X4.7654 Z-0.0194
X4.7647
G2 Y0.1327 I0 J0.0078
G1 X4.7654
X4.7661 Z-0.0197
X4.7668 Z-0.0199
X4.7675 Z-0.02
X4.9467
X4.9716 Z-0.0449
Z-0.0451
X4.9717 Z-0.08
X5.2325
X5.2332 Z-0.0799
X5.2339 Z-0.0797
X5.2345 Z-0.0794
X5.2353
G3 Y0.1483 I0 J0.0078
G1 X5.2345
X5.2339 Z-0.0797
X5.2332 Z-0.0799
X5.2325 Z-0.08
X4.9717
X4.9716 Z-0.0449
X4.9467 Z-0.02
X4.7675
X4.7668 Z-0.0199
X4.7661 Z-0.0197
X4.7654 Z-0.0194
X4.7647
G2 Y0.1639 I0 J0.0078
G1 X4.7654 Y0.164
X4.7661 Z-0.0197
X4.7668 Z-0.0199
X4.7675 Z-0.02
X4.9467
X4.9716 Z-0.0449
X4.9717 Z-0.08
X5.2325
X5.2332 Z-0.0799
X5.2339 Z-0.0797
X5.2345 Z-0.0794
X5.2353
G3 Y0.1796 I0 J0.0078
G1 X5.2345
X5.2339 Z-0.0797
X5.2332 Z-0.0799
X5.2325 Z-0.08
X4.9717
Z-0.0798
X4.9716 Z-0.0449
X4.9467 Z-0.02
X4.7675
X4.7668 Z-0.0199
X4.7661 Z-0.0197
X4.7654 Z-0.0194
X4.7647
G2 Y0.1952 I0 J0.0078
G1 X4.7654
X4.7661 Z-0.0197
X4.7668 Z-0.0199
X4.7675 Z-0.02
X4.9467
X4.9716 Z-0.0449
X4.9717 Z-0.08
X5.2325
X5.2332 Z-0.0799
X5.2339 Z-0.0797
X5.2345 Z-0.0794
X5.2353
G3 Y0.2108 I0 J0.0078
G1 X5.2345
X5.2339 Z-0.0797
X5.2332 Z-0.0799
X5.2325 Z-0.08
X4.9717
X4.9716 Z-0.0449
X4.9467 Z-0.02
X4.7675
X4.7668 Z-0.0199
X4.7661 Z-0.0197
X4.7654 Z-0.0194
X4.7647
G2 Y0.2266 I0 J0.0079
G1 X4.7654 Y0.2265
X4.7661 Z-0.0197
X4.7668 Z-0.0199
X4.7675 Z-0.02
X4.9467
X4.9716 Z-0.0449
X4.9717 Z-0.08
X5.2325
X5.2332 Z-0.0799
X5.2339 Z-0.0797
X5.2345 Z-0.0794
X5.2353
G3 Y0.2421 I0 J0.0078
G1 X5.2345
X5.2339 Z-0.0797
X5.2332 Z-0.0799
X5.2325 Z-0.08
X4.9717
X4.9716 Z-0.0449
X4.9467 Z-0.02
X4.7675
X4.7668 Z-0.0199
X4.7661 Z-0.0197
X4.7654 Z-0.0194
X4.7647
G2 Y0.2577 I0 J0.0078
G1 X4.7654
X4.7661 Z-0.0197
X4.7668 Z-0.0199
X4.7675 Z-0.02
X4.9467
X4.9716 Z-0.0449
X4.9717 Z-0.08
X5.2325
X5.2332 Z-0.0799
X5.2339 Z-0.0797
X5.2345 Z-0.0794
X5.2353
G3 Y0.2733 I0 J0.0078
G1 X5.2345 Y0.2734
X5.2339 Z-0.0797
X5.2332 Z-0.0799
X5.2325 Z-0.08
X4.9717
X4.9716 Z-0.0449
X4.9467 Z-0.02
X4.7675
X4.7668 Z-0.0199
X4.7661 Z-0.0197
X4.7654 Z-0.0194
X4.7647
G2 Y0.289 I0 J0.0078
G1 X4.7654
X4.7661 Z-0.0197
X4.7668 Z-0.0199
X4.7675 Z-0.02
X4.9467
X4.9716 Z-0.0449
X4.9717 Z-0.08
X5.2325
X5.2332 Z-0.0799
X5.2339 Z-0.0797
X5.2345 Z-0.0794
X5.2353
G3 Y0.3046 I0 J0.0078
G1 X5.2345
X5.2339 Z-0.0797
X5.2332 Z-0.0799
X5.2325 Z-0.08
X4.9717
X4.9716 Z-0.0449
X4.9467 Z-0.02
X4.7675
X4.7668 Z-0.0199
X4.7661 Z-0.0197
X4.7654 Z-0.0194
X4.7647
G2 Y0.3202 I0 J0.0078
G1 X4.7654
X4.7661 Z-0.0197
X4.7668 Z-0.0199
X4.7675 Z-0.02
X4.9467
X4.9716 Z-0.0449
X4.9717 Z-0.08
X5.2325
X5.2332 Z-0.0799
X5.2339 Z-0.0797
X5.2345 Z-0.0794
X5.2353
G3 Y0.336 I0 J0.0079
G1 X5.2345 Y0.3359
X5.2339 Z-0.0797
X5.2332 Z-0.0799
X5.2325 Z-0.08
X4.9717
X4.9716 Z-0.0449
X4.9467 Z-0.02
X4.7675
X4.7668 Z-0.0199
X4.7661 Z-0.0197
X4.7654 Z-0.0194
X4.7647
G2 Y0.3515 I0 J0.0078
G1 X4.7654
X4.7661 Z-0.0197
X4.7668 Z-0.0199
X4.7675 Z-0.02
X4.9467
X4.9716 Z-0.0449
X4.9717 Z-0.08
X5.2325
X5.2332 Z-0.0799
X5.2339 Z-0.0797
X5.2346 Z-0.0794
X5.2353
G3 Y0.3671 I0 J0.0078
G1 X5.2346
X5.2339 Z-0.0797
X5.2332 Z-0.0799
X5.2325 Z-0.08
X4.9717
X4.9716 Z-0.0449
X4.9467 Z-0.02
X4.7675
X4.7668 Z-0.0199
X4.7661 Z-0.0197
X4.7654 Z-0.0194
X4.7647
G2 Y0.3827 I0 J0.0078
G1 X4.7654 Y0.3828
X4.7661 Z-0.0197
X4.7668 Z-0.0199
X4.7675 Z-0.02
X4.9467
X4.9716 Z-0.0449
Z-0.0451
X4.9717 Z-0.08
X5.2325
X5.2332 Z-0.0799
X5.2339 Z-0.0797
X5.2346 Z-0.0794
X5.2353
G3 Y0.3984 I0 J0.0078
G1 X5.2346
X5.2339 Z-0.0797
X5.2332 Z-0.0799
X5.2325 Z-0.08
X4.9717
X4.9716 Z-0.0449
X4.9467 Z-0.02
X4.7675
X4.7668 Z-0.0199
X4.7661 Z-0.0197
X4.7654 Z-0.0194
X4.7647
G2 Y0.414 I0 J0.0078
G1 X4.7654
X4.7661 Z-0.0197
X4.7668 Z-0.0199
X4.7675 Z-0.02
X4.9467
X4.9716 Z-0.0449
X4.9717 Z-0.08
X5.2325
X5.2332 Z-0.0799
X5.2339 Z-0.0797
X5.2346 Z-0.0794
X5.2353
G3 Y0.4296 I0 J0.0078
G1 X5.2346 Y0.4297
X5.2339 Z-0.0797
X5.2332 Z-0.0799
X5.2325 Z-0.08
X4.9717
X4.9716 Z-0.0449
X4.9467 Z-0.02
X4.7675
X4.7668 Z-0.0199
X4.7661 Z-0.0197
X4.7654 Z-0.0194
X4.7647
G2 Y0.4453 I0 J0.0078
G1 X4.7654
X4.7661 Z-0.0197
X4.7668 Z-0.0199
X4.7675 Z-0.02
X4.9467
X4.9716 Z-0.0449
X4.9717 Z-0.08
X5.2325
X5.2332 Z-0.0799
X5.2339 Z-0.0797
X5.2346 Z-0.0794
X5.2353
G3 Y0.4609 I0 J0.0078
G1 X5.2346
X5.2339 Z-0.0797
X5.2332 Z-0.0799
X5.2325 Z-0.08
X4.9717
Z-0.0798
X4.9716 Z-0.0449
X4.9467 Z-0.02
X4.7675
X4.7668 Z-0.0199
X4.7661 Z-0.0197
X4.7654 Z-0.0194
X4.7647
G2 Y0.4765 I0 J0.0078
G1 X4.7654
X4.7661 Z-0.0197
X4.7668 Z-0.0199
X4.7675 Z-0.02
X4.9467
X4.9716 Z-0.0449
Z-0.0451
X4.9717 Z-0.08
X5.2325
X5.2332 Z-0.0799
X5.2339 Z-0.0797
X5.2346 Z-0.0794
X5.2353
G3 Y0.4923 I0 J0.0079
G1 X5.2346 Y0.4922
X5.2339 Z-0.0797
X5.2332 Z-0.0799
X5.2325 Z-0.08
X4.9717
X4.9716 Z-0.0449
X4.9467 Z-0.02
X4.7675
X4.7668 Z-0.0199
X4.7661 Z-0.0197
X4.7654 Z-0.0194
X4.7647
G2 Y0.5078 I0 J0.0078
G1 X4.7654
X4.7661 Z-0.0197
X4.7668 Z-0.0199
X4.7675 Z-0.02
X4.9467
X4.9716 Z-0.0449
X4.9717 Z-0.08
X5.2325
X5.2332 Z-0.0799
X5.2339 Z-0.0797
X5.2346 Z-0.0794
X5.2353
G3 Y0.5234 I0 J0.0078
G1 X5.2346
X5.2339 Z-0.0797
X5.2332 Z-0.0799
X5.2325 Z-0.08
X4.9717
X4.9716 Z-0.0449
X4.9467 Z-0.02
X4.7675
X4.7668 Z-0.0199
X4.7661 Z-0.0197
X4.7654 Z-0.0194
X4.7647
G2 Y0.539 I0 J0.0078
G1 X4.7654 Y0.5391
X4.7661 Z-0.0197
X4.7668 Z-0.0199
X4.7675 Z-0.02
X4.9467
X4.9716 Z-0.0449
X4.9717 Z-0.08
X5.2325
X5.2332 Z-0.0799
X5.2339 Z-0.0797
X5.2346 Z-0.0794
X5.2353
G3 Y0.5547 I0 J0.0078
G1 X5.2346
X5.2339 Z-0.0797
X5.2332 Z-0.0799
X5.2325 Z-0.08
X4.9717
Z-0.0449
X4.9467 Z-0.02
X4.7675
X4.7668 Z-0.0199
X4.7661 Z-0.0197
X4.7654 Z-0.0194
X4.7647
G2 Y0.5703 I0 J0.0078
G1 X4.7654
X4.7661 Z-0.0197
X4.7668 Z-0.0199
X4.7675 Z-0.02
X4.9467
X4.9717 Z-0.0449
Z-0.0451
Z-0.08
X5.2325
X5.2332 Z-0.0799
X5.2339 Z-0.0797
X5.2346 Z-0.0794
X5.2353
G3 Y0.5859 I0 J0.0078
G1 X5.2346
X5.2339 Z-0.0797
X5.2332 Z-0.0799
X5.2325 Z-0.08
X4.9717
Z-0.0449
X4.9467 Z-0.02
X4.7675
X4.7668 Z-0.0199
X4.7661 Z-0.0197
X4.7654 Z-0.0194
X4.7647
G2 Y0.6017 I0 J0.0079
G1 X4.7654 Y0.6016
X4.7661 Z-0.0197
X4.7668 Z-0.0199
X4.7675 Z-0.02
X4.9467
X4.9717 Z-0.0449
Z-0.08
X5.2325
X5.2332 Z-0.0799
X5.2339 Z-0.0797
X5.2346 Z-0.0794
X5.2353
G3 Y0.6172 I0 J0.0078
G1 X5.2346
X5.2339 Z-0.0797
X5.2332 Z-0.0799
X5.2325 Z-0.08
X4.9717
Z-0.0449
X4.9467 Z-0.02
X4.7675
X4.7668 Z-0.0199
X4.7661 Z-0.0197
X4.7654 Z-0.0194
X4.7647
G2 Y0.6328 I0 J0.0078
G1 X4.7654
X4.7661 Z-0.0197
X4.7668 Z-0.0199
X4.7675 Z-0.02
X4.9467
X4.9717 Z-0.0449
Z-0.08
X5.2325
X5.2332 Z-0.0799
X5.2339 Z-0.0797
X5.2346 Z-0.0794
X5.2353
G3 Y0.6484 I0 J0.0078
G1 X5.2346 Y0.6485
X5.2339 Z-0.0797
X5.2332 Z-0.0799
X5.2325 Z-0.08
X4.9717
Z-0.0449
X4.9467 Z-0.02
X4.7675
X4.7668 Z-0.0199
X4.7661 Z-0.0197
X4.7654 Z-0.0194
X4.7647
G2 Y0.6641 I0 J0.0078
G1 X4.7654
X4.7661 Z-0.0197
X4.7668 Z-0.0199
X4.7675 Z-0.02
X4.9467
X4.9717 Z-0.0449
Z-0.08
X5.2325
X5.2332 Z-0.0799
X5.2339 Z-0.0797
X5.2346 Z-0.0794
X5.2353
G3 Y0.6797 I0 J0.0078
G1 X5.2346
X5.2339 Z-0.0797
X5.2332 Z-0.0799
X5.2325 Z-0.08
X4.9717
Z-0.0449
X4.9467 Z-0.02
X4.7675
X4.7668 Z-0.0199
X4.7661 Z-0.0197
X4.7654 Z-0.0194
X4.7647
G2 Y0.6953 I0 J0.0078
G1 X4.7654 Y0.6954
X4.7661 Z-0.0197
X4.7668 Z-0.0199
X4.7675 Z-0.02
X4.9467
X4.9717 Z-0.0449
Z-0.08
X5.2325
X5.2332 Z-0.0799
X5.2339 Z-0.0797
X5.2346 Z-0.0794
X5.2353
G3 Y0.711 I0 J0.0078
G1 X5.2346
X5.2339 Z-0.0797
X5.2332 Z-0.0799
X5.2325 Z-0.08
X4.9717
Z-0.0449
X4.9467 Z-0.02
X4.7675
X4.7668 Z-0.0199
X4.7661 Z-0.0197
X4.7654 Z-0.0194
X4.7647
G2 Y0.7266 I0 J0.0078
G1 X4.7654
X4.7661 Z-0.0197
X4.7668 Z-0.0199
X4.7675 Z-0.02
X4.9467
X4.9717 Z-0.0449
Z-0.08
X5.2325
X5.2332 Z-0.0799
X5.2339 Z-0.0797
X5.2346 Z-0.0794
X5.2353
G3 Y0.7422 I0 J0.0078
G1 X5.2346
X5.2339 Z-0.0797
X5.2332 Z-0.0799
X5.2325 Z-0.08
X4.9717
Z-0.0449
X4.9467 Z-0.02
X4.7675
X4.7668 Z-0.0199
X4.7661 Z-0.0197
X4.7654 Z-0.0194
X4.7647
G2 Y0.758 I0 J0.0079
G1 X4.7654 Y0.7579
X4.7661 Z-0.0197
X4.7668 Z-0.0199
X4.7675 Z-0.02
X4.9467
X4.9717 Z-0.0449
Z-0.08
X5.2325
X5.2332 Z-0.0799
X5.2339 Z-0.0797
X5.2346 Z-0.0794
X5.2353
G3 Y0.7735 I0 J0.0078
G1 X5.2346
X5.2339 Z-0.0797
X5.2332 Z-0.0799
X5.2325 Z-0.08
X4.9717
Z-0.0449
X4.9467 Z-0.02
X4.7675
X4.7668 Z-0.0199
X4.7661 Z-0.0197
X4.7654 Z-0.0194
X4.7647
G2 Y0.7891 I0 J0.0078
G1 X4.7654
X4.7661 Z-0.0197
X4.7668 Z-0.0199
X4.7675 Z-0.02
X4.9467
X4.9717 Z-0.0449
Z-0.08
X5.2325
X5.2332 Z-0.0799
X5.2339 Z-0.0797
X5.2346 Z-0.0794
X5.2353
G3 Y0.8047 I0 J0.0078
G1 X5.2346 Y0.8048
X5.2339 Z-0.0797
X5.2332 Z-0.0799
X5.2325 Z-0.08
X4.9717
Z-0.0798
Z-0.0449
X4.9467 Z-0.02
X4.7675
X4.7668 Z-0.0199
X4.7661 Z-0.0197
X4.7654 Z-0.0194
X4.7647
G2 Y0.8204 I0 J0.0078
G1 X4.7654
X4.7661 Z-0.0197
X4.7668 Z-0.0199
X4.7675 Z-0.02
X4.9467
X4.9717 Z-0.0449
Z-0.08
X5.2325
X5.2332 Z-0.0799
X5.2339 Z-0.0797
X5.2346 Z-0.0794
X5.2353
G3 Y0.836 I0 J0.0078
G1 X5.2346
X5.2339 Z-0.0797
X5.2332 Z-0.0799
X5.2325 Z-0.08
X4.9717
Z-0.0449
X4.9467 Z-0.02
X4.7675
X4.7668 Z-0.0199
X4.7661 Z-0.0197
X4.7654 Z-0.0194
X4.7647
G2 Y0.8516 I0 J0.0078
G1 X4.7654
X4.7661 Z-0.0197
X4.7668 Z-0.0199
X4.7675 Z-0.02
X4.9467
X4.9717 Z-0.0449
Z-0.08
X5.2325
X5.2332 Z-0.0799
X5.2339 Z-0.0797
X5.2346 Z-0.0794
X5.2353
G3 Y0.8674 I0 J0.0079
G1 X5.2346 Y0.8673
X5.2339 Z-0.0797
X5.2332 Z-0.0799
X5.2325 Z-0.08
X4.9717
Z-0.0449
X4.9467 Z-0.02
X4.7675
X4.7668 Z-0.0199
X4.7661 Z-0.0197
X4.7654 Z-0.0194
X4.7647
G2 Y0.8829 I0 J0.0078
G1 X4.7654
X4.7661 Z-0.0197
X4.7668 Z-0.0199
X4.7675 Z-0.02
X4.9467
X4.9717 Z-0.0449
Z-0.08
X5.2325
X5.2332 Z-0.0799
X5.2339 Z-0.0797
X5.2346 Z-0.0794
X5.2353
G3 Y0.8985 I0 J0.0078
G1 X5.2346
X5.2339 Z-0.0797
X5.2332 Z-0.0799
X5.2325 Z-0.08
X4.9717
Z-0.0449
X4.9467 Z-0.02
X4.7675
X4.7668 Z-0.0199
X4.7661 Z-0.0197
X4.7654 Z-0.0194
X4.7647
G2 Y0.9141 I0 J0.0078
G1 X4.7654 Y0.9142
X4.7661 Z-0.0197
X4.7668 Z-0.0199
X4.7675 Z-0.02
X4.9467
X4.9717 Z-0.0449
Z-0.0451
Z-0.08
X5.2325
X5.2332 Z-0.0799
X5.2339 Z-0.0797
X5.2346 Z-0.0794
X5.2353
G3 Y0.9298 I0 J0.0078
G1 X5.2346
X5.2339 Z-0.0797
X5.2332 Z-0.0799
X5.2325 Z-0.08
X4.9717
Z-0.0449
X4.9467 Z-0.02
X4.7675
X4.7668 Z-0.0199
X4.7661 Z-0.0197
X4.7654 Z-0.0194
X4.7647
G2 Y0.9454 I0 J0.0078
G1 X4.7654
X4.7661 Z-0.0197
X4.7668 Z-0.0199
X4.7675 Z-0.02
X4.9467
X4.9717 Z-0.0449
Z-0.08
X5.2325
X5.2332 Z-0.0799
X5.2339 Z-0.0797
X5.2346 Z-0.0794
X5.2353
G3 Y0.961 I0 J0.0078
G1 X5.2346 Y0.9611
X5.2339 Z-0.0797
X5.2332 Z-0.0799
X5.2325 Z-0.08
X4.9717
Z-0.0449
X4.9467 Z-0.02
X4.7675
X4.7668 Z-0.0199
X4.7661 Z-0.0197
X4.7654 Z-0.0194
X4.7647
G2 Y0.9767 I0 J0.0078
G1 X4.7654
X4.7661 Z-0.0197
X4.7668 Z-0.0199
X4.7675 Z-0.02
X4.9467
X4.9717 Z-0.0449
Z-0.08
X5.2325
X5.2332 Z-0.0799
X5.2339 Z-0.0797
X5.2346 Z-0.0794
X5.2353
G3 Y0.9923 I0 J0.0078
G1 X5.2346
X5.2339 Z-0.0797
X5.2332 Z-0.0799
X5.2325 Z-0.08
X4.9717
Z-0.0798
Z-0.0449
X4.9467 Z-0.02
X4.7675
X4.7668 Z-0.0199
X4.7661 Z-0.0197
X4.7654 Z-0.0194
X4.7647
G2 Y1.0079 I0 J0.0078
G1 X4.7654
X4.7661 Z-0.0197
X4.7668 Z-0.0199
X4.7675 Z-0.02
X4.9467
X4.9717 Z-0.0449
Z-0.08
X5.2325
X5.2332 Z-0.0799
X5.2339 Z-0.0797
X5.2346 Z-0.0794
X5.2353
G3 Y1.0237 I0 J0.0079
G1 X5.2346 Y1.0236
X5.2339 Z-0.0797
X5.2332 Z-0.0799
X5.2325 Z-0.08
X4.9717
Z-0.0449
X4.9467 Z-0.02
X4.7675
X4.7668 Z-0.0199
X4.7661 Z-0.0197
X4.7654 Z-0.0194
X4.7647
G2 Y1.0392 I0 J0.0078
G1 X4.7654
X4.7661 Z-0.0197
X4.7668 Z-0.0199
X4.7675 Z-0.02
X4.9467
X4.9717 Z-0.0449
Z-0.0451
Z-0.08
X5.2325
X5.2332 Z-0.0799
X5.2339 Z-0.0797
X5.2346 Z-0.0794
X5.2353
G3 Y1.0548 I0 J0.0078
G1 X5.2346
X5.2339 Z-0.0797
X5.2332 Z-0.0799
X5.2325 Z-0.08
X4.9717
Z-0.0798
Z-0.0449
X4.9467 Z-0.02
X4.7675
X4.7668 Z-0.0199
X4.7661 Z-0.0197
X4.7654 Z-0.0194
X4.7647
G2 Y1.0704 I0 J0.0078
G1 X4.7654 Y1.0705
X4.7661 Z-0.0197
X4.7668 Z-0.0199
X4.7675 Z-0.02
X4.9467
X4.9717 Z-0.0449
Z-0.08
X5.2325
X5.2332 Z-0.0799
X5.2339 Z-0.0797
X5.2346 Z-0.0794
X5.2353
G3 Y1.0861 I0 J0.0078
G1 X5.2346
X5.2339 Z-0.0797
X5.2332 Z-0.0799
X5.2325 Z-0.08
X4.9717
Z-0.0449
X4.9467 Z-0.02
X4.7675
X4.7668 Z-0.0199
X4.7661 Z-0.0197
X4.7654 Z-0.0194
X4.7647
G2 Y1.1017 I0 J0.0078
G1 X4.7654
X4.7661 Z-0.0197
X4.7668 Z-0.0199
X4.7675 Z-0.02
X4.9467
X4.9717 Z-0.0449
Z-0.08
X5.2325
X5.2332 Z-0.0799
X5.2339 Z-0.0797
X5.2346 Z-0.0794
X5.2353
G3 Y1.1173 I0 J0.0078
G1 X5.2346
X5.2339 Z-0.0797
X5.2332 Z-0.0799
X5.2325 Z-0.08
X4.9717
Z-0.0449
X4.9467 Z-0.02
X4.7675
X4.7668 Z-0.0199
X4.7661 Z-0.0197
X4.7654 Z-0.0194
X4.7647
G2 Y1.1331 I0 J0.0079
G1 X4.7654 Y1.133
X4.7661 Z-0.0197
X4.7668 Z-0.0199
X4.7675 Z-0.02
X4.9467
X4.9717 Z-0.0449
Z-0.08
X5.2325
X5.2332 Z-0.0799
X5.2339 Z-0.0797
X5.2346 Z-0.0794
X5.2353
G3 Y1.1486 I0 J0.0078
G1 X5.2346
X5.2339 Z-0.0797
X5.2332 Z-0.0799
X5.2325 Z-0.08
X4.9717
Z-0.0449
X4.9467 Z-0.02
X4.7675
X4.7668 Z-0.0199
X4.7661 Z-0.0197
X4.7654 Z-0.0194
X4.7647
G2 Y1.1642 I0 J0.0078
G1 X4.7654
X4.7661 Z-0.0197
X4.7668 Z-0.0199
X4.7675 Z-0.02
X4.9467
X4.9717 Z-0.0449
Z-0.08
X5.2325
X5.2332 Z-0.0799
X5.2339 Z-0.0797
X5.2346 Z-0.0794
X5.2353
G3 Y1.1798 I0 J0.0078
G1 X5.2346 Y1.1799
X5.2339 Z-0.0797
X5.2332 Z-0.0799
X5.2325 Z-0.08
X4.9717
Z-0.0449
X4.9467 Z-0.02
X4.7675
X4.7668 Z-0.0199
X4.7661 Z-0.0197
X4.7654 Z-0.0194
X4.7647
G2 Y1.1955 I0 J0.0078
G1 X4.7654
X4.7661 Z-0.0197
X4.7668 Z-0.0199
X4.7675 Z-0.02
X4.9467
X4.9717 Z-0.0449
Z-0.0451
Z-0.08
X5.2325
X5.2332 Z-0.0799
X5.2339 Z-0.0797
X5.2346 Z-0.0794
X5.2353
G3 Y1.2111 I0 J0.0078
G1 X5.2346
X5.2339 Z-0.0797
X5.2332 Z-0.0799
X5.2325 Z-0.08
X4.9717
Z-0.0449
X4.9467 Z-0.02
X4.7675
X4.7668 Z-0.0199
X4.7661 Z-0.0197
X4.7654 Z-0.0194
X4.7647
X4.7644
G2 Y1.2267 I0 J0.0078
G1 X4.7651 Y1.2268
X4.7658 Z-0.0197
X4.7665 Z-0.0199
X4.7672 Z-0.02
X4.9464
X4.9715 Z-0.045
Z-0.08
X5.2323
X5.233 Z-0.0799
X5.2336 Z-0.0797
X5.2343 Z-0.0794
X5.235
G3 Y1.2424 I0 J0.0078
G1 X5.2347
X5.234
X5.2334 Z-0.0797
X5.2327 Z-0.0799
X5.232 Z-0.08
X4.9712
X4.971 Z-0.0449
X4.9461 Z-0.02
X4.7668
X4.7661 Z-0.0199
X4.7655 Z-0.0197
X4.7648 Z-0.0194
X4.7641
X4.7633
G2 Y1.258 I0 J0.0078
G1 X4.764
X4.7647 Z-0.0197
X4.7653 Z-0.0199
X4.766 Z-0.02
X4.9455
X4.9705 Z-0.0449
X4.9706 Z-0.08
X5.2317
X5.2324 Z-0.0799
X5.233 Z-0.0797
X5.2337 Z-0.0794
X5.2344
G3 Y1.2736 I0 J0.0078
G1 X5.2336
X5.2329
X5.2322 Z-0.0797
X5.2315 Z-0.0799
X5.2308 Z-0.08
X4.9697
Z-0.045
X4.9446 Z-0.02
X4.765
X4.7643 Z-0.0199
X4.7636 Z-0.0197
X4.763 Z-0.0194
X4.7623
X4.7609
G2 Y1.2894 I0 J0.0079
G1 X4.7616 Y1.2893
X4.7623 Z-0.0197
X4.763 Z-0.0199
X4.7637 Z-0.02
X4.9437
X4.9686 Z-0.0449
X4.9687 Z-0.08
X5.23
X5.2307 Z-0.0799
X5.2314 Z-0.0797
X5.2321 Z-0.0794
X5.2328
G3 Y1.3049 I0 J0.0078
G1 X5.2318
X5.2311
X5.2304 Z-0.0797
X5.2298 Z-0.0799
X5.229 Z-0.08
X4.9673
X4.9672 Z-0.0449
X4.9421 Z-0.02
X4.762
X4.7613 Z-0.0199
X4.7606 Z-0.0197
X4.7599 Z-0.0194
X4.7592
X4.7574
G2 Y1.3205 I0 J0.0078
G1 X4.7581
X4.7587 Z-0.0197
X4.7594 Z-0.0199
X4.7601 Z-0.02
X4.9405
X4.9656 Z-0.0449
X4.9658 Z-0.08
X5.2277
X5.2284 Z-0.0799
X5.229 Z-0.0797
X5.2297 Z-0.0794
X5.2304
G3 Y1.3361 I0 J0.0078
G1 X5.2291 Y1.3362
X5.2283
X5.2277 Z-0.0797
X5.227 Z-0.0799
X5.2263 Z-0.08
X4.9641
X4.9639 Z-0.0448
X4.9387 Z-0.02
X4.7577
X4.757 Z-0.0199
X4.7563 Z-0.0197
X4.7557 Z-0.0194
X4.755
X4.7525
G2 Y1.3518 I0 J0.0078
G1 X4.7532
X4.7539 Z-0.0197
X4.7546 Z-0.0199
X4.7553 Z-0.02
X4.9365
X4.9618 Z-0.045
Z-0.08
X5.2247
X5.2254 Z-0.0799
X5.2261 Z-0.0797
X5.2267 Z-0.0794
X5.2274
G3 Y1.3674 I0 J0.0078
G1 X5.2255
X5.2248
X5.2242 Z-0.0797
X5.2235 Z-0.0799
X5.2228 Z-0.08
X4.9596
Z-0.0798
X4.9595 Z-0.0449
X4.9343 Z-0.02
X4.7522
X4.7515 Z-0.0199
X4.7508 Z-0.0197
X4.7501 Z-0.0194
X4.7494
X4.7463
G2 Y1.383 I0 J0.0078
G1 X4.747
X4.7477 Z-0.0197
X4.7484 Z-0.0199
X4.7491 Z-0.02
X4.9315
X4.957 Z-0.045
Z-0.08
X5.2209
X5.2216 Z-0.0799
X5.2222 Z-0.0797
X5.2229 Z-0.0794
X5.2236
G3 Y1.3988 I0 J0.0079
G1 X5.2213 Y1.3987
X5.2206
X5.22 Z-0.0797
X5.2193 Z-0.0799
X5.2186 Z-0.08
X4.9542
X4.9541 Z-0.0449
X4.9287 Z-0.02
X4.7454
X4.7446 Z-0.0199
X4.744 Z-0.0197
X4.7433 Z-0.0194
X4.7426
X4.7388
G2 Y1.4143 I0 J0.0078
G1 X4.7395
X4.7401 Z-0.0197
X4.7408 Z-0.0199
X4.7415 Z-0.02
X4.9256
X4.9512 Z-0.045
X4.9513 Z-0.08
X5.2161
X5.2168 Z-0.0799
X5.2175 Z-0.0797
X5.2182 Z-0.0794
X5.2189
G3 Y1.4299 I0 J0.0078
G1 X5.2164
X5.2157
X5.215 Z-0.0797
X5.2143 Z-0.0799
X5.2136 Z-0.08
X4.9477
Z-0.045
X4.9221 Z-0.02
X4.7372
X4.7365 Z-0.0199
X4.7358 Z-0.0197
X4.7352 Z-0.0194
X4.7345
X4.7299
G2 Y1.4455 I0 J0.0078
G1 X4.7306 Y1.4456
X4.7313 Z-0.0197
X4.732 Z-0.0199
X4.7327 Z-0.02
X4.9186
X4.9441 Z-0.0449
X4.9442 Z-0.08
X5.2107
X5.2114 Z-0.0799
X5.212 Z-0.0797
X5.2127 Z-0.0794
X5.2134
G3 Y1.4612 I0 J0.0078
G1 X5.2104
X5.2097
X5.209 Z-0.0797
X5.2083 Z-0.0799
X5.2076 Z-0.08
X4.9403
X4.9402 Z-0.0449
X4.9144 Z-0.02
X4.7277
X4.727 Z-0.0199
X4.7263 Z-0.0197
X4.7257 Z-0.0194
X4.725
X4.7197
G2 Y1.4768 I0 J0.0078
G1 X4.7204
X4.721 Z-0.0197
X4.7217 Z-0.0199
X4.7224 Z-0.02
X4.9102
X4.9361 Z-0.0449
Z-0.08
X5.2045
X5.2052 Z-0.0799
X5.2059 Z-0.0797
X5.2066 Z-0.0794
X5.2073
G3 Y1.4924 I0 J0.0078
G1 X5.2037 Y1.4925
X5.203
X5.2023 Z-0.0797
X5.2016 Z-0.0799
X5.2009 Z-0.08
X4.9319
Z-0.0798
Z-0.0449
X4.9057 Z-0.02
X4.7168
X4.7161 Z-0.0199
X4.7154 Z-0.0197
X4.7147 Z-0.0194
X4.714
X4.708
G2 Y1.5081 I0 J0.0078
G1 X4.7087
X4.7093 Z-0.0197
X4.71 Z-0.0199
X4.7107 Z-0.02
X4.9008
X4.927 Z-0.0449
X4.9271 Z-0.08
X5.1973
X5.198 Z-0.0799
X5.1987 Z-0.0797
X5.1994 Z-0.0794
X5.2001
G3 Y1.5237 I0 J0.0078
G1 X5.1963
X5.1956
X5.1949 Z-0.0797
X5.1942 Z-0.0799
X5.1935 Z-0.08
X4.9222
Z-0.045
X4.8959 Z-0.02
X4.7044
X4.7037 Z-0.0199
X4.703 Z-0.0197
X4.7023 Z-0.0194
X4.7016
X4.6948
G2 Y1.5393 I0 J0.0078
G1 X4.6955
X4.6961 Z-0.0197
X4.6968 Z-0.0199
X4.6975 Z-0.02
X4.8903
X4.9168 Z-0.0449
X4.9169 Z-0.08
X5.1894
X5.1901 Z-0.0799
X5.1907 Z-0.0797
X5.1914 Z-0.0794
X5.1921
G3 Y1.5551 I0 J0.0079
G1 X5.1879 Y1.555
X5.1872
X5.1865 Z-0.0797
X5.1859 Z-0.0799
X5.1852 Z-0.08
X4.9114
Z-0.045
X4.8848 Z-0.02
X4.6904
X4.6897 Z-0.0199
X4.689 Z-0.0197
X4.6884 Z-0.0194
X4.6877
X4.6799
G2 Y1.5706 I0 J0.0078
G1 X4.6807
X4.6813 Z-0.0197
X4.682 Z-0.0199
X4.6827 Z-0.02
X4.8787
X4.9057 Z-0.045
Z-0.08
X5.1806
X5.1813 Z-0.0799
X5.182 Z-0.0797
X5.1827 Z-0.0794
X5.1834
G3 Y1.5862 I0 J0.0078
G1 X5.1786
X5.1779
X5.1772 Z-0.0797
X5.1765 Z-0.0799
X5.1758 Z-0.08
X4.8994
X4.8993 Z-0.0449
X4.8725 Z-0.02
X4.6747
X4.674 Z-0.0199
X4.6734 Z-0.0197
X4.6727 Z-0.0194
X4.672
X4.6634
G2 Y1.6018 I0 J0.0078
G1 X4.6641 Y1.6019
X4.6648 Z-0.0197
X4.6655 Z-0.0199
X4.6662 Z-0.02
X4.8659
X4.893 Z-0.0449
X4.8931 Z-0.08
X5.1711
X5.1718 Z-0.0799
X5.1724 Z-0.0797
X5.1731 Z-0.0794
X5.1738
G3 Y1.6175 I0 J0.0078
G1 X5.1685
X5.1678
X5.1671 Z-0.0797
X5.1664 Z-0.0799
X5.1657 Z-0.08
X4.8863
X4.8862 Z-0.0449
X4.8588 Z-0.02
X4.6573
X4.6566 Z-0.0199
X4.6559 Z-0.0197
X4.6552 Z-0.0194
X4.6545
X4.6451
G2 Y1.6331 I0 J0.0078
G1 X4.6458
X4.6464 Z-0.0197
X4.6471 Z-0.0199
X4.6478 Z-0.02
X4.8518
X4.8792 Z-0.045
X4.8793 Z-0.08
X5.1604
X5.1611 Z-0.0799
X5.1617 Z-0.0797
X5.1624 Z-0.0794
X5.1631
G3 Y1.6487 I0 J0.0078
G1 X5.1576
X5.1569
X5.1562 Z-0.0797
X5.1555 Z-0.0799
X5.1548 Z-0.08
X4.8719
X4.8718 Z-0.0449
X4.8439 Z-0.02
X4.6379
X4.6372 Z-0.0199
X4.6366 Z-0.0197
X4.6359 Z-0.0194
X4.6352
X4.6247
G2 Y1.6645 I0 J0.0079
G1 X4.6255 Y1.6644
X4.6261 Z-0.0197
X4.6268 Z-0.0199
X4.6275 Z-0.02
X4.8361
X4.8641 Z-0.045
Z-0.0452
Z-0.08
X5.1488
X5.1495 Z-0.0799
X5.1502 Z-0.0797
X5.1509 Z-0.0794
X5.1516
G3 Y1.68 I0 J0.0078
G1 X5.1456
X5.1449
X5.1442 Z-0.0797
X5.1435 Z-0.0799
X5.1428 Z-0.08
X4.8563
X4.8562 Z-0.045
X4.8277 Z-0.02
X4.6165
X4.6158 Z-0.0199
X4.6151 Z-0.0197
X4.6144 Z-0.0194
X4.6137
X4.6023
G2 Y1.6956 I0 J0.0078
G1 X4.603
X4.6036 Z-0.0197
X4.6043 Z-0.0199
X4.605 Z-0.02
X4.819
X4.8476 Z-0.045
X4.8477 Z-0.08
X5.1365
X5.1372 Z-0.0799
X5.1378 Z-0.0797
X5.1385 Z-0.0794
X5.1392
G3 Y1.7114 I0 J0.0079
G1 X5.1326 Y1.7113
X5.1319
X5.1312 Z-0.0797
X5.1305 Z-0.0799
X5.1298 Z-0.08
X4.8391
X4.839 Z-0.0449
X4.8101 Z-0.02
X4.5927
X4.592 Z-0.0199
X4.5914 Z-0.0197
X4.5907 Z-0.0194
X4.59
X4.5775
G2 Y1.7269 I0 J0.0078
G1 X4.5782
X4.5788 Z-0.0197
X4.5795 Z-0.0199
X4.5802 Z-0.02
X4.8005
X4.8298 Z-0.045
Z-0.08
X5.1232
X5.1239 Z-0.0799
X5.1246 Z-0.0797
X5.1252 Z-0.0794
X5.126
G3 Y1.7425 I0 J0.0078
G1 X5.1187
X5.118
X5.1173 Z-0.0797
X5.1166 Z-0.0799
X5.1159 Z-0.08
X4.8203
Z-0.0449
X4.797 Z-0.0252
X4.7907 Z-0.02
X4.5665
X4.5658 Z-0.0199
X4.5651 Z-0.0197
X4.5644 Z-0.0194
X4.5637
X4.5496
G2 Y1.7581 I0 J0.0078
G1 X4.5503 Y1.7582
X4.551 Z-0.0197
X4.5517 Z-0.0199
X4.5524 Z-0.02
X4.7803
X4.8104 Z-0.045
Z-0.08
X5.1086
X5.1093 Z-0.0799
X5.11 Z-0.0797
X5.1107 Z-0.0794
X5.1114
G3 Y1.7738 I0 J0.0078
G1 X5.1038
X5.1031
X5.1024 Z-0.0797
X5.1018 Z-0.0799
X5.101 Z-0.08
X4.8001
Z-0.045
X4.7739 Z-0.0233
X4.7697 Z-0.02
X4.5374
X4.5367 Z-0.0199
X4.536 Z-0.0197
X4.5354 Z-0.0194
X4.5347
X4.5187
G2 Y1.7894 I0 J0.0078
G1 X4.5194
X4.5201 Z-0.0197
X4.5207 Z-0.0199
X4.5215 Z-0.02
X4.7585
X4.7894 Z-0.045
Z-0.08
X5.0931
X5.0938 Z-0.0799
X5.0944 Z-0.0797
X5.0951 Z-0.0794
X5.0958
G3 Y1.805 I0 J0.0078
G1 X5.0878
X5.0871
X5.0865 Z-0.0797
X5.0858 Z-0.0799
X5.0851 Z-0.08
X4.7781
X4.778 Z-0.0449
X4.7503 Z-0.0226
X4.7469 Z-0.02
X4.5049
X4.5041 Z-0.0199
X4.5035 Z-0.0197
X4.5028 Z-0.0194
X4.5021
X4.4843
G2 Y1.8208 I0 J0.0079
G1 X4.485 Y1.8207
X4.4857 Z-0.0197
X4.4863 Z-0.0199
X4.487 Z-0.02
X4.7348
X4.7665 Z-0.045
Z-0.08
X5.0765
X5.0772 Z-0.0799
X5.0779 Z-0.0797
X5.0785 Z-0.0794
X5.0793
G3 Y1.8363 I0 J0.0078
G1 X5.0706
X5.0699
X5.0692 Z-0.0797
X5.0686 Z-0.0799
X5.0678 Z-0.08
X4.7543
Z-0.0798
X4.7542 Z-0.045
X4.7263 Z-0.0231
X4.7221 Z-0.02
X4.4681
X4.4674 Z-0.0199
X4.4667 Z-0.0197
X4.466 Z-0.0194
X4.4653
X4.4453
G2 Y1.8519 I0 J0.0078
G1 X4.446
X4.4467 Z-0.0197
X4.4473 Z-0.0199
X4.4481 Z-0.02
X4.7089
X4.7417 Z-0.0449
X4.7418 Z-0.08
X5.0589
X5.0596 Z-0.0799
X5.0602 Z-0.0797
X5.0609 Z-0.0794
X5.0616
G3 Y1.8675 I0 J0.0078
G1 X5.0522 Y1.8676
X5.0515
X5.0508 Z-0.0797
X5.0502 Z-0.0799
X5.0495 Z-0.08
X4.7285
Z-0.0798
X4.7283 Z-0.0449
X4.7019 Z-0.0249
X4.6952 Z-0.02
X4.4267
X4.426 Z-0.0199
X4.4254 Z-0.0197
X4.4247 Z-0.0194
X4.424
X4.4006
G2 Y1.8832 I0 J0.0078
G1 X4.4013
X4.402 Z-0.0197
X4.4026 Z-0.0199
X4.4034 Z-0.02
X4.6808
X4.7148 Z-0.045
Z-0.08
X5.0401
X5.0408 Z-0.0799
X5.0414 Z-0.0797
X5.0421 Z-0.0794
X5.0428
G3 Y1.8988 I0 J0.0078
G1 X5.0327
X5.0319
X5.0313 Z-0.0797
X5.0306 Z-0.0799
X5.0299 Z-0.08
X4.7004
Z-0.045
X4.6771 Z-0.028
X4.6657 Z-0.02
X4.3782
X4.3775 Z-0.0199
X4.3768 Z-0.0197
X4.3762 Z-0.0194
X4.3754
X4.3481
G2 Y1.9144 I0 J0.0078
G1 X4.3488
X4.3495 Z-0.0197
X4.3501 Z-0.0199
X4.3508 Z-0.02
X4.6501
X4.6854 Z-0.045
X4.6855 Z-0.08
X5.0197
X5.0205 Z-0.0799
X5.0211 Z-0.0797
X5.0218 Z-0.0794
X5.0225
G3 Y1.9302 I0 J0.0079
G1 X5.0118 Y1.9301
X5.0111
X5.0105 Z-0.0797
X5.0098 Z-0.0799
X5.0091 Z-0.08
X4.6699
X4.6698 Z-0.045
X4.6516 Z-0.0322
X4.6336 Z-0.02
X4.3207
X4.32 Z-0.0199
X4.3194 Z-0.0197
X4.3187 Z-0.0194
X4.318
X4.2843
G2 Y1.9457 I0 J0.0078
G1 X4.285
X4.2857 Z-0.0197
X4.2863 Z-0.0199
X4.2871 Z-0.02
X4.6166
X4.6534 Z-0.0449
X4.6535 Z-0.08
X4.9981
X4.9988 Z-0.0799
X4.9995 Z-0.0797
X5.0002 Z-0.0794
X5.0009
G3 Y1.9613 I0 J0.0078
G1 X4.9897
X4.989
X4.9883 Z-0.0797
X4.9876 Z-0.0799
X4.9869 Z-0.08
X4.6365
Z-0.045
X4.6211 Z-0.0348
X4.5982 Z-0.02
X4.2486
X4.2479 Z-0.0199
X4.2472 Z-0.0197
X4.2466 Z-0.0194
X4.2459
X4.2002
G2 Y1.9771 I0 J0.0079
G1 X4.2009 Y1.977
X4.2016 Z-0.0197
X4.2022 Z-0.0199
X4.203 Z-0.02
X4.5792
X4.588 Z-0.0254
X4.6184 Z-0.045
Z-0.08
X4.9751
X4.9758 Z-0.0799
X4.9765 Z-0.0797
X4.9772 Z-0.0794
X4.9779
G3 Y1.9926 I0 J0.0078
G1 X4.966
X4.9653
X4.9647 Z-0.0797
X4.964 Z-0.0799
X4.9633 Z-0.08
X4.5998
X4.5997 Z-0.0449
X4.5592 Z-0.02
X4.1445
X4.0485
G2 Y2.0082 I0 J0.0078
G1 X4.5379
X4.5615 Z-0.0338
X4.5799 Z-0.045
Z-0.0452
Z-0.08
X4.9506
X4.9526 Z-0.0797
X4.9543 Z-0.0788
X4.9557 Z-0.0774
X4.9566 Z-0.0757
X4.9569 Z-0.0738
Z0.18
X-4.0394 Y-2.0085
Z0.06
Z-0.0138 F7.5
X-4.0397 Z-0.0157 F60
X-4.0406 Z-0.0174
X-4.0419 Z-0.0188
X-4.0437 Z-0.0197
X-4.0456 Z-0.02
X-4.5376 Z-0.0201
X-4.569 Z-0.0385
X-4.5795 Z-0.045
Z-0.08
X-4.9504
X-4.9511 Z-0.0799
X-4.9518 Z-0.0797
X-4.9524 Z-0.0794
X-4.9531
X-4.9658
G2 Y-1.9929 I0 J0.0078
G1 X-4.9651
X-4.9644 Z-0.0797
X-4.9637 Z-0.0799
X-4.963 Z-0.08
X-4.5994
Z-0.045
X-4.5589 Z-0.02
X-4.1432
X-4.1425 Z-0.0199
X-4.1419 Z-0.0197
X-4.1412 Z-0.0194
X-4.1405
G3 Y-1.9773 I0 J0.0078
G1 X-4.1991
X-4.1998
X-4.2005 Z-0.0197
X-4.2012 Z-0.0199
X-4.2019 Z-0.02
X-4.579 Z-0.0201
X-4.5963 Z-0.0309
X-4.6181 Z-0.045
Z-0.08
X-4.9749
X-4.9756 Z-0.0799
X-4.9763 Z-0.0797
X-4.9769 Z-0.0794
X-4.9777
X-4.9894
G2 Y-1.9617 I0 J0.0078
G1 X-4.9887
X-4.9881 Z-0.0797
X-4.9874 Z-0.0799
X-4.9867 Z-0.08
X-4.6362
Z-0.045
X-4.6348 Z-0.044
X-4.598 Z-0.0201
X-4.2478 Z-0.02
X-4.2471 Z-0.0199
X-4.2464 Z-0.0197
X-4.2458 Z-0.0194
X-4.2451
G3 Y-1.9459 I0 J0.0079
G1 X-4.2836 Y-1.946
X-4.2843
X-4.285 Z-0.0197
X-4.2856 Z-0.0199
X-4.2863 Z-0.02
X-4.6164 Z-0.0201
X-4.6531 Z-0.045
Z-0.0452
X-4.6533 Z-0.08
X-4.9979
X-4.9986 Z-0.0799
X-4.9993 Z-0.0797
X-5 Z-0.0794
X-5.0007
X-5.0116
G2 Y-1.9304 I0 J0.0078
G1 X-5.0109
X-5.0102 Z-0.0797
X-5.0096 Z-0.0799
X-5.0089 Z-0.08
X-4.6696
Z-0.045
X-4.6612 Z-0.0391
X-4.6334 Z-0.0201
X-4.3201 Z-0.02
X-4.3194 Z-0.0199
X-4.3187 Z-0.0197
X-4.3181 Z-0.0194
X-4.3173
G3 Y-1.9148 I0 J0.0078
G1 X-4.3475
X-4.3482
X-4.3489 Z-0.0197
X-4.3496 Z-0.0199
X-4.3503 Z-0.02
X-4.6498
X-4.6852 Z-0.045
Z-0.08
X-5.0195
X-5.0202 Z-0.0799
X-5.0209 Z-0.0797
X-5.0216 Z-0.0794
X-5.0223
X-5.0324
G2 Y-1.899 I0 J0.0079
G1 X-5.0317 Y-1.8991
X-5.0311 Z-0.0797
X-5.0304 Z-0.0799
X-5.0297 Z-0.08
X-4.7002
X-4.7001 Z-0.045
X-4.6873 Z-0.0356
X-4.6655 Z-0.02
X-4.3777
X-4.377 Z-0.0199
X-4.3763 Z-0.0197
X-4.3757 Z-0.0194
X-4.375
G3 Y-1.8835 I0 J0.0078
G1 X-4.4001
X-4.4008
X-4.4015 Z-0.0197
X-4.4022 Z-0.0199
X-4.4029 Z-0.02
X-4.6805
X-4.7145 Z-0.045
X-4.7147 Z-0.08
X-5.0398
X-5.0406 Z-0.0799
X-5.0412 Z-0.0797
X-5.0419 Z-0.0794
X-5.0426
X-5.052
G2 Y-1.8679 I0 J0.0078
G1 X-5.0513
X-5.0507 Z-0.0797
X-5.05 Z-0.0799
X-5.0493 Z-0.08
X-4.7282
Z-0.045
X-4.7137 Z-0.034
X-4.6951 Z-0.0201
X-4.4263 Z-0.02
X-4.4256 Z-0.0199
X-4.4249 Z-0.0197
X-4.4243 Z-0.0194
X-4.4236
G3 Y-1.8523 I0 J0.0078
G1 X-4.4449 Y-1.8522
X-4.4456
X-4.4462 Z-0.0197
X-4.4469 Z-0.0199
X-4.4476 Z-0.02
X-4.7088 Z-0.0201
X-4.7415 Z-0.045
Z-0.08
X-5.0587
X-5.0594 Z-0.0799
X-5.0601 Z-0.0797
X-5.0607 Z-0.0794
X-5.0614
X-5.0704
G2 Y-1.8366 I0 J0.0078
G1 X-5.0697
X-5.069 Z-0.0797
X-5.0684 Z-0.0799
X-5.0677 Z-0.08
X-4.754
Z-0.045
X-4.7406 Z-0.0344
X-4.7221 Z-0.0201
X-4.4677 Z-0.02
X-4.467 Z-0.0199
X-4.4663 Z-0.0197
X-4.4656 Z-0.0194
X-4.4649
G3 Y-1.821 I0 J0.0078
G1 X-4.4839
X-4.4846
X-4.4853 Z-0.0197
X-4.486 Z-0.0199
X-4.4867 Z-0.02
X-4.7347 Z-0.0201
X-4.7663 Z-0.045
X-4.7664 Z-0.08
X-5.0763
X-5.077 Z-0.0799
X-5.0777 Z-0.0797
X-5.0784 Z-0.0794
X-5.0791
X-5.0877
G2 Y-1.8054 I0 J0.0078
G1 X-5.087
X-5.0863 Z-0.0797
X-5.0856 Z-0.0799
X-5.0849 Z-0.08
X-4.7779
Z-0.045
X-4.7666 Z-0.0359
X-4.7468 Z-0.02
X-4.5045
X-4.5038 Z-0.0199
X-4.5031 Z-0.0197
X-4.5025 Z-0.0194
X-4.5017
G3 Y-1.7896 I0 J0.0079
G1 X-4.5184 Y-1.7897
X-4.5191
X-4.5197 Z-0.0197
X-4.5204 Z-0.0199
X-4.5211 Z-0.02
X-4.7584 Z-0.0201
X-4.7891 Z-0.045
Z-0.08
X-5.0929
X-5.0936 Z-0.0799
X-5.0943 Z-0.0797
X-5.095 Z-0.0794
X-5.0957
X-5.1036
G2 Y-1.7741 I0 J0.0078
G1 X-5.1029
X-5.1023 Z-0.0797
X-5.1016 Z-0.0799
X-5.1009 Z-0.08
X-4.8
X-4.7999 Z-0.045
X-4.7907 Z-0.0373
X-4.7697 Z-0.0201
X-4.5371 Z-0.02
X-4.5364 Z-0.0199
X-4.5357 Z-0.0197
X-4.5351 Z-0.0194
X-4.5344
G3 Y-1.7585 I0 J0.0078
G1 X-4.5493
X-4.55
X-4.5507 Z-0.0197
X-4.5514 Z-0.0199
X-4.5521 Z-0.02
X-4.7803 Z-0.0201
X-4.8102 Z-0.045
X-4.8103 Z-0.08
X-5.1085
X-5.1092 Z-0.0799
X-5.1099 Z-0.0797
X-5.1105 Z-0.0794
X-5.1112
X-5.1185
G2 Y-1.7429 I0 J0.0078
G1 X-5.1178 Y-1.7428
X-5.1171 Z-0.0797
X-5.1165 Z-0.0799
X-5.1158 Z-0.08
X-4.8203
X-4.8202 Z-0.045
X-4.8145 Z-0.0401
X-4.7906 Z-0.02
X-4.5662
X-4.5655 Z-0.0199
X-4.5648 Z-0.0197
X-4.5642 Z-0.0194
X-4.5635
G3 Y-1.7272 I0 J0.0078
G1 X-4.5772
X-4.5779
X-4.5786 Z-0.0197
X-4.5792 Z-0.0199
X-4.5799 Z-0.02
X-4.8004
X-4.8296 Z-0.045
X-4.8297 Z-0.08
X-5.1231
X-5.1238 Z-0.0799
X-5.1244 Z-0.0797
X-5.1251 Z-0.0794
X-5.1258
X-5.1325
G2 Y-1.7116 I0 J0.0078
G1 X-5.1317
X-5.1311 Z-0.0797
X-5.1304 Z-0.0799
X-5.1297 Z-0.08
X-4.839
X-4.8389 Z-0.045
X-4.81 Z-0.0201
X-4.5925 Z-0.02
X-4.5918 Z-0.0199
X-4.5911 Z-0.0197
X-4.5904 Z-0.0194
X-4.5897
G3 Y-1.696 I0 J0.0078
G1 X-4.602
X-4.6027
X-4.6034 Z-0.0197
X-4.6041 Z-0.0199
X-4.6048 Z-0.02
X-4.819
X-4.8475 Z-0.045
Z-0.0452
Z-0.08
X-5.1363
X-5.137 Z-0.0799
X-5.1377 Z-0.0797
X-5.1384 Z-0.0794
X-5.1391
X-5.1455
G2 Y-1.6802 I0 J0.0079
G1 X-5.1448 Y-1.6803
X-5.1441 Z-0.0797
X-5.1434 Z-0.0799
X-5.1427 Z-0.08
X-4.8562
X-4.8561 Z-0.045
X-4.8276 Z-0.02
X-4.6163
X-4.6155 Z-0.0199
X-4.6149 Z-0.0197
X-4.6142 Z-0.0194
X-4.6135
G3 Y-1.6647 I0 J0.0078
G1 X-4.6245
X-4.6252
X-4.6259 Z-0.0197
X-4.6266 Z-0.0199
X-4.6273 Z-0.02
X-4.836
X-4.864 Z-0.045
X-4.8641 Z-0.08
X-5.1487
X-5.1494 Z-0.0799
X-5.1501 Z-0.0797
X-5.1508 Z-0.0794
X-5.1515
X-5.1575
G2 Y-1.6491 I0 J0.0078
G1 X-5.1568
X-5.1561 Z-0.0797
X-5.1554 Z-0.0799
X-5.1547 Z-0.08
X-4.8718
Z-0.045
X-4.8439 Z-0.0201
X-4.6377 Z-0.02
X-4.637 Z-0.0199
X-4.6363 Z-0.0197
X-4.6357 Z-0.0194
X-4.635
G3 Y-1.6333 I0 J0.0079
G1 X-4.6449 Y-1.6334
X-4.6456
X-4.6462 Z-0.0197
X-4.6469 Z-0.0199
X-4.6476 Z-0.02
X-4.8518 Z-0.0201
X-4.8791 Z-0.045
X-4.8792 Z-0.08
X-5.1603
X-5.161 Z-0.0799
X-5.1616 Z-0.0797
X-5.1623 Z-0.0794
X-5.163
X-5.1684
G2 Y-1.6178 I0 J0.0078
G1 X-5.1677
X-5.167 Z-0.0797
X-5.1663 Z-0.0799
X-5.1656 Z-0.08
X-4.8862
Z-0.0798
X-4.8861 Z-0.045
X-4.8589 Z-0.0201
X-4.6571 Z-0.02
X-4.6564 Z-0.0199
X-4.6557 Z-0.0197
X-4.6551 Z-0.0194
X-4.6543
G3 Y-1.6022 I0 J0.0078
G1 X-4.6632
X-4.6639
X-4.6646 Z-0.0197
X-4.6653 Z-0.0199
X-4.666 Z-0.02
X-4.8659 Z-0.0201
X-4.893 Z-0.045
Z-0.08
X-5.171
X-5.1717 Z-0.0799
X-5.1723 Z-0.0797
X-5.173 Z-0.0794
X-5.1737
X-5.1785
G2 Y-1.5866 I0 J0.0078
G1 X-5.1778 Y-1.5865
X-5.1771 Z-0.0797
X-5.1765 Z-0.0799
X-5.1757 Z-0.08
X-4.8993
Z-0.045
X-4.8723 Z-0.02
X-4.6746
X-4.6739 Z-0.0199
X-4.6732 Z-0.0197
X-4.6725 Z-0.0194
X-4.6718
G3 Y-1.5709 I0 J0.0078
G1 X-4.6798
X-4.6805
X-4.6812 Z-0.0197
X-4.6818 Z-0.0199
X-4.6825 Z-0.02
X-4.8787
X-4.9056 Z-0.045
X-4.9057 Z-0.08
X-5.1805
X-5.1812 Z-0.0799
X-5.1819 Z-0.0797
X-5.1826 Z-0.0794
X-5.1833
X-5.1878
G2 Y-1.5553 I0 J0.0078
G1 X-5.1871
X-5.1865 Z-0.0797
X-5.1858 Z-0.0799
X-5.1851 Z-0.08
X-4.9113
X-4.9112 Z-0.045
X-4.8847 Z-0.02
X-4.6902
X-4.6895 Z-0.0199
X-4.6889 Z-0.0197
X-4.6882 Z-0.0194
X-4.6875
G3 Y-1.5397 I0 J0.0078
G1 X-4.6946
X-4.6953
X-4.696 Z-0.0197
X-4.6967 Z-0.0199
X-4.6974 Z-0.02
X-4.8904 Z-0.0201
X-4.9168 Z-0.045
Z-0.08
X-5.1893
X-5.19 Z-0.0799
X-5.1906 Z-0.0797
X-5.1913 Z-0.0794
X-5.192
X-5.1962
G2 Y-1.5239 I0 J0.0079
G1 X-5.1955 Y-1.524
X-5.1948 Z-0.0797
X-5.1942 Z-0.0799
X-5.1935 Z-0.08
X-4.9221
Z-0.0798
Z-0.045
X-4.8959 Z-0.0201
X-4.7042 Z-0.02
X-4.7035 Z-0.0199
X-4.7029 Z-0.0197
X-4.7022 Z-0.0194
X-4.7015
G3 Y-1.5084 I0 J0.0078
G1 X-4.7078
X-4.7086
X-4.7092 Z-0.0197
X-4.7099 Z-0.0199
X-4.7106 Z-0.02
X-4.9009 Z-0.0201
X-4.927 Z-0.045
Z-0.0452
Z-0.08
X-5.1973
X-5.198 Z-0.0799
X-5.1986 Z-0.0797
X-5.1993 Z-0.0794
X-5.2
X-5.2036
G2 Y-1.4928 I0 J0.0078
G1 X-5.2029
X-5.2022 Z-0.0797
X-5.2016 Z-0.0799
X-5.2009 Z-0.08
X-4.9318
Z-0.045
X-4.9058 Z-0.0201
X-4.7167 Z-0.02
X-4.716 Z-0.0199
X-4.7153 Z-0.0197
X-4.7146 Z-0.0194
X-4.7139
G3 Y-1.4772 I0 J0.0078
G1 X-4.7196 Y-1.4771
X-4.7203
X-4.7209 Z-0.0197
X-4.7216 Z-0.0199
X-4.7223 Z-0.02
X-4.9103 Z-0.0201
X-4.9361 Z-0.045
Z-0.0452
Z-0.08
X-5.2045
X-5.2052 Z-0.0799
X-5.2058 Z-0.0797
X-5.2065 Z-0.0794
X-5.2072
X-5.2103
G2 Y-1.4615 I0 J0.0078
G1 X-5.2096
X-5.2089 Z-0.0797
X-5.2083 Z-0.0799
X-5.2076 Z-0.08
X-4.9403
Z-0.045
X-4.9145 Z-0.0201
X-4.7276 Z-0.02
X-4.7269 Z-0.0199
X-4.7262 Z-0.0197
X-4.7256 Z-0.0194
X-4.7249
G3 Y-1.4459 I0 J0.0078
G1 X-4.7298
X-4.7305
X-4.7312 Z-0.0197
X-4.7319 Z-0.0199
X-4.7326 Z-0.02
X-4.9186 Z-0.0201
X-4.9441 Z-0.045
Z-0.0452
X-4.9442 Z-0.08
X-5.2106
X-5.2113 Z-0.0799
X-5.212 Z-0.0797
X-5.2126 Z-0.0794
X-5.2134
X-5.2163
G2 Y-1.4303 I0 J0.0078
G1 X-5.2156
X-5.2149 Z-0.0797
X-5.2143 Z-0.0799
X-5.2136 Z-0.08
X-4.9477
Z-0.0798
Z-0.045
X-4.9221 Z-0.0201
X-4.7371 Z-0.02
X-4.7364 Z-0.0199
X-4.7357 Z-0.0197
X-4.7351 Z-0.0194
X-4.7344
G3 Y-1.4145 I0 J0.0079
G1 X-4.7387 Y-1.4146
X-4.7394
X-4.7401 Z-0.0197
X-4.7407 Z-0.0199
X-4.7414 Z-0.02
X-4.9256 Z-0.0201
X-4.9512 Z-0.045
Z-0.0452
Z-0.08
X-5.2161
X-5.2168 Z-0.0799
X-5.2174 Z-0.0797
X-5.2181 Z-0.0794
X-5.2188
X-5.2213
G2 Y-1.399 I0 J0.0078
G1 X-5.2206
X-5.2199 Z-0.0797
X-5.2192 Z-0.0799
X-5.2185 Z-0.08
X-4.9541
Z-0.0798
Z-0.045
X-4.9288 Z-0.0201
X-4.7453 Z-0.02
X-4.7446 Z-0.0199
X-4.7439 Z-0.0197
X-4.7432 Z-0.0194
X-4.7425
G3 Y-1.3834 I0 J0.0078
G1 X-4.7462
X-4.747
X-4.7476 Z-0.0197
X-4.7483 Z-0.0199
X-4.749 Z-0.02
X-4.9316 Z-0.0201
X-4.957 Z-0.045
Z-0.08
X-5.2208
X-5.2215 Z-0.0799
X-5.2222 Z-0.0797
X-5.2229 Z-0.0794
X-5.2236
X-5.2255
G2 Y-1.3676 I0 J0.0079
G1 X-5.2248 Y-1.3677
X-5.2241 Z-0.0797
X-5.2234 Z-0.0799
X-5.2227 Z-0.08
X-4.9596
Z-0.045
X-4.9344 Z-0.0201
X-4.7521 Z-0.02
X-4.7514 Z-0.0199
X-4.7507 Z-0.0197
X-4.7501 Z-0.0194
X-4.7494
G3 Y-1.3521 I0 J0.0078
G1 X-4.7525
X-4.7532
X-4.7538 Z-0.0197
X-4.7545 Z-0.0199
X-4.7552 Z-0.02
X-4.9366 Z-0.0201
X-4.9618 Z-0.045
X-4.9619 Z-0.08
X-5.2247
X-5.2254 Z-0.0799
X-5.226 Z-0.0797
X-5.2267 Z-0.0794
X-5.2274
X-5.229
G2 Y-1.3365 I0 J0.0078
G1 X-5.2283
X-5.2277 Z-0.0797
X-5.227 Z-0.0799
X-5.2263 Z-0.08
X-4.964
Z-0.0798
Z-0.045
X-4.9389 Z-0.0201
X-4.7577 Z-0.02
X-4.757 Z-0.0199
X-4.7563 Z-0.0197
X-4.7556 Z-0.0194
X-4.7549
G3 Y-1.3209 I0 J0.0078
G1 X-4.7573 Y-1.3208
X-4.758
X-4.7587 Z-0.0197
X-4.7594 Z-0.0199
X-4.7601 Z-0.02
X-4.9406
X-4.9657 Z-0.045
X-4.9658 Z-0.08
X-5.2276
X-5.2284 Z-0.0799
X-5.229 Z-0.0797
X-5.2297 Z-0.0794
X-5.2304
X-5.2318
G2 Y-1.3052 I0 J0.0078
G1 X-5.2311
X-5.2304 Z-0.0797
X-5.2297 Z-0.0799
X-5.229 Z-0.08
X-4.9673
Z-0.045
X-4.9423 Z-0.0201
X-4.7619 Z-0.02
X-4.7612 Z-0.0199
X-4.7606 Z-0.0197
X-4.7599 Z-0.0194
X-4.7592
G3 Y-1.2896 I0 J0.0078
G1 X-4.7609
X-4.7616
X-4.7623 Z-0.0197
X-4.7629 Z-0.0199
X-4.7636 Z-0.02
X-4.9437
X-4.9687 Z-0.045
Z-0.08
X-5.23
X-5.2307 Z-0.0799
X-5.2314 Z-0.0797
X-5.232 Z-0.0794
X-5.2327
X-5.2336
G2 Y-1.274 I0 J0.0078
G1 X-5.2329
X-5.2322 Z-0.0797
X-5.2315 Z-0.0799
X-5.2308 Z-0.08
X-4.9697
Z-0.045
X-4.9447 Z-0.0201
X-4.765 Z-0.02
X-4.7643 Z-0.0199
X-4.7636 Z-0.0197
X-4.7629 Z-0.0194
X-4.7622
G3 Y-1.2582 I0 J0.0079
G1 X-4.7633 Y-1.2583
X-4.764
X-4.7646 Z-0.0197
X-4.7653 Z-0.0199
X-4.766 Z-0.02
X-4.9457 Z-0.0202
X-4.9706 Z-0.045
X-4.9707 Z-0.08
X-5.2316
X-5.2323 Z-0.0799
X-5.233 Z-0.0797
X-5.2337 Z-0.0794
X-5.2344
X-5.2347
G2 Y-1.2427 I0 J0.0078
G1 X-5.234
X-5.2334 Z-0.0797
X-5.2327 Z-0.0799
X-5.232 Z-0.08
X-4.9712
X-4.9711 Z-0.045
X-4.9463 Z-0.0202
X-4.7668 Z-0.02
X-4.7661 Z-0.0199
X-4.7655 Z-0.0197
X-4.7648 Z-0.0194
X-4.7641
G3 Y-1.2271 I0 J0.0078
G1 X-4.7644
X-4.7651
X-4.7658 Z-0.0197
X-4.7665 Z-0.0199
X-4.7672 Z-0.02
X-4.9466 Z-0.0201
X-4.9715 Z-0.045
Z-0.08
X-5.2323
X-5.233 Z-0.0799
X-5.2336 Z-0.0797
X-5.2343 Z-0.0794
X-5.235
X-5.2353
G2 Y-1.2115 I0 J0.0078
G1 X-5.2346 Y-1.2114
X-5.2339 Z-0.0797
X-5.2332 Z-0.0799
X-5.2325 Z-0.08
X-4.9718
X-4.9717 Z-0.045
X-4.9469 Z-0.0201
X-4.7675 Z-0.02
X-4.7668 Z-0.0199
X-4.7661 Z-0.0197
X-4.7655 Z-0.0194
X-4.7648
G3 Y-1.1958 I0 J0.0078
G1 X-4.7655
X-4.7661 Z-0.0197
X-4.7668 Z-0.0199
X-4.7675 Z-0.02
X-4.9469 Z-0.0201
X-4.9717 Z-0.045
X-4.9718 Z-0.08
X-5.2325
X-5.2332 Z-0.0799
X-5.2339 Z-0.0797
X-5.2346 Z-0.0794
X-5.2353
G2 Y-1.1802 I0 J0.0078
G1 X-5.2346
X-5.2339 Z-0.0797
X-5.2332 Z-0.0799
X-5.2325 Z-0.08
X-4.9718
X-4.9717 Z-0.045
X-4.9469 Z-0.0201
X-4.7675 Z-0.02
X-4.7668 Z-0.0199
X-4.7661 Z-0.0197
X-4.7655 Z-0.0194
X-4.7648
G3 Y-1.1646 I0 J0.0078
G1 X-4.7655 Y-1.1645
X-4.7661 Z-0.0197
X-4.7668 Z-0.0199
X-4.7675 Z-0.02
X-4.9469 Z-0.0201
X-4.9717 Z-0.045
X-4.9718 Z-0.08
X-5.2325
X-5.2332 Z-0.0799
X-5.2339 Z-0.0797
X-5.2346 Z-0.0794
X-5.2353
G2 Y-1.1489 I0 J0.0078
G1 X-5.2346
X-5.2339 Z-0.0797
X-5.2332 Z-0.0799
X-5.2325 Z-0.08
X-4.9718
X-4.9717 Z-0.045
X-4.9469 Z-0.0201
X-4.7675 Z-0.02
X-4.7668 Z-0.0199
X-4.7661 Z-0.0197
X-4.7655 Z-0.0194
X-4.7648
G3 Y-1.1333 I0 J0.0078
G1 X-4.7655
X-4.7661 Z-0.0197
X-4.7668 Z-0.0199
X-4.7675 Z-0.02
X-4.9469 Z-0.0201
X-4.9717 Z-0.045
X-4.9718 Z-0.08
X-5.2325
X-5.2332 Z-0.0799
X-5.2339 Z-0.0797
X-5.2346 Z-0.0794
X-5.2353
G2 Y-1.1177 I0 J0.0078
G1 X-5.2346
X-5.2339 Z-0.0797
X-5.2332 Z-0.0799
X-5.2325 Z-0.08
X-4.9718
X-4.9717 Z-0.045
X-4.9469 Z-0.0201
X-4.7675 Z-0.02
X-4.7668 Z-0.0199
X-4.7661 Z-0.0197
X-4.7655 Z-0.0194
X-4.7648
G3 Y-1.1019 I0 J0.0079
G1 X-4.7655 Y-1.102
X-4.7661 Z-0.0197
X-4.7668 Z-0.0199
X-4.7675 Z-0.02
X-4.9469 Z-0.0201
X-4.9717 Z-0.045
X-4.9718 Z-0.08
X-5.2325
X-5.2332 Z-0.0799
X-5.2339 Z-0.0797
X-5.2346 Z-0.0794
X-5.2353
G2 Y-1.0864 I0 J0.0078
G1 X-5.2346
X-5.2339 Z-0.0797
X-5.2332 Z-0.0799
X-5.2325 Z-0.08
X-4.9718
X-4.9717 Z-0.045
X-4.9469 Z-0.0201
X-4.7675 Z-0.02
X-4.7668 Z-0.0199
X-4.7661 Z-0.0197
X-4.7655 Z-0.0194
X-4.7648
G3 Y-1.0708 I0 J0.0078
G1 X-4.7655
X-4.7661 Z-0.0197
X-4.7668 Z-0.0199
X-4.7675 Z-0.02
X-4.9469 Z-0.0201
X-4.9717 Z-0.045
X-4.9718 Z-0.08
X-5.2325
X-5.2332 Z-0.0799
X-5.2339 Z-0.0797
X-5.2346 Z-0.0794
X-5.2353
G2 Y-1.0552 I0 J0.0078
G1 X-5.2346 Y-1.0551
X-5.2339 Z-0.0797
X-5.2332 Z-0.0799
X-5.2325 Z-0.08
X-4.9718
X-4.9717 Z-0.045
X-4.9469 Z-0.0201
X-4.7675 Z-0.02
X-4.7668 Z-0.0199
X-4.7661 Z-0.0197
X-4.7655 Z-0.0194
X-4.7648
G3 Y-1.0395 I0 J0.0078
G1 X-4.7655
X-4.7661 Z-0.0197
X-4.7668 Z-0.0199
X-4.7675 Z-0.02
X-4.9469 Z-0.0201
X-4.9717 Z-0.045
X-4.9718 Z-0.08
X-5.2325
X-5.2332 Z-0.0799
X-5.2339 Z-0.0797
X-5.2346 Z-0.0794
X-5.2353
G2 Y-1.0239 I0 J0.0078
G1 X-5.2346
X-5.2339 Z-0.0797
X-5.2332 Z-0.0799
X-5.2325 Z-0.08
X-4.9718
X-4.9717 Z-0.045
X-4.9469 Z-0.0201
X-4.7675 Z-0.02
X-4.7668 Z-0.0199
X-4.7661 Z-0.0197
X-4.7655 Z-0.0194
X-4.7648
G3 Y-1.0083 I0 J0.0078
G1 X-4.7655
X-4.7661 Z-0.0197
X-4.7668 Z-0.0199
X-4.7675 Z-0.02
X-4.9469 Z-0.0201
X-4.9717 Z-0.045
X-4.9718 Z-0.08
X-5.2325
X-5.2332 Z-0.0799
X-5.2339 Z-0.0797
X-5.2346 Z-0.0794
X-5.2353
G2 Y-0.9925 I0 J0.0079
G1 X-5.2346 Y-0.9926
X-5.2339 Z-0.0797
X-5.2332 Z-0.0799
X-5.2325 Z-0.08
X-4.9718
X-4.9717 Z-0.045
X-4.9469 Z-0.0201
X-4.7675 Z-0.02
X-4.7668 Z-0.0199
X-4.7661 Z-0.0197
X-4.7655 Z-0.0194
X-4.7648
G3 Y-0.977 I0 J0.0078
G1 X-4.7655
X-4.7661 Z-0.0197
X-4.7668 Z-0.0199
X-4.7675 Z-0.02
X-4.9469 Z-0.0201
X-4.9717 Z-0.045
X-4.9718 Z-0.08
X-5.2325
X-5.2332 Z-0.0799
X-5.2339 Z-0.0797
X-5.2346 Z-0.0794
X-5.2353
G2 Y-0.9614 I0 J0.0078
G1 X-5.2346
X-5.2339 Z-0.0797
X-5.2332 Z-0.0799
X-5.2325 Z-0.08
X-4.9718
X-4.9717 Z-0.045
X-4.9469 Z-0.0201
X-4.7675 Z-0.02
X-4.7668 Z-0.0199
X-4.7661 Z-0.0197
X-4.7655 Z-0.0194
X-4.7648
G3 Y-0.9458 I0 J0.0078
G1 X-4.7655 Y-0.9457
X-4.7661 Z-0.0197
X-4.7668 Z-0.0199
X-4.7675 Z-0.02
X-4.9469 Z-0.0201
X-4.9717 Z-0.045
X-4.9718 Z-0.08
X-5.2325
X-5.2332 Z-0.0799
X-5.2339 Z-0.0797
X-5.2346 Z-0.0794
X-5.2353
G2 Y-0.9301 I0 J0.0078
G1 X-5.2346
X-5.2339 Z-0.0797
X-5.2332 Z-0.0799
X-5.2325 Z-0.08
X-4.9718
X-4.9717 Z-0.045
X-4.9469 Z-0.0201
X-4.7675 Z-0.02
X-4.7668 Z-0.0199
X-4.7661 Z-0.0197
X-4.7655 Z-0.0194
X-4.7648
G3 Y-0.9145 I0 J0.0078
G1 X-4.7655
X-4.7661 Z-0.0197
X-4.7668 Z-0.0199
X-4.7675 Z-0.02
X-4.9469 Z-0.0201
X-4.9717 Z-0.045
X-4.9718 Z-0.08
X-5.2325
X-5.2332 Z-0.0799
X-5.2339 Z-0.0797
X-5.2346 Z-0.0794
X-5.2353
G2 Y-0.8989 I0 J0.0078
G1 X-5.2346 Y-0.8988
X-5.2339 Z-0.0797
X-5.2332 Z-0.0799
X-5.2325 Z-0.08
X-4.9718
X-4.9717 Z-0.045
X-4.9469 Z-0.0201
X-4.7675 Z-0.02
X-4.7668 Z-0.0199
X-4.7661 Z-0.0197
X-4.7655 Z-0.0194
X-4.7648
G3 Y-0.8832 I0 J0.0078
G1 X-4.7655
X-4.7661 Z-0.0197
X-4.7668 Z-0.0199
X-4.7675 Z-0.02
X-4.9469 Z-0.0201
X-4.9717 Z-0.045
X-4.9718 Z-0.08
X-5.2325
X-5.2332 Z-0.0799
X-5.2339 Z-0.0797
X-5.2346 Z-0.0794
X-5.2353
G2 Y-0.8676 I0 J0.0078
G1 X-5.2346
X-5.2339 Z-0.0797
X-5.2332 Z-0.0799
X-5.2325 Z-0.08
X-4.9718
X-4.9717 Z-0.045
X-4.9469 Z-0.0201
X-4.7675 Z-0.02
X-4.7668 Z-0.0199
X-4.7661 Z-0.0197
X-4.7655 Z-0.0194
X-4.7648
G3 Y-0.852 I0 J0.0078
G1 X-4.7655
X-4.7661 Z-0.0197
X-4.7668 Z-0.0199
X-4.7675 Z-0.02
X-4.9469 Z-0.0201
X-4.9717 Z-0.045
X-4.9718 Z-0.08
X-5.2325
X-5.2332 Z-0.0799
X-5.2339 Z-0.0797
X-5.2346 Z-0.0794
X-5.2353
G2 Y-0.8362 I0 J0.0079
G1 X-5.2346 Y-0.8363
X-5.2339 Z-0.0797
X-5.2332 Z-0.0799
X-5.2325 Z-0.08
X-4.9718
X-4.9717 Z-0.045
X-4.9469 Z-0.0201
X-4.7675 Z-0.02
X-4.7668 Z-0.0199
X-4.7661 Z-0.0197
X-4.7655 Z-0.0194
X-4.7648
G3 Y-0.8207 I0 J0.0078
G1 X-4.7655
X-4.7661 Z-0.0197
X-4.7668 Z-0.0199
X-4.7675 Z-0.02
X-4.9469 Z-0.0201
X-4.9717 Z-0.045
X-4.9718 Z-0.08
X-5.2325
X-5.2332 Z-0.0799
X-5.2339 Z-0.0797
X-5.2346 Z-0.0794
X-5.2353
G2 Y-0.8051 I0 J0.0078
G1 X-5.2346
X-5.2339 Z-0.0797
X-5.2332 Z-0.0799
X-5.2325 Z-0.08
X-4.9718
X-4.9717 Z-0.045
X-4.9469 Z-0.0201
X-4.7675 Z-0.02
X-4.7668 Z-0.0199
X-4.7661 Z-0.0197
X-4.7655 Z-0.0194
X-4.7648
G3 Y-0.7895 I0 J0.0078
G1 X-4.7655 Y-0.7894
X-4.7661 Z-0.0197
X-4.7668 Z-0.0199
X-4.7675 Z-0.02
X-4.9469 Z-0.0201
X-4.9717 Z-0.045
X-4.9718 Z-0.08
X-5.2325
X-5.2332 Z-0.0799
X-5.2339 Z-0.0797
X-5.2346 Z-0.0794
X-5.2353
G2 Y-0.7738 I0 J0.0078
G1 X-5.2346
X-5.2339 Z-0.0797
X-5.2332 Z-0.0799
X-5.2325 Z-0.08
X-4.9718
X-4.9717 Z-0.045
X-4.9469 Z-0.0201
X-4.7675 Z-0.02
X-4.7668 Z-0.0199
X-4.7661 Z-0.0197
X-4.7655 Z-0.0194
X-4.7648
G3 Y-0.7582 I0 J0.0078
G1 X-4.7655
X-4.7661 Z-0.0197
X-4.7668 Z-0.0199
X-4.7675 Z-0.02
X-4.9469 Z-0.0201
X-4.9717 Z-0.045
X-4.9718 Z-0.08
X-5.2325
X-5.2332 Z-0.0799
X-5.2339 Z-0.0797
X-5.2346 Z-0.0794
X-5.2353
G2 Y-0.7426 I0 J0.0078
G1 X-5.2346
X-5.2339 Z-0.0797
X-5.2332 Z-0.0799
X-5.2325 Z-0.08
X-4.9718
X-4.9717 Z-0.045
X-4.9469 Z-0.0201
X-4.7675 Z-0.02
X-4.7668 Z-0.0199
X-4.7661 Z-0.0197
X-4.7655 Z-0.0194
X-4.7648
G3 Y-0.7268 I0 J0.0079
G1 X-4.7655 Y-0.7269
X-4.7661 Z-0.0197
X-4.7668 Z-0.0199
X-4.7675 Z-0.02
X-4.9469 Z-0.0201
X-4.9717 Z-0.045
X-4.9718 Z-0.08
X-5.2325
X-5.2332 Z-0.0799
X-5.2339 Z-0.0797
X-5.2346 Z-0.0794
X-5.2353
G2 Y-0.7113 I0 J0.0078
G1 X-5.2346
X-5.2339 Z-0.0797
X-5.2332 Z-0.0799
X-5.2325 Z-0.08
X-4.9718
X-4.9717 Z-0.045
X-4.9469 Z-0.0201
X-4.7675 Z-0.02
X-4.7668 Z-0.0199
X-4.7661 Z-0.0197
X-4.7655 Z-0.0194
X-4.7648
G3 Y-0.6957 I0 J0.0078
G1 X-4.7655
X-4.7661 Z-0.0197
X-4.7668 Z-0.0199
X-4.7675 Z-0.02
X-4.9469 Z-0.0201
X-4.9717 Z-0.045
X-4.9718 Z-0.08
X-5.2325
X-5.2332 Z-0.0799
X-5.2339 Z-0.0797
X-5.2346 Z-0.0794
X-5.2353
G2 Y-0.6801 I0 J0.0078
G1 X-5.2346 Y-0.68
X-5.2339 Z-0.0797
X-5.2332 Z-0.0799
X-5.2325 Z-0.08
X-4.9718
X-4.9717 Z-0.045
X-4.9469 Z-0.0201
X-4.7675 Z-0.02
X-4.7668 Z-0.0199
X-4.7661 Z-0.0197
X-4.7655 Z-0.0194
X-4.7648
G3 Y-0.6644 I0 J0.0078
G1 X-4.7655
X-4.7661 Z-0.0197
X-4.7668 Z-0.0199
X-4.7675 Z-0.02
X-4.9469 Z-0.0201
X-4.9717 Z-0.045
X-4.9718 Z-0.08
X-5.2325
X-5.2332 Z-0.0799
X-5.2339 Z-0.0797
X-5.2346 Z-0.0794
X-5.2353
G2 Y-0.6488 I0 J0.0078
G1 X-5.2346
X-5.2339 Z-0.0797
X-5.2332 Z-0.0799
X-5.2325 Z-0.08
X-4.9718
X-4.9717 Z-0.045
X-4.9469 Z-0.0201
X-4.7675 Z-0.02
X-4.7668 Z-0.0199
X-4.7661 Z-0.0197
X-4.7655 Z-0.0194
X-4.7648
G3 Y-0.6332 I0 J0.0078
G1 X-4.7655 Y-0.6331
X-4.7661 Z-0.0197
X-4.7668 Z-0.0199
X-4.7675 Z-0.02
X-4.9469 Z-0.0201
X-4.9717 Z-0.045
X-4.9718 Z-0.08
X-5.2325
X-5.2332 Z-0.0799
X-5.2339 Z-0.0797
X-5.2346 Z-0.0794
X-5.2353
G2 Y-0.6175 I0 J0.0078
G1 X-5.2346
X-5.2339 Z-0.0797
X-5.2332 Z-0.0799
X-5.2325 Z-0.08
X-4.9718
X-4.9717 Z-0.045
X-4.9469 Z-0.0201
X-4.7675 Z-0.02
X-4.7668 Z-0.0199
X-4.7661 Z-0.0197
X-4.7655 Z-0.0194
X-4.7648
G3 Y-0.6019 I0 J0.0078
G1 X-4.7655
X-4.7661 Z-0.0197
X-4.7668 Z-0.0199
X-4.7675 Z-0.02
X-4.9469 Z-0.0201
X-4.9717 Z-0.045
X-4.9718 Z-0.08
X-5.2325
X-5.2332 Z-0.0799
X-5.2339 Z-0.0797
X-5.2346 Z-0.0794
X-5.2353
G2 Y-0.5863 I0 J0.0078
G1 X-5.2346
X-5.2339 Z-0.0797
X-5.2332 Z-0.0799
X-5.2325 Z-0.08
X-4.9718
X-4.9717 Z-0.045
X-4.9469 Z-0.0201
X-4.7675 Z-0.02
X-4.7668 Z-0.0199
X-4.7661 Z-0.0197
X-4.7655 Z-0.0194
X-4.7648
G3 Y-0.5705 I0 J0.0079
G1 X-4.7655 Y-0.5706
X-4.7661 Z-0.0197
X-4.7668 Z-0.0199
X-4.7675 Z-0.02
X-4.9469 Z-0.0201
X-4.9717 Z-0.045
X-4.9718 Z-0.08
X-5.2325
X-5.2332 Z-0.0799
X-5.2339 Z-0.0797
X-5.2346 Z-0.0794
X-5.2353
G2 Y-0.555 I0 J0.0078
G1 X-5.2346
X-5.2339 Z-0.0797
X-5.2332 Z-0.0799
X-5.2325 Z-0.08
X-4.9718
X-4.9717 Z-0.045
X-4.9469 Z-0.0201
X-4.7675 Z-0.02
X-4.7668 Z-0.0199
X-4.7661 Z-0.0197
X-4.7655 Z-0.0194
X-4.7648
G3 Y-0.5394 I0 J0.0078
G1 X-4.7655
X-4.7661 Z-0.0197
X-4.7668 Z-0.0199
X-4.7675 Z-0.02
X-4.9469 Z-0.0201
X-4.9717 Z-0.045
X-4.9718 Z-0.08
X-5.2325
X-5.2332 Z-0.0799
X-5.2339 Z-0.0797
X-5.2346 Z-0.0794
X-5.2353
G2 Y-0.5238 I0 J0.0078
G1 X-5.2346 Y-0.5237
X-5.2339 Z-0.0797
X-5.2332 Z-0.0799
X-5.2325 Z-0.08
X-4.9718
X-4.9717 Z-0.045
