%
(004 - Finishing Pass)
(T4 D=0.125 CR=0.0625 - ZMIN=-0.66 - ball end mill)
G90
G17
G20
(When using Fusion for Personal Use, the feedrate of rapid)
(moves is reduced to match the feedrate of cutting moves,)
(which can increase machining time. Unrestricted rapid moves)
(are available with a Fusion Subscription.)
G28 G91 Z0
G90

(Finishing Pass Cavity)
T4 M6
S14500 M3
G17 G90
G54
G0 X3.9823 Y-2.0125
Z0.6
G1 Z0.0578 F50
Z-0.0127 F10
G18 G3 X3.9698 Z-0.0252 I-0.0125 K0 F50
G1 X3.8033 Z-0.0254
X3.7961 Z-0.0264
X3.7894 Z-0.0282
X3.7814 Z-0.0315
X3.7708 Z-0.0375
X3.7594 Z-0.0452
X3.7486 Z-0.0538
X3.7372 Z-0.0645
X3.7314 Z-0.0715
X3.7266 Z-0.0795
X3.7263 Z-0.08
X3.0886
X3.0852 Z-0.0738
X3.0811 Z-0.0682
X3.0763 Z-0.0629
X3.0653 Z-0.0528
X3.0535 Z-0.0437
X3.041 Z-0.0356
X3.0311 Z-0.0303
X3.0241 Z-0.0277
X3.0169 Z-0.026
X3.0094 Z-0.0253
X-3.0101
X-3.0171 Z-0.026
X-3.0238 Z-0.0276
X-3.0303 Z-0.03
X-3.0396 Z-0.0347
X-3.0512 Z-0.0421
X-3.0623 Z-0.0504
X-3.0727 Z-0.0595
X-3.0801 Z-0.067
X-3.0845 Z-0.0729
X-3.0886 Z-0.08
X-3.7264
X-3.7298 Z-0.0738
X-3.7339 Z-0.0682
X-3.7387 Z-0.0629
X-3.7497 Z-0.0528
X-3.7615 Z-0.0437
X-3.774 Z-0.0356
X-3.7839 Z-0.0303
X-3.7909 Z-0.0277
X-3.7981 Z-0.026
X-3.8056 Z-0.0253
X-3.9698 Z-0.0252
G3 X-3.9823 Z-0.0127 I0 K0.0125
G1 Z0.2
X-4.1044 Y-2.0025
Z0.0581
Z-0.0127 F10
G2 X-4.0928 Z-0.0252 I0.0125 K0 F50
G1 X-4.0878 Z-0.0255
X-4.0439 Z-0.0284
X-4.0059 Z-0.0301
X-3.9749 Z-0.0306
X-3.8085 Z-0.0308
X-3.801 Z-0.0312
X-3.7937 Z-0.0326
X-3.7865 Z-0.0349
X-3.7761 Z-0.0392
X-3.7661 Z-0.0444
X-3.7565 Z-0.0502
X-3.7444 Z-0.059
X-3.7391 Z-0.0637
X-3.7343 Z-0.069
X-3.7303 Z-0.0747
X-3.7269 Z-0.0807
X-3.0881 Z-0.0808
X-3.0854 Z-0.0758
X-3.0813 Z-0.0697
X-3.0765 Z-0.0643
X-3.0699 Z-0.0584
X-3.0573 Z-0.0494
X-3.0454 Z-0.0425
X-3.0329 Z-0.0366
X-3.0231 Z-0.0332
X-3.0164 Z-0.0315
X-3.0092 Z-0.0308
X3.0065
X3.014 Z-0.0312
X3.0213 Z-0.0326
X3.0285 Z-0.0349
X3.0389 Z-0.0392
X3.0489 Z-0.0444
X3.0585 Z-0.0502
X3.0706 Z-0.059
X3.0759 Z-0.0637
X3.0807 Z-0.069
X3.0847 Z-0.0747
X3.0881 Z-0.0807
X3.7269 Z-0.0808
X3.7276 Z-0.0794
X3.7323 Z-0.0717
X3.7369 Z-0.066
X3.742 Z-0.061
X3.753 Z-0.0526
X3.7646 Z-0.0452
X3.7769 Z-0.0389
X3.7864 Z-0.035
X3.7963 Z-0.032
X3.8036 Z-0.0309
X3.9545 Z-0.0308
X3.9971 Z-0.0303
X4.0223 Z-0.0294
X4.047 Z-0.0282
X4.0928 Z-0.0252
X4.1445 Z-0.0198
X4.1454 Y-2.0024
X4.1463 Y-2.0022
X4.1471 Y-2.0019 Z-0.0199
X4.1479 Y-2.0015 Z-0.02
X4.1486 Y-2.001 Z-0.0202
X4.1492 Y-2.0004 Z-0.0205
X4.1497 Y-1.9997 Z-0.0208
X4.1501 Y-1.999 Z-0.0211
X4.1504 Y-1.9982 Z-0.0215
X4.1505 Y-1.9975 Z-0.0219
Y-1.9967 Z-0.0224
X4.1503 Y-1.9959 Z-0.0228
X4.15 Y-1.9952 Z-0.0232
X4.1496 Y-1.9945 Z-0.0236
X4.149 Y-1.9939 Z-0.024
X4.1484 Y-1.9934 Z-0.0244
X4.1476 Y-1.993 Z-0.0247
X4.1468 Y-1.9927 Z-0.0249
X4.146 Y-1.9925 Z-0.0251
X4.1451 Z-0.0252
X4.0645 Z-0.0336
X4.0336 Z-0.0364
X3.9988 Z-0.0385
X3.9562 Z-0.0392
X3.8052
X3.7975 Z-0.0398
X3.7874 Z-0.0416
X3.7775 Z-0.0446
X3.7679 Z-0.0484
X3.7556 Z-0.0546
X3.7497 Z-0.0582
X3.7441 Z-0.0625
X3.7389 Z-0.0675
X3.7343 Z-0.0731
X3.7304 Z-0.0794
X3.7285 Z-0.0833
X3.0865 Z-0.0832
X3.0833 Z-0.0771
X3.0794 Z-0.0714
X3.0748 Z-0.0661
X3.0695 Z-0.0613
X3.062 Z-0.0561
X3.0505 Z-0.05
X3.0401 Z-0.0455
X3.0294 Z-0.0421
X3.0184 Z-0.0399
X3.008 Z-0.0392
X-3.0125 Z-0.0393
X-3.0232 Z-0.0407
X-3.0331 Z-0.0432
X-3.0429 Z-0.0466
X-3.0554 Z-0.0525
X-3.0643 Z-0.0576
X-3.07 Z-0.0617
X-3.0753 Z-0.0666
X-3.08 Z-0.0721
X-3.084 Z-0.0784
X-3.0865 Z-0.0833
X-3.7285 Z-0.0832
X-3.7317 Z-0.0771
X-3.7356 Z-0.0714
X-3.7402 Z-0.0661
X-3.7455 Z-0.0613
X-3.753 Z-0.0561
X-3.7645 Z-0.05
X-3.7749 Z-0.0455
X-3.7856 Z-0.0421
X-3.7966 Z-0.0399
X-3.807 Z-0.0392
X-3.9744 Z-0.039
X-4.0054 Z-0.0382
X-4.0388 Z-0.036
X-4.0758 Z-0.0325
X-4.1451 Z-0.0252
X-4.1835 Z-0.0202
X-4.1844 Y-1.9924 Z-0.0201
X-4.1852 Y-1.9922
X-4.186 Y-1.9919
X-4.1868 Y-1.9915 Z-0.0203
X-4.1875 Y-1.991 Z-0.0204
X-4.1881 Y-1.9904 Z-0.0206
X-4.1886 Y-1.9897 Z-0.0209
X-4.189 Y-1.989 Z-0.0212
X-4.1892 Y-1.9882 Z-0.0216
X-4.1894 Y-1.9875 Z-0.022
X-4.1893 Y-1.9867 Z-0.0224
X-4.1892 Y-1.9859 Z-0.0228
X-4.1889 Y-1.9852 Z-0.0232
X-4.1885 Y-1.9845 Z-0.0236
X-4.188 Y-1.9839 Z-0.024
X-4.1873 Y-1.9834 Z-0.0243
X-4.1866 Y-1.983 Z-0.0246
X-4.1858 Y-1.9827 Z-0.0249
X-4.185 Y-1.9825 Z-0.0251
X-4.1841 Z-0.0252
X-4.1553 Z-0.029
X-4.1082 Z-0.0364
X-4.0714 Z-0.0421
X-4.0344 Z-0.0462
X-4.0049 Z-0.0482
X-3.974 Z-0.049
X-3.7978 Z-0.0492
X-3.7884 Z-0.0497
X-3.7809 Z-0.0508
X-3.7701 Z-0.0537
X-3.7596 Z-0.0577
X-3.7532 Z-0.0612
X-3.7474 Z-0.0654
X-3.7422 Z-0.0703
X-3.7378 Z-0.0758
X-3.7342 Z-0.0816
X-3.7314 Z-0.0876
X-3.0836 Z-0.0877
X-3.0812 Z-0.0824
X-3.0773 Z-0.0759
X-3.0726 Z-0.0702
X-3.0674 Z-0.0652
X-3.0616 Z-0.0611
X-3.0538 Z-0.057
X-3.0425 Z-0.053
X-3.0325 Z-0.0505
X-3.0223 Z-0.0493
X3.0051 Z-0.0492
X3.0242 Z-0.0494
X3.0354 Z-0.0511
X3.0462 Z-0.0542
X3.0565 Z-0.0583
X3.0628 Z-0.0619
X3.0685 Z-0.0662
X3.0735 Z-0.0712
X3.0785 Z-0.0776
X3.0811 Z-0.0821
X3.0836 Z-0.0876
X3.7314 Z-0.0877
X3.7349 Z-0.0804
X3.739 Z-0.0741
X3.7439 Z-0.0686
X3.7493 Z-0.0639
X3.7552 Z-0.06
X3.7615 Z-0.0569
X3.7712 Z-0.0534
X3.7812 Z-0.0508
X3.7918 Z-0.0493
X3.9544 Z-0.0492
X3.997 Z-0.0485
X4.0348 Z-0.0462
X4.065 Z-0.0429
X4.1077 Z-0.0365
X4.1455 Z-0.0305
X4.1841 Z-0.0252
X4.2162 Z-0.0201
X4.217 Y-1.9824 Z-0.02
X4.2179 Y-1.9822
X4.2187 Y-1.9819
X4.2195 Y-1.9815 Z-0.0201
X4.2202 Y-1.981 Z-0.0203
X4.2208 Y-1.9804 Z-0.0205
X4.2213 Y-1.9797 Z-0.0207
X4.2217 Y-1.979 Z-0.0211
X4.222 Y-1.9782 Z-0.0214
X4.2221 Y-1.9775 Z-0.0218
Y-1.9767 Z-0.0222
X4.222 Y-1.9759 Z-0.0226
X4.2217 Y-1.9752 Z-0.023
X4.2213 Y-1.9745 Z-0.0235
X4.2208 Y-1.9739 Z-0.0238
X4.2202 Y-1.9734 Z-0.0242
X4.2194 Y-1.973 Z-0.0245
X4.2187 Y-1.9727 Z-0.0248
X4.2178 Y-1.9725 Z-0.025
X4.217 Z-0.0252
X4.1851 Z-0.0303
X4.151 Z-0.0372
X4.1269 Z-0.0425
X4.0971 Z-0.0481
X4.0679 Z-0.0525
X4.0302 Z-0.0565
X3.9961 Z-0.0585
X3.9535 Z-0.0592
X3.7832 Z-0.0593
X3.7729 Z-0.0605
X3.7663 Z-0.0624
X3.7599 Z-0.0652
X3.7539 Z-0.069
X3.7484 Z-0.0737
X3.7437 Z-0.0793
X3.7397 Z-0.0858
X3.737 Z-0.0923
X3.7363 Z-0.0945
X3.0787
X3.0765 Z-0.0884
X3.0735 Z-0.0826
X3.0695 Z-0.077
X3.0647 Z-0.072
X3.0591 Z-0.0676
X3.0528 Z-0.064
X3.0459 Z-0.0614
X3.0386 Z-0.0599
X3.0282 Z-0.0592
X-3.0311
X-3.0416 Z-0.0604
X-3.0483 Z-0.0622
X-3.0547 Z-0.0649
X-3.0607 Z-0.0687
X-3.0662 Z-0.0733
X-3.071 Z-0.0789
X-3.075 Z-0.0853
X-3.0779 Z-0.0921
X-3.0787 Z-0.0945
X-3.7363
X-3.7385 Z-0.0884
X-3.7415 Z-0.0825
X-3.7455 Z-0.077
X-3.7503 Z-0.0719
X-3.7559 Z-0.0676
X-3.7622 Z-0.064
X-3.7691 Z-0.0614
X-3.7764 Z-0.0599
X-3.7868 Z-0.0592
X-3.9736 Z-0.059
X-4.0007 Z-0.0584
X-4.0378 Z-0.0558
X-4.0672 Z-0.0526
X-4.1032 Z-0.0471
X-4.1397 Z-0.0398
X-4.1648 Z-0.0343
X-4.1939 Z-0.0287
X-4.217 Z-0.0252
X-4.2449 Z-0.0203
X-4.2457 Y-1.9724 Z-0.0202
X-4.2466 Y-1.9722 Z-0.0201
X-4.2474 Y-1.9719
X-4.2482 Y-1.9715 Z-0.0202
X-4.2489 Y-1.971 Z-0.0203
X-4.2495 Y-1.9704 Z-0.0205
X-4.25 Y-1.9697 Z-0.0208
X-4.2504 Y-1.969 Z-0.0211
X-4.2507 Y-1.9682 Z-0.0214
X-4.2508 Y-1.9675 Z-0.0218
Y-1.9667 Z-0.0222
X-4.2507 Y-1.9659 Z-0.0226
X-4.2504 Y-1.9652 Z-0.023
X-4.25 Y-1.9645 Z-0.0234
X-4.2495 Y-1.9639 Z-0.0238
X-4.2489 Y-1.9634 Z-0.0242
X-4.2482 Y-1.963 Z-0.0245
X-4.2474 Y-1.9627 Z-0.0248
X-4.2466 Y-1.9625 Z-0.025
X-4.2457 Z-0.0252
X-4.2194 Z-0.0298
X-4.1907 Z-0.0365
X-4.1695 Z-0.0424
X-4.1333 Z-0.051
X-4.1042 Z-0.0567
X-4.0675 Z-0.0625
X-4.0343 Z-0.0663
X-4.0011 Z-0.069
X-3.9701 Z-0.07
X-3.7843 Z-0.0701
X-3.7768 Z-0.0705
X-3.7732 Z-0.0712
X-3.7697 Z-0.0723
X-3.7664 Z-0.0737
X-3.7632 Z-0.0754
X-3.7575 Z-0.0796
X-3.7529 Z-0.0846
X-3.7493 Z-0.0902
X-3.7474 Z-0.0946
X-3.7464 Z-0.0976
X-3.7454 Z-0.1022
X-3.7451 Z-0.1051
X-3.0699
X-3.069 Z-0.0991
X-3.067 Z-0.0929
X-3.065 Z-0.0889
X-3.063 Z-0.0859
X-3.0606 Z-0.0827
X-3.0581 Z-0.0802
X-3.0552 Z-0.0777
X-3.0523 Z-0.0757
X-3.0459 Z-0.0726
X-3.0392 Z-0.0707
X-3.0354 Z-0.0702
X3.0307 Z-0.0701
X3.0382 Z-0.0705
X3.0418 Z-0.0712
X3.0453 Z-0.0723
X3.0486 Z-0.0737
X3.0518 Z-0.0754
X3.0575 Z-0.0796
X3.0621 Z-0.0846
X3.0658 Z-0.0903
X3.0677 Z-0.0947
X3.0686 Z-0.0977
X3.0696 Z-0.1023
X3.0699 Z-0.1051
X3.7451
X3.7459 Z-0.0998
X3.7469 Z-0.0959
X3.7487 Z-0.0915
X3.7504 Z-0.0882
X3.7528 Z-0.0848
X3.7551 Z-0.082
X3.7578 Z-0.0793
X3.7606 Z-0.0771
X3.7668 Z-0.0735
X3.7734 Z-0.0712
X3.7802 Z-0.0701
X3.9621
X3.9987 Z-0.0692
X4.0317 Z-0.0666
X4.0614 Z-0.0632
X4.0963 Z-0.0581
X4.1335 Z-0.051
X4.163 Z-0.044
X4.1901 Z-0.0367
X4.2207 Z-0.0296
X4.2457 Z-0.0252
X4.2706 Z-0.0205
X4.2715 Y-1.9624 Z-0.0204
X4.2723 Y-1.9622 Z-0.0203
X4.2731 Y-1.9619
X4.2739 Y-1.9615 Z-0.0204
X4.2746 Y-1.961 Z-0.0205
X4.2752 Y-1.9604 Z-0.0207
X4.2757 Y-1.9597 Z-0.0209
X4.2761 Y-1.959 Z-0.0212
X4.2763 Y-1.9582 Z-0.0215
X4.2765 Y-1.9575 Z-0.0218
Y-1.9567 Z-0.0222
X4.2763 Y-1.9559 Z-0.0226
X4.2761 Y-1.9552 Z-0.023
X4.2757 Y-1.9545 Z-0.0234
X4.2752 Y-1.9539 Z-0.0238
X4.2746 Y-1.9534 Z-0.0242
X4.2739 Y-1.953 Z-0.0245
X4.2731 Y-1.9527 Z-0.0248
X4.2723 Y-1.9525 Z-0.025
X4.2715 Z-0.0252
X4.2506 Z-0.0292
X4.2234 Z-0.0361
X4.1967 Z-0.0444
X4.1609 Z-0.0542
X4.1313 Z-0.0612
X4.1031 Z-0.067
X4.069 Z-0.0744
X4.0624 Z-0.0759
X4.0383 Z-0.0809
X4.0316 Z-0.0824
X4.0007 Z-0.0877
X3.966 Z-0.0902
X3.7802 Z-0.0903
X3.7769 Z-0.0911
X3.7735 Z-0.0927
X3.7706 Z-0.0949
X3.7677 Z-0.0985
X3.7659 Z-0.1025
X3.7652 Z-0.1075
X3.7651 Z-0.1252
X3.0498
X3.0497 Z-0.1057
X3.049 Z-0.1022
X3.0471 Z-0.0981
X3.0451 Z-0.0956
X3.0421 Z-0.0931
X3.0389 Z-0.0914
X3.0339 Z-0.0902
X-3.0339
X-3.0373 Z-0.0908
X-3.0407 Z-0.0922
X-3.0437 Z-0.0942
X-3.0467 Z-0.0975
X-3.0486 Z-0.1012
X-3.0497 Z-0.1056
X-3.0499 Z-0.1252
X-3.7652
X-3.7653 Z-0.1057
X-3.766 Z-0.1022
X-3.7679 Z-0.0981
X-3.7699 Z-0.0956
X-3.7729 Z-0.0931
X-3.7761 Z-0.0914
X-3.7811 Z-0.0902
X-3.9686 Z-0.09
X-4.0001 Z-0.0878
X-4.0274 Z-0.0831
X-4.033 Z-0.0821
X-4.0564 Z-0.077
X-4.0676 Z-0.0748
X-4.0927 Z-0.0692
X-4.1395 Z-0.0593
X-4.169 Z-0.0521
X-4.204 Z-0.0422
X-4.225 Z-0.0356
X-4.2499 Z-0.0293
X-4.2685 Z-0.0257
X-4.2715 Z-0.0252
X-4.2935 Z-0.0207
X-4.2944 Y-1.9524 Z-0.0205
X-4.2952 Y-1.9522
X-4.296 Y-1.9519 Z-0.0204
X-4.2968 Y-1.9515 Z-0.0205
X-4.2975 Y-1.951 Z-0.0206
X-4.2981 Y-1.9504 Z-0.0207
X-4.2986 Y-1.9497 Z-0.0209
X-4.299 Y-1.949 Z-0.0212
X-4.2992 Y-1.9482 Z-0.0215
X-4.2994 Y-1.9475 Z-0.0218
Y-1.9467 Z-0.0222
X-4.2993 Y-1.9459 Z-0.0226
X-4.299 Y-1.9452 Z-0.023
X-4.2986 Y-1.9445 Z-0.0234
X-4.2981 Y-1.9439 Z-0.0238
X-4.2975 Y-1.9434 Z-0.0241
X-4.2968 Y-1.943 Z-0.0245
X-4.2961 Y-1.9427 Z-0.0248
X-4.2953 Y-1.9425 Z-0.025
X-4.2944 Z-0.0252
X-4.2778 Z-0.0286
X-4.2562 Z-0.0344
X-4.239 Z-0.0402
X-4.2036 Z-0.0518
X-4.1817 Z-0.0582
X-4.1459 Z-0.0679
X-4.1214 Z-0.0758
X-4.1073 Z-0.081
X-4.0877 Z-0.0903
X-4.0815 Z-0.094
X-4.0763 Z-0.0982
X-4.0741 Z-0.1007
X-4.0727 Z-0.1031
X-4.072 Z-0.1051
X-4.0717 Z-0.1075
Z-0.1077
Z-0.3106
X-4.0688 Z-0.3179
X-4.063 Z-0.3228
X-4.0558 Z-0.3257
X-4.042 Z-0.3302
X-4.0279 Z-0.3333
X-3.9992 Z-0.3367
X-3.9694 Z-0.338
X3.9625 Z-0.3381
X3.9973 Z-0.3368
X4.0191 Z-0.3345
X4.034 Z-0.3321
X4.0478 Z-0.3285
X4.0615 Z-0.3237
X4.0673 Z-0.3193
X4.0699 Z-0.3153
X4.0716 Z-0.3109
X4.0717 Z-0.1075
X4.0721 Z-0.1049
X4.0728 Z-0.1029
X4.0754 Z-0.0992
X4.078 Z-0.0966
X4.0809 Z-0.0944
X4.0872 Z-0.0905
X4.0997 Z-0.0844
X4.1123 Z-0.079
X4.139 Z-0.07
X4.1591 Z-0.0644
X4.184 Z-0.0576
X4.2057 Z-0.0511
X4.2402 Z-0.0398
X4.2564 Z-0.0343
X4.277 Z-0.0288
X4.2944 Z-0.0252
X4.3149 Z-0.0205
X4.3157 Y-1.9424 Z-0.0204
X4.3165 Y-1.9422 Z-0.0203
X4.3174 Y-1.9419 Z-0.0202
X4.3181 Y-1.9415 Z-0.0203
X4.3188 Y-1.941 Z-0.0204
X4.3194 Y-1.9404 Z-0.0205
X4.32 Y-1.9397 Z-0.0207
X4.3204 Y-1.939 Z-0.021
X4.3206 Y-1.9382 Z-0.0213
X4.3208 Y-1.9375 Z-0.0216
Y-1.9367 Z-0.022
X4.3207 Y-1.9359 Z-0.0224
X4.3204 Y-1.9352 Z-0.0228
X4.3201 Y-1.9345 Z-0.0233
X4.3196 Y-1.9339 Z-0.0237
X4.319 Y-1.9334 Z-0.024
X4.3183 Y-1.933 Z-0.0244
X4.3176 Y-1.9327 Z-0.0247
X4.3168 Y-1.9325 Z-0.025
X4.3159 Z-0.0252
X4.2952 Z-0.03
X4.2788 Z-0.0349
X4.2279 Z-0.0535
X4.1781 Z-0.0696
X4.1654 Z-0.0748
X4.1492 Z-0.0826
X4.1403 Z-0.0881
X4.1348 Z-0.0927
X4.1323 Z-0.0954
X4.1299 Z-0.0988
X4.1282 Z-0.1025
X4.1273 Z-0.1075
Z-0.1077
Z-0.3108
X4.1264 Z-0.3137
X4.1242 Z-0.3191
X4.119 Z-0.3243
X4.1126 Z-0.3283
X4.0992 Z-0.3344
X4.0848 Z-0.3384
X4.0633 Z-0.3428
X4.0408 Z-0.3456
X4.019 Z-0.3474
X3.9892 Z-0.3488
X3.9505 Z-0.3493
X-3.9776 Z-0.3491
X-4.0077 Z-0.3481
X-4.0297 Z-0.3467
X-4.0591 Z-0.3435
X-4.08 Z-0.3396
X-4.0977 Z-0.3349
X-4.1111 Z-0.3292
X-4.1204 Z-0.3231
X-4.1251 Z-0.3181
X-4.1273 Z-0.3106
Z-0.3104
Z-0.1075
X-4.1282 Z-0.1024
X-4.1293 Z-0.0998
X-4.1325 Z-0.0952
X-4.1374 Z-0.0904
X-4.1432 Z-0.0861
X-4.1529 Z-0.0806
X-4.1693 Z-0.0731
X-4.1833 Z-0.0677
X-4.2332 Z-0.0516
X-4.2815 Z-0.0339
X-4.296 Z-0.0297
X-4.3159 Z-0.0252
X-4.3352 Z-0.0208
X-4.336 Y-1.9324 Z-0.0207
X-4.3369 Y-1.9322 Z-0.0206
X-4.3377 Y-1.9319 Z-0.0205
X-4.3384 Y-1.9315
X-4.3391 Y-1.931 Z-0.0206
X-4.3397 Y-1.9304 Z-0.0207
X-4.3402 Y-1.9297 Z-0.0209
X-4.3406 Y-1.929 Z-0.0212
X-4.3409 Y-1.9282 Z-0.0215
X-4.341 Y-1.9275 Z-0.0218
X-4.3411 Y-1.9267 Z-0.0222
X-4.3409 Y-1.9259 Z-0.0225
X-4.3407 Y-1.9252 Z-0.0229
X-4.3403 Y-1.9245 Z-0.0233
X-4.3398 Y-1.9239 Z-0.0237
X-4.3392 Y-1.9234 Z-0.0241
X-4.3386 Y-1.923 Z-0.0244
X-4.3378 Y-1.9227 Z-0.0247
X-4.337 Y-1.9225 Z-0.025
X-4.3362 Z-0.0252
X-4.3278 Z-0.027
X-4.3132 Z-0.0308
X-4.2979 Z-0.0361
X-4.2615 Z-0.0507
X-4.2159 Z-0.0671
X-4.2021 Z-0.073
X-4.1897 Z-0.0798
X-4.1804 Z-0.0859
X-4.175 Z-0.0905
X-4.1707 Z-0.0956
X-4.1681 Z-0.1003
X-4.1672 Z-0.1031
X-4.1666 Z-0.1073
Z-0.1075
Z-0.3106
X-4.1644 Z-0.3191
X-4.1618 Z-0.323
X-4.1593 Z-0.3256
X-4.1559 Z-0.3284
X-4.1466 Z-0.3336
X-4.1332 Z-0.3391
X-4.1266 Z-0.3412
X-4.1126 Z-0.3446
X-4.0909 Z-0.3486
X-4.0631 Z-0.3518
X-4.0272 Z-0.3542
X-3.9807 Z-0.3554
X3.9667 Z-0.3556
X4.0209 Z-0.3544
X4.0618 Z-0.3519
X4.0837 Z-0.3494
X4.0986 Z-0.3473
X4.1201 Z-0.3429
X4.1337 Z-0.3389
X4.1475 Z-0.3331
X4.1542 Z-0.3296
X4.1599 Z-0.3251
X4.164 Z-0.3197
X4.1655 Z-0.316
X4.1665 Z-0.3111
Z-0.3109
X4.1666 Z-0.1075
X4.1673 Z-0.1025
X4.1694 Z-0.0977
X4.1714 Z-0.0946
X4.174 Z-0.0916
X4.1765 Z-0.0891
X4.182 Z-0.0847
X4.1886 Z-0.0805
X4.2006 Z-0.0738
X4.2131 Z-0.0682
X4.2552 Z-0.053
X4.2827 Z-0.0422
X4.3057 Z-0.0332
X4.3188 Z-0.0292
X4.3362 Z-0.0252
X4.3534 Z-0.021
X4.3543 Y-1.9224 Z-0.0208
X4.3551 Y-1.9222 Z-0.0207
X4.3559 Y-1.9219 Z-0.0206
X4.3567 Y-1.9215
X4.3573 Y-1.921 Z-0.0207
X4.3579 Y-1.9204 Z-0.0208
X4.3584 Y-1.9197 Z-0.021
X4.3588 Y-1.919 Z-0.0212
X4.3591 Y-1.9182 Z-0.0215
X4.3593 Y-1.9175 Z-0.0218
Y-1.9167 Z-0.0221
X4.3592 Y-1.9159 Z-0.0225
X4.3589 Y-1.9152 Z-0.0229
X4.3586 Y-1.9145 Z-0.0233
X4.3581 Y-1.9139 Z-0.0237
X4.3575 Y-1.9134 Z-0.024
X4.3568 Y-1.913 Z-0.0244
X4.3561 Y-1.9127 Z-0.0247
X4.3553 Y-1.9125 Z-0.025
X4.3545 Z-0.0252
X4.3404 Z-0.0287
X4.3238 Z-0.034
X4.3107 Z-0.0393
X4.2875 Z-0.0494
X4.2495 Z-0.0644
X4.2365 Z-0.0699
X4.2273 Z-0.0748
X4.215 Z-0.0829
X4.2095 Z-0.0875
X4.2046 Z-0.093
X4.2026 Z-0.0961
X4.2005 Z-0.1004
X4.1994 Z-0.1053
X4.1993 Z-0.3106
X4.1983 Z-0.3161
X4.197 Z-0.3197
X4.1932 Z-0.3253
X4.188 Z-0.3303
X4.1815 Z-0.3343
X4.1682 Z-0.3403
X4.1539 Z-0.345
X4.1391 Z-0.3484
X4.1242 Z-0.3512
X4.0949 Z-0.3547
X4.0579 Z-0.3571
X4.004 Z-0.3586
X3.9072 Z-0.3589
X-3.9899 Z-0.3587
X-4.0438 Z-0.3576
X-4.0698 Z-0.3565
X-4.0978 Z-0.3544
X-4.1264 Z-0.3508
X-4.1405 Z-0.3481
X-4.1583 Z-0.3438
X-4.172 Z-0.3388
X-4.1817 Z-0.3341
X-4.1875 Z-0.3306
X-4.1907 Z-0.3279
X-4.194 Z-0.3245
X-4.1975 Z-0.3189
X-4.1993 Z-0.3106
Z-0.3104
Z-0.1073
X-4.1996 Z-0.104
X-4.2008 Z-0.0998
X-4.2035 Z-0.0945
X-4.2077 Z-0.0893
X-4.2129 Z-0.0845
X-4.2188 Z-0.0802
X-4.2309 Z-0.0728
X-4.241 Z-0.0678
X-4.2923 Z-0.0474
X-4.316 Z-0.037
X-4.3301 Z-0.0319
X-4.3446 Z-0.0275
X-4.3545 Z-0.0252
X-4.3711 Z-0.0209
X-4.3719 Y-1.9124 Z-0.0207
X-4.3728 Y-1.9122 Z-0.0205
X-4.3736 Y-1.9119
X-4.3743 Y-1.9115
X-4.375 Y-1.911
X-4.3756 Y-1.9104 Z-0.0206
X-4.3761 Y-1.9097 Z-0.0208
X-4.3765 Y-1.909 Z-0.021
X-4.3768 Y-1.9082 Z-0.0213
X-4.377 Y-1.9075 Z-0.0216
Y-1.9067 Z-0.022
X-4.3769 Y-1.9059 Z-0.0224
X-4.3767 Y-1.9052 Z-0.0228
X-4.3763 Y-1.9045 Z-0.0232
X-4.3758 Y-1.9039 Z-0.0236
X-4.3752 Y-1.9034 Z-0.024
X-4.3746 Y-1.903 Z-0.0243
X-4.3738 Y-1.9027 Z-0.0247
X-4.3731 Y-1.9025 Z-0.025
X-4.3722 Z-0.0252
X-4.3552 Z-0.0297
X-4.341 Z-0.0347
X-4.3002 Z-0.053
X-4.2757 Z-0.0633
X-4.2628 Z-0.0692
X-4.2506 Z-0.0763
X-4.2417 Z-0.0828
X-4.2365 Z-0.0877
X-4.2323 Z-0.0929
X-4.2295 Z-0.0983
X-4.2281 Z-0.1028
X-4.2276 Z-0.1075
Z-0.1077
Z-0.3106
X-4.2265 Z-0.3169
X-4.225 Z-0.3208
X-4.2228 Z-0.3247
X-4.2206 Z-0.3272
X-4.215 Z-0.332
X-4.2117 Z-0.3344
X-4.2023 Z-0.3394
X-4.1895 Z-0.3445
X-4.1755 Z-0.3485
X-4.1614 Z-0.3516
X-4.1479 Z-0.3537
X-4.1261 Z-0.3562
X-4.0966 Z-0.3583
X-4.066 Z-0.3593
X-4.0157 Z-0.3598
X3.8892 Z-0.36
X4.044 Z-0.3596
X4.0866 Z-0.3587
X4.1169 Z-0.3571
X4.1395 Z-0.3548
X4.1619 Z-0.3515
X4.1767 Z-0.3482
X4.1913 Z-0.3439
X4.2043 Z-0.3383
X4.211 Z-0.3348
X4.2172 Z-0.3305
X4.2221 Z-0.3254
X4.2256 Z-0.3197
X4.2268 Z-0.3154
X4.2274 Z-0.3118
Z-0.3116
X4.2276 Z-0.1075
X4.2279 Z-0.1038
X4.2288 Z-0.1003
X4.2313 Z-0.0946
X4.2336 Z-0.0912
X4.2358 Z-0.0884
X4.241 Z-0.0833
X4.2466 Z-0.079
X4.259 Z-0.0712
X4.2683 Z-0.0665
X4.2917 Z-0.0567
X4.3325 Z-0.0384
X4.342 Z-0.0343
X4.3549 Z-0.0298
X4.3722 Z-0.0252
X4.3876 Z-0.0211
X4.3884 Y-1.9024 Z-0.0209
X4.3892 Y-1.9022 Z-0.0208
X4.39 Y-1.9019 Z-0.0207
X4.3908 Y-1.9015
X4.3915 Y-1.901
X4.3921 Y-1.9004 Z-0.0208
X4.3926 Y-1.8997 Z-0.021
X4.393 Y-1.899 Z-0.0212
X4.3932 Y-1.8982 Z-0.0214
X4.3934 Y-1.8975 Z-0.0218
Y-1.8967 Z-0.0221
X4.3933 Y-1.8959 Z-0.0225
X4.3931 Y-1.8952 Z-0.0228
X4.3927 Y-1.8945 Z-0.0232
X4.3922 Y-1.8939 Z-0.0236
X4.3917 Y-1.8934 Z-0.024
X4.391 Y-1.893 Z-0.0244
X4.3903 Y-1.8927 Z-0.0247
X4.3895 Y-1.8925 Z-0.025
X4.3887 Z-0.0252
X4.3747 Z-0.029
X4.3618 Z-0.0336
X4.3493 Z-0.0392
X4.3158 Z-0.0551
X4.2919 Z-0.0658
X4.2794 Z-0.0726
X4.2704 Z-0.0787
X4.265 Z-0.0833
X4.2601 Z-0.0887
X4.258 Z-0.0916
X4.2559 Z-0.0953
X4.2544 Z-0.0989
X4.2533 Z-0.1032
X4.2529 Z-0.1075
Z-0.1077
Z-0.3108
X4.2518 Z-0.3176
X4.2507 Z-0.3205
X4.2476 Z-0.3257
X4.2426 Z-0.3308
X4.2367 Z-0.3353
X4.2302 Z-0.3392
X4.2175 Z-0.3449
X4.2104 Z-0.3473
X4.1958 Z-0.3511
X4.1817 Z-0.3539
X4.16 Z-0.3568
X4.1334 Z-0.3587
X4.1071 Z-0.3596
X4.0335 Z-0.36
X-4.092 Z-0.3598
X-4.1226 Z-0.3592
X-4.1451 Z-0.358
X-4.1662 Z-0.356
X-4.1805 Z-0.3541
X-4.1939 Z-0.3516
X-4.2079 Z-0.348
X-4.2153 Z-0.3457
X-4.2217 Z-0.3432
X-4.2313 Z-0.3385
X-4.2406 Z-0.3324
X-4.2459 Z-0.3276
X-4.2481 Z-0.3251
X-4.2504 Z-0.3212
X-4.2518 Z-0.318
X-4.2529 Z-0.3106
Z-0.3104
Z-0.1073
X-4.2532 Z-0.1036
X-4.2542 Z-0.0993
X-4.2566 Z-0.0939
X-4.2603 Z-0.0885
X-4.265 Z-0.0833
X-4.2705 Z-0.0786
X-4.2796 Z-0.0724
X-4.2925 Z-0.0654
X-4.3294 Z-0.0487
X-4.3533 Z-0.0372
X-4.3672 Z-0.0315
X-4.3816 Z-0.027
X-4.3887 Z-0.0252
X-4.4034 Z-0.0214
X-4.4043 Y-1.8924 Z-0.0212
X-4.4051 Y-1.8922 Z-0.021
X-4.4059 Y-1.8919
X-4.4066 Y-1.8915 Z-0.0209
X-4.4073 Y-1.891 Z-0.021
X-4.4079 Y-1.8904 Z-0.0211
X-4.4084 Y-1.8897 Z-0.0212
X-4.4087 Y-1.889 Z-0.0214
X-4.409 Y-1.8882 Z-0.0216
X-4.4092 Y-1.8875 Z-0.0219
Y-1.8867 Z-0.0222
X-4.4091 Y-1.8859 Z-0.0226
X-4.4088 Y-1.8852 Z-0.023
X-4.4085 Y-1.8845 Z-0.0233
X-4.408 Y-1.8839 Z-0.0237
X-4.4074 Y-1.8834 Z-0.024
X-4.4068 Y-1.883 Z-0.0244
X-4.406 Y-1.8827 Z-0.0247
X-4.4053 Y-1.8825 Z-0.025
X-4.4045 Z-0.0252
X-4.3987 Z-0.0267
X-4.3844 Z-0.0313
X-4.3739 Z-0.0355
X-4.3604 Z-0.0423
X-4.3158 Z-0.064
X-4.3042 Z-0.07
X-4.295 Z-0.0762
X-4.2895 Z-0.0809
X-4.2846 Z-0.086
X-4.281 Z-0.091
X-4.278 Z-0.0966
X-4.2764 Z-0.1014
X-4.2757 Z-0.1061
X-4.2756 Z-0.3106
X-4.275 Z-0.315
X-4.2735 Z-0.3203
X-4.2715 Z-0.3244
X-4.2694 Z-0.3271
X-4.2643 Z-0.3323
X-4.2553 Z-0.3389
X-4.2458 Z-0.3439
X-4.2321 Z-0.3487
X-4.2182 Z-0.3524
X-4.204 Z-0.3551
X-4.1829 Z-0.3577
X-4.1616 Z-0.3592
X-4.1345 Z-0.3599
X4.1187 Z-0.36
X4.1604 Z-0.3592
X4.1824 Z-0.3578
X4.205 Z-0.355
X4.2198 Z-0.352
X4.2337 Z-0.3483
X4.2475 Z-0.343
X4.2543 Z-0.3395
X4.2606 Z-0.3354
X4.2662 Z-0.3306
X4.2709 Z-0.3252
X4.274 Z-0.3192
X4.2755 Z-0.3114
Z-0.3112
X4.2757 Z-0.1055
X4.2766 Z-0.1004
X4.2775 Z-0.0977
X4.2794 Z-0.0938
X4.2815 Z-0.0903
X4.286 Z-0.0844
X4.2911 Z-0.0794
X4.2994 Z-0.0731
X4.3087 Z-0.0675
X4.3395 Z-0.0526
X4.3652 Z-0.0398
X4.3776 Z-0.0339
X4.3905 Z-0.0292
X4.4045 Z-0.0252
X4.4183 Z-0.0212
X4.4191 Y-1.8824 Z-0.021
X4.4199 Y-1.8822 Z-0.0208
X4.4207 Y-1.8819 Z-0.0207
X4.4214 Y-1.8815
X4.4221 Y-1.881
X4.4227 Y-1.8804 Z-0.0208
X4.4232 Y-1.8797 Z-0.021
X4.4236 Y-1.879 Z-0.0212
X4.4239 Y-1.8782 Z-0.0214
X4.4241 Y-1.8775 Z-0.0217
Y-1.8767 Z-0.022
X4.424 Y-1.8759 Z-0.0224
X4.4238 Y-1.8752 Z-0.0228
X4.4234 Y-1.8745 Z-0.0232
X4.4229 Y-1.8739 Z-0.0236
X4.4224 Y-1.8734 Z-0.0239
X4.4217 Y-1.873 Z-0.0243
X4.421 Y-1.8727 Z-0.0246
X4.4202 Y-1.8725 Z-0.025
X4.4194 Z-0.0252
X4.4055 Z-0.0292
X4.3927 Z-0.0343
X4.3677 Z-0.0471
X4.3413 Z-0.0605
X4.3284 Z-0.067
X4.3196 Z-0.0726
X4.3114 Z-0.0794
X4.3064 Z-0.0842
X4.3039 Z-0.0873
X4.3013 Z-0.0909
X4.2995 Z-0.0941
X4.2977 Z-0.0985
X4.2967 Z-0.1028
X4.2963 Z-0.1072
Z-0.1074
Z-0.3106
X4.2947 Z-0.3195
X4.2918 Z-0.3254
X4.2874 Z-0.3309
X4.282 Z-0.3358
X4.2759 Z-0.3401
X4.2693 Z-0.3435
X4.2555 Z-0.3489
X4.2483 Z-0.3512
X4.2337 Z-0.3546
X4.2187 Z-0.357
X4.2044 Z-0.3585
X4.1816 Z-0.3596
X4.139 Z-0.36
X-4.1723 Z-0.3598
X-4.1945 Z-0.3591
X-4.2097 Z-0.358
X-4.2307 Z-0.3551
X-4.2449 Z-0.3521
X-4.258 Z-0.3481
X-4.2716 Z-0.3423
X-4.2776 Z-0.339
X-4.2844 Z-0.3339
X-4.2893 Z-0.329
X-4.2936 Z-0.3221
X-4.2949 Z-0.319
X-4.2963 Z-0.3106
Z-0.3104
Z-0.1071
X-4.2967 Z-0.1026
X-4.2981 Z-0.0976
X-4.3006 Z-0.0922
X-4.3042 Z-0.0868
X-4.3102 Z-0.0805
X-4.3164 Z-0.075
X-4.3255 Z-0.0687
X-4.337 Z-0.0626
X-4.355 Z-0.0537
X-4.3887 Z-0.0363
X-4.3982 Z-0.032
X-4.4088 Z-0.0282
X-4.4194 Z-0.0252
X-4.4327 Z-0.0215
X-4.4335 Y-1.8724 Z-0.0213
X-4.4343 Y-1.8722 Z-0.0212
X-4.4351 Y-1.8719 Z-0.0211
X-4.4358 Y-1.8715 Z-0.021
X-4.4365 Y-1.871
X-4.4371 Y-1.8704 Z-0.0211
X-4.4375 Y-1.8697 Z-0.0212
X-4.4379 Y-1.869 Z-0.0214
X-4.4382 Y-1.8682 Z-0.0217
X-4.4383 Y-1.8675 Z-0.0219
X-4.4384 Y-1.8667 Z-0.0222
X-4.4382 Y-1.8659 Z-0.0226
X-4.438 Y-1.8652 Z-0.0229
X-4.4377 Y-1.8645 Z-0.0233
X-4.4372 Y-1.8639 Z-0.0237
X-4.4366 Y-1.8634 Z-0.024
X-4.436 Y-1.863 Z-0.0244
X-4.4353 Y-1.8627 Z-0.0247
X-4.4345 Y-1.8625 Z-0.025
X-4.4337 Z-0.0252
X-4.4279 Z-0.0268
X-4.4137 Z-0.0318
X-4.4035 Z-0.0364
X-4.3876 Z-0.0451
X-4.3539 Z-0.0628
X-4.3448 Z-0.068
X-4.3356 Z-0.0742
X-4.3301 Z-0.0789
X-4.3252 Z-0.084
X-4.3212 Z-0.0895
X-4.3182 Z-0.0952
X-4.3165 Z-0.1005
X-4.3158 Z-0.1045
Z-0.1047
X-4.3157 Z-0.3106
X-4.3149 Z-0.3168
X-4.314 Z-0.3202
X-4.3121 Z-0.3245
X-4.3098 Z-0.3281
X-4.3075 Z-0.331
X-4.302 Z-0.336
X-4.2961 Z-0.3401
X-4.2891 Z-0.344
X-4.2829 Z-0.3468
X-4.2691 Z-0.3517
X-4.255 Z-0.355
X-4.2415 Z-0.3572
X-4.2204 Z-0.3592
X-4.201 Z-0.3598
X3.3399 Z-0.36
X4.2032 Z-0.3598
X4.2253 Z-0.3589
X4.2404 Z-0.3574
X4.2545 Z-0.3551
X4.2693 Z-0.3517
X4.2764 Z-0.3493
X4.29 Z-0.3436
X4.2966 Z-0.3398
X4.3027 Z-0.3355
X4.3079 Z-0.3305
X4.312 Z-0.3247
X4.3147 Z-0.3183
X4.3156 Z-0.3116
Z-0.3114
X4.3157 Z-0.1075
X4.3162 Z-0.1019
X4.3169 Z-0.0991
X4.3182 Z-0.0954
X4.3201 Z-0.0914
X4.322 Z-0.0883
X4.3265 Z-0.0825
X4.3317 Z-0.0775
X4.3378 Z-0.0726
X4.3495 Z-0.0652
X4.369 Z-0.055
X4.3949 Z-0.041
X4.4071 Z-0.0346
X4.4199 Z-0.0295
X4.4337 Z-0.0252
X4.4462 Z-0.0214
X4.447 Y-1.8624 Z-0.0212
X4.4478 Y-1.8622 Z-0.021
X4.4486 Y-1.8619 Z-0.0209
X4.4493 Y-1.8615 Z-0.0208
X4.45 Y-1.861
X4.4506 Y-1.8604 Z-0.0209
X4.4511 Y-1.8597 Z-0.021
X4.4515 Y-1.859 Z-0.0212
X4.4517 Y-1.8582 Z-0.0214
X4.4519 Y-1.8575 Z-0.0217
Y-1.8567 Z-0.022
X4.4518 Y-1.8559 Z-0.0224
X4.4516 Y-1.8552 Z-0.0228
X4.4513 Y-1.8545 Z-0.0231
X4.4508 Y-1.8539 Z-0.0235
X4.4503 Y-1.8534 Z-0.0239
X4.4496 Y-1.853 Z-0.0243
X4.4489 Y-1.8527 Z-0.0246
X4.4481 Y-1.8525 Z-0.0249
X4.4473 Z-0.0252
X4.4367 Z-0.0284
X4.4271 Z-0.0321
X4.4159 Z-0.0377
X4.3623 Z-0.0673
X4.3538 Z-0.0733
X4.3484 Z-0.078
X4.3436 Z-0.0833
X4.3393 Z-0.0894
X4.336 Z-0.0965
X4.3342 Z-0.1031
X4.3339 Z-0.1075
X4.3338 Z-0.3117
X4.333 Z-0.3177
X4.3322 Z-0.3203
X4.3295 Z-0.3259
X4.3253 Z-0.3314
X4.3202 Z-0.3363
X4.3142 Z-0.3407
X4.3078 Z-0.3445
X4.3009 Z-0.3478
X4.2869 Z-0.3524
X4.2796 Z-0.3544
X4.2648 Z-0.3572
X4.2498 Z-0.3588
X4.2315 Z-0.3597
X4.1812 Z-0.36
X-4.2269 Z-0.3599
X-4.2424 Z-0.3594
X-4.2635 Z-0.3573
X-4.2777 Z-0.3548
X-4.2917 Z-0.351
X-4.3017 Z-0.3474
X-4.3115 Z-0.3424
X-4.3173 Z-0.3386
X-4.3226 Z-0.3343
X-4.3273 Z-0.3293
X-4.3304 Z-0.3245
X-4.332 Z-0.3207
X-4.3332 Z-0.3162
X-4.3339 Z-0.3106
Z-0.3104
Z-0.1072
X-4.3344 Z-0.102
X-4.3357 Z-0.0973
X-4.3381 Z-0.0915
X-4.3412 Z-0.0864
X-4.3455 Z-0.081
X-4.3506 Z-0.0759
X-4.3594 Z-0.0692
X-4.3697 Z-0.0632
X-4.4213 Z-0.0348
X-4.4316 Z-0.0302
X-4.4423 Z-0.0266
X-4.4473 Z-0.0252
X-4.4593 Z-0.0216
X-4.4601 Y-1.8524 Z-0.0213
X-4.4609 Y-1.8522 Z-0.0212
X-4.4617 Y-1.8519 Z-0.021
X-4.4624 Y-1.8515
X-4.4631 Y-1.851
X-4.4637 Y-1.8504
X-4.4642 Y-1.8497 Z-0.0212
X-4.4645 Y-1.849 Z-0.0213
X-4.4648 Y-1.8482 Z-0.0215
X-4.465 Y-1.8475 Z-0.0218
Y-1.8467 Z-0.0221
X-4.4649 Y-1.8459 Z-0.0225
X-4.4647 Y-1.8452 Z-0.0228
X-4.4643 Y-1.8445 Z-0.0232
X-4.4639 Y-1.8439 Z-0.0236
X-4.4633 Y-1.8434 Z-0.0239
X-4.4627 Y-1.843 Z-0.0243
X-4.462 Y-1.8427 Z-0.0246
X-4.4612 Y-1.8425 Z-0.0249
X-4.4604 Z-0.0252
X-4.4526 Z-0.0276
X-4.4404 Z-0.0323
X-4.4304 Z-0.0372
X-4.4147 Z-0.0465
X-4.3817 Z-0.0651
X-4.3729 Z-0.0711
X-4.3648 Z-0.078
X-4.3601 Z-0.0832
X-4.3561 Z-0.0888
X-4.3533 Z-0.0945
X-4.3516 Z-0.0995
X-4.3511 Z-0.1018
X-4.3506 Z-0.1071
Z-0.1073
Z-0.3106
X-4.3493 Z-0.3193
X-4.3476 Z-0.3241
X-4.3458 Z-0.327
X-4.3414 Z-0.3329
X-4.3362 Z-0.3377
X-4.3304 Z-0.3419
X-4.3207 Z-0.347
X-4.3108 Z-0.351
X-4.2976 Z-0.3548
X-4.2909 Z-0.3562
X-4.2766 Z-0.3583
X-4.266 Z-0.3593
X-4.2505 Z-0.3598
X4.2002 Z-0.36
X4.2544 Z-0.3597
X4.2697 Z-0.359
X4.2839 Z-0.3573
X4.2988 Z-0.3545
X4.3061 Z-0.3525
X4.3193 Z-0.3477
X4.3262 Z-0.3444
X4.3325 Z-0.3406
X4.3382 Z-0.336
X4.3432 Z-0.3308
X4.3471 Z-0.3249
X4.3496 Z-0.3185
X4.3504 Z-0.3122
Z-0.312
X4.3506 Z-0.1075
X4.3511 Z-0.1018
X4.3528 Z-0.0956
X4.3546 Z-0.0916
X4.3586 Z-0.0851
X4.3636 Z-0.0793
X4.3717 Z-0.072
X4.3803 Z-0.0659
X4.4032 Z-0.0531
X4.428 Z-0.0386
X4.4371 Z-0.0337
X4.4466 Z-0.0297
X4.4604 Z-0.0252
X4.4717 Z-0.0215
X4.4725 Y-1.8424 Z-0.0213
X4.4733 Y-1.8422 Z-0.0211
X4.474 Y-1.8419 Z-0.021
X4.4748 Y-1.8415 Z-0.0209
X4.4754 Y-1.841
X4.476 Y-1.8404
X4.4765 Y-1.8397 Z-0.0211
X4.4769 Y-1.839 Z-0.0212
X4.4772 Y-1.8382 Z-0.0214
X4.4774 Y-1.8375 Z-0.0217
Y-1.8367 Z-0.022
X4.4773 Y-1.8359 Z-0.0224
X4.4771 Y-1.8352 Z-0.0227
X4.4767 Y-1.8345 Z-0.0231
X4.4763 Y-1.8339 Z-0.0235
X4.4757 Y-1.8334 Z-0.0239
X4.4751 Y-1.833 Z-0.0243
X4.4744 Y-1.8327 Z-0.0246
X4.4737 Y-1.8325 Z-0.0249
X4.4729 Z-0.0252
X4.4623 Z-0.0286
X4.4528 Z-0.0326
X4.4418 Z-0.0385
X4.393 Z-0.0674
X4.3843 Z-0.074
X4.3791 Z-0.079
X4.3745 Z-0.0847
X4.3706 Z-0.0914
X4.3691 Z-0.0948
X4.3677 Z-0.0998
X4.3669 Z-0.1047
Z-0.1049
X4.3668 Z-0.3106
X4.3662 Z-0.3164
X4.3654 Z-0.3198
X4.3631 Z-0.3257
X4.3593 Z-0.3312
X4.3544 Z-0.3363
X4.3486 Z-0.3408
X4.3423 Z-0.3448
X4.3356 Z-0.3482
X4.3285 Z-0.3511
X4.3142 Z-0.3552
X4.3068 Z-0.3568
X4.2926 Z-0.3587
X4.2775 Z-0.3597
X4.2465 Z-0.36
X-4.2699 Z-0.3599
X-4.2854 Z-0.3593
X-4.299 Z-0.3579
X-4.3057 Z-0.3569
X-4.3199 Z-0.3537
X-4.3264 Z-0.3518
X-4.3329 Z-0.3493
X-4.3392 Z-0.3463
X-4.3453 Z-0.343
X-4.351 Z-0.3392
X-4.3572 Z-0.3337
X-4.3616 Z-0.3282
X-4.3634 Z-0.3252
X-4.3651 Z-0.3208
X-4.3662 Z-0.3162
X-4.3668 Z-0.3106
Z-0.3104
Z-0.1072
X-4.3673 Z-0.1018
X-4.3684 Z-0.0971
X-4.3706 Z-0.0915
X-4.3738 Z-0.0857
X-4.378 Z-0.0803
X-4.383 Z-0.0752
X-4.3916 Z-0.0683
X-4.4011 Z-0.0626
X-4.4462 Z-0.0359
X-4.4563 Z-0.031
X-4.4668 Z-0.027
X-4.4729 Z-0.0252
X-4.4837 Z-0.0215
X-4.4845 Y-1.8324 Z-0.0213
X-4.4853 Y-1.8322 Z-0.0211
X-4.4861 Y-1.8319 Z-0.0209
X-4.4869 Y-1.8315 Z-0.0208
X-4.4875 Y-1.831
X-4.4881 Y-1.8304 Z-0.0209
X-4.4886 Y-1.8297 Z-0.021
X-4.489 Y-1.829 Z-0.0211
X-4.4893 Y-1.8282 Z-0.0214
X-4.4895 Y-1.8275 Z-0.0216
Y-1.8267 Z-0.0219
X-4.4894 Y-1.8259 Z-0.0223
X-4.4892 Y-1.8252 Z-0.0227
X-4.4889 Y-1.8245 Z-0.023
X-4.4884 Y-1.8239 Z-0.0234
X-4.4879 Y-1.8234 Z-0.0238
X-4.4873 Y-1.823 Z-0.0242
X-4.4866 Y-1.8227 Z-0.0246
X-4.4858 Y-1.8225 Z-0.0249
X-4.485 Z-0.0252
X-4.4715 Z-0.0298
X-4.4614 Z-0.0345
X-4.4516 Z-0.0402
X-4.4198 Z-0.0596
X-4.4071 Z-0.0674
X-4.399 Z-0.074
X-4.3918 Z-0.0817
X-4.3878 Z-0.0873
X-4.3848 Z-0.093
X-4.3829 Z-0.0986
X-4.382 Z-0.103
X-4.3818 Z-0.1073
Z-0.1075
Z-0.3106
X-4.381 Z-0.3178
X-4.3799 Z-0.3213
X-4.3766 Z-0.3283
X-4.3723 Z-0.3339
X-4.3673 Z-0.3387
X-4.3617 Z-0.3428
X-4.3557 Z-0.3464
X-4.3457 Z-0.3508
X-4.3356 Z-0.3541
X-4.329 Z-0.3557
X-4.3155 Z-0.3582
X-4.3049 Z-0.3593
X-4.2894 Z-0.3599
X3.7548 Z-0.36
X4.2929 Z-0.3598
X4.3082 Z-0.359
X4.3232 Z-0.357
X4.3306 Z-0.3554
X4.3441 Z-0.3514
X4.3512 Z-0.3486
X4.3578 Z-0.3452
X4.364 Z-0.3412
X4.3696 Z-0.3366
X4.3743 Z-0.3314
X4.3781 Z-0.3257
X4.3804 Z-0.3197
X4.3818 Z-0.3106
Z-0.3104
Z-0.1072
X4.3821 Z-0.1029
X4.3827 Z-0.0994
X4.3847 Z-0.0933
X4.3865 Z-0.0895
X4.3909 Z-0.0828
X4.3941 Z-0.0791
X4.401 Z-0.0722
X4.4094 Z-0.0659
X4.4283 Z-0.0545
X4.4528 Z-0.0394
X4.4619 Z-0.0342
X4.4713 Z-0.0299
X4.485 Z-0.0252
X4.4952 Z-0.0217
X4.496 Y-1.8224 Z-0.0215
X4.4968 Y-1.8222 Z-0.0213
X4.4976 Y-1.8219 Z-0.0211
X4.4983 Y-1.8215 Z-0.021
X4.499 Y-1.821
X4.4995 Y-1.8204
X4.5 Y-1.8197 Z-0.0211
X4.5004 Y-1.819 Z-0.0213
X4.5007 Y-1.8182 Z-0.0215
X4.5009 Y-1.8175 Z-0.0217
Y-1.8167 Z-0.022
X4.5008 Y-1.8159 Z-0.0224
X4.5006 Y-1.8152 Z-0.0227
X4.5002 Y-1.8145 Z-0.0231
X4.4998 Y-1.8139 Z-0.0235
X4.4993 Y-1.8134 Z-0.0239
X4.4986 Y-1.813 Z-0.0242
X4.4979 Y-1.8127 Z-0.0246
X4.4972 Y-1.8125 Z-0.0249
X4.4964 Z-0.0252
X4.4859 Z-0.0288
X4.4764 Z-0.033
X4.4645 Z-0.04
X4.4239 Z-0.0653
X4.4151 Z-0.0718
X4.4099 Z-0.0767
X4.4052 Z-0.0822
X4.4011 Z-0.0886
X4.3995 Z-0.0919
X4.3979 Z-0.0963
X4.3965 Z-0.1024
X4.3962 Z-0.1075
Z-0.1077
Z-0.3106
X4.3952 Z-0.3189
X4.3929 Z-0.3252
X4.3894 Z-0.3311
X4.3848 Z-0.3363
X4.3792 Z-0.341
X4.373 Z-0.3451
X4.3664 Z-0.3486
X4.3594 Z-0.3516
X4.3523 Z-0.354
X4.3377 Z-0.3573
X4.3302 Z-0.3585
X4.3151 Z-0.3597
X4.2841 Z-0.36
X-4.3098 Z-0.3598
X-4.3252 Z-0.359
X-4.3387 Z-0.3572
X-4.3528 Z-0.3538
X-4.3628 Z-0.3501
X-4.3727 Z-0.3453
X-4.3786 Z-0.3414
X-4.3842 Z-0.3369
X-4.3892 Z-0.3314
X-4.3913 Z-0.3283
X-4.3933 Z-0.3244
X-4.3949 Z-0.3197
X-4.3962 Z-0.3106
Z-0.1075
X-4.3965 Z-0.1025
X-4.3974 Z-0.0978
X-4.3994 Z-0.0922
X-4.4024 Z-0.0864
X-4.4063 Z-0.0808
X-4.411 Z-0.0756
X-4.4164 Z-0.0707
X-4.4254 Z-0.0643
X-4.4712 Z-0.0359
X-4.4802 Z-0.0312
X-4.4907 Z-0.027
X-4.4964 Z-0.0252
X-4.5068 Z-0.022
X-4.5076 Y-1.8124 Z-0.0217
X-4.5084 Y-1.8122 Z-0.0215
X-4.5091 Y-1.8119 Z-0.0214
X-4.5098 Y-1.8115 Z-0.0213
X-4.5105 Y-1.811
X-4.5111 Y-1.8104
X-4.5115 Y-1.8097 Z-0.0214
X-4.5119 Y-1.809 Z-0.0216
X-4.5122 Y-1.8082 Z-0.0218
X-4.5123 Y-1.8075 Z-0.022
Y-1.8067 Z-0.0223
X-4.5122 Y-1.8059 Z-0.0226
X-4.512 Y-1.8052 Z-0.0229
X-4.5117 Y-1.8045 Z-0.0233
X-4.5112 Y-1.8039 Z-0.0236
X-4.5107 Y-1.8034 Z-0.024
X-4.51 Y-1.803 Z-0.0243
X-4.5093 Y-1.8027 Z-0.0247
X-4.5086 Y-1.8025 Z-0.025
X-4.5078 Z-0.0252
X-4.5041 Z-0.0264
X-4.4936 Z-0.0303
X-4.4836 Z-0.0353
X-4.4684 Z-0.0451
X-4.4397 Z-0.0632
X-4.4306 Z-0.0698
X-4.4231 Z-0.077
X-4.4168 Z-0.0851
X-4.4136 Z-0.0908
X-4.4114 Z-0.0965
X-4.4103 Z-0.1014
X-4.4098 Z-0.1072
Z-0.1074
Z-0.3106
X-4.4093 Z-0.3155
X-4.4083 Z-0.3206
X-4.4067 Z-0.3249
X-4.4042 Z-0.3296
X-4.3993 Z-0.3356
X-4.3939 Z-0.3406
X-4.388 Z-0.3448
X-4.3818 Z-0.3483
X-4.3756 Z-0.3511
X-4.3691 Z-0.3534
X-4.3551 Z-0.3571
X-4.3416 Z-0.359
X-4.3262 Z-0.3598
X4.3142 Z-0.36
X4.3372 Z-0.3594
X4.3447 Z-0.3587
X4.3522 Z-0.3575
X4.366 Z-0.3544
X4.3732 Z-0.352
X4.3802 Z-0.3491
X4.3867 Z-0.3456
X4.3928 Z-0.3414
X4.3982 Z-0.3367
X4.4028 Z-0.3314
X4.4063 Z-0.3257
X4.4086 Z-0.3197
X4.4098 Z-0.3106
Z-0.3104
Z-0.1073
X4.4101 Z-0.1031
X4.4109 Z-0.0987
X4.4123 Z-0.0939
X4.4138 Z-0.0905
X4.416 Z-0.0864
X4.4182 Z-0.083
X4.4227 Z-0.0774
X4.4278 Z-0.0723
X4.4361 Z-0.0657
X4.4511 Z-0.0561
X4.4781 Z-0.0387
X4.4878 Z-0.033
X4.4973 Z-0.0288
X4.5078 Z-0.0252
X4.5171 Z-0.0219
X4.5179 Y-1.8024 Z-0.0216
X4.5187 Y-1.8022 Z-0.0214
X4.5194 Y-1.8019 Z-0.0213
X4.5201 Y-1.8015 Z-0.0212
X4.5208 Y-1.801 Z-0.0211
X4.5214 Y-1.8004
X4.5219 Y-1.7997 Z-0.0212
X4.5222 Y-1.799 Z-0.0214
X4.5225 Y-1.7982 Z-0.0215
X4.5227 Y-1.7975 Z-0.0218
Y-1.7967 Z-0.0221
X4.5226 Y-1.7959 Z-0.0224
X4.5224 Y-1.7952 Z-0.0227
X4.5221 Y-1.7945 Z-0.0231
X4.5216 Y-1.7939 Z-0.0235
X4.5211 Y-1.7934 Z-0.0239
X4.5205 Y-1.793 Z-0.0242
X4.5198 Y-1.7927 Z-0.0246
X4.519 Y-1.7925 Z-0.0249
X4.5183 Z-0.0252
X4.5078 Z-0.0289
X4.4984 Z-0.0334
X4.4895 Z-0.0387
X4.4461 Z-0.0674
X4.4403 Z-0.0722
X4.4353 Z-0.0772
X4.4308 Z-0.083
X4.4271 Z-0.0896
X4.4254 Z-0.0936
X4.4236 Z-0.0998
X4.423 Z-0.1038
Z-0.104
X4.4227 Z-0.3118
X4.4217 Z-0.3198
X4.4195 Z-0.3257
X4.4161 Z-0.3315
X4.4117 Z-0.3368
X4.4063 Z-0.3415
X4.4002 Z-0.3456
X4.3937 Z-0.3492
X4.3868 Z-0.3522
X4.3797 Z-0.3546
X4.3723 Z-0.3566
X4.3575 Z-0.3589
X4.3461 Z-0.3597
X4.3112 Z-0.36
X-4.3407 Z-0.3599
X-4.352 Z-0.3595
X-4.3664 Z-0.3577
X-4.3731 Z-0.3564
X-4.3797 Z-0.3546
X-4.3863 Z-0.3523
X-4.3927 Z-0.3496
X-4.3989 Z-0.3464
X-4.4047 Z-0.3427
X-4.4102 Z-0.3383
X-4.4151 Z-0.3331
X-4.419 Z-0.3267
X-4.4205 Z-0.3236
X-4.4221 Z-0.3184
X-4.4228 Z-0.3106
X-4.423 Z-0.1038
X-4.424 Z-0.0981
X-4.4256 Z-0.093
X-4.4283 Z-0.0871
X-4.432 Z-0.0814
X-4.4364 Z-0.076
X-4.4416 Z-0.071
X-4.4504 Z-0.0644
X-4.4941 Z-0.0358
X-4.504 Z-0.0306
X-4.5144 Z-0.0264
X-4.5183 Z-0.0252
X-4.5277 Z-0.0221
X-4.5285 Y-1.7924 Z-0.0219
X-4.5293 Y-1.7922 Z-0.0217
X-4.53 Y-1.7919 Z-0.0215
X-4.5307 Y-1.7915 Z-0.0214
X-4.5314 Y-1.791
X-4.532 Y-1.7904
X-4.5324 Y-1.7897 Z-0.0215
X-4.5328 Y-1.789 Z-0.0216
X-4.5331 Y-1.7882 Z-0.0218
X-4.5332 Y-1.7875 Z-0.022
Y-1.7867 Z-0.0223
X-4.5331 Y-1.7859 Z-0.0226
X-4.5329 Y-1.7852 Z-0.0229
X-4.5326 Y-1.7845 Z-0.0232
X-4.5321 Y-1.7839 Z-0.0236
X-4.5316 Y-1.7834 Z-0.024
X-4.5309 Y-1.783 Z-0.0243
X-4.5302 Y-1.7827 Z-0.0246
X-4.5295 Y-1.7825 Z-0.0249
X-4.5287 Z-0.0252
X-4.5235 Z-0.0269
X-4.5131 Z-0.0313
X-4.5034 Z-0.0367
X-4.4662 Z-0.0616
X-4.4572 Z-0.068
X-4.4496 Z-0.0751
X-4.4432 Z-0.0832
X-4.4398 Z-0.0889
X-4.4374 Z-0.0947
X-4.4361 Z-0.0997
X-4.4353 Z-0.1071
Z-0.1073
Z-0.3106
X-4.4342 Z-0.3196
X-4.4326 Z-0.3244
X-4.4311 Z-0.3275
X-4.4271 Z-0.3336
X-4.4224 Z-0.3387
X-4.4163 Z-0.3438
X-4.4105 Z-0.3474
X-4.4043 Z-0.3506
X-4.3979 Z-0.3531
X-4.3913 Z-0.3552
X-4.3839 Z-0.3571
X-4.3772 Z-0.3583
X-4.3665 Z-0.3595
X-4.3552 Z-0.3599
X4.351 Z-0.36
X4.3701 Z-0.3591
X4.3776 Z-0.3582
X4.385 Z-0.3568
X4.3924 Z-0.3549
X4.3995 Z-0.3525
X4.4063 Z-0.3496
X4.4128 Z-0.346
X4.4187 Z-0.3419
X4.424 Z-0.3371
X4.4284 Z-0.3318
X4.4318 Z-0.3262
X4.4339 Z-0.3205
X4.4346 Z-0.3176
X4.4353 Z-0.3109
Z-0.1075
X4.4358 Z-0.1011
X4.4375 Z-0.0946
X4.4391 Z-0.0904
X4.4428 Z-0.0838
X4.4457 Z-0.0797
X4.452 Z-0.0726
X4.46 Z-0.0658
X4.5001 Z-0.0389
X4.5089 Z-0.0334
X4.5183 Z-0.0289
X4.5287 Z-0.0252
X4.5374 Z-0.0219
X4.5382 Y-1.7824 Z-0.0216
X4.539 Y-1.7822 Z-0.0214
X4.5397 Y-1.7819 Z-0.0212
X4.5404 Y-1.7815 Z-0.0211
X4.5411 Y-1.781
X4.5417 Y-1.7804
X4.5422 Y-1.7797
X4.5426 Y-1.779 Z-0.0213
X4.5428 Y-1.7782 Z-0.0214
X4.543 Y-1.7775 Z-0.0217
Y-1.7767 Z-0.022
Y-1.7759 Z-0.0223
X4.5427 Y-1.7752 Z-0.0226
X4.5424 Y-1.7745 Z-0.023
X4.542 Y-1.7739 Z-0.0234
X4.5415 Y-1.7734 Z-0.0238
X4.5409 Y-1.773 Z-0.0242
X4.5402 Y-1.7727 Z-0.0245
X4.5394 Y-1.7725 Z-0.0249
X4.5387 Z-0.0252
X4.5273 Z-0.0296
X4.5189 Z-0.0337
X4.5101 Z-0.0392
X4.4704 Z-0.0666
X4.4624 Z-0.0735
X4.4577 Z-0.079
X4.4535 Z-0.0851
X4.4502 Z-0.0921
X4.4487 Z-0.0966
X4.4475 Z-0.1027
X4.4472 Z-0.1075
Z-0.1077
X4.4471 Z-0.3123
X4.4463 Z-0.3191
X4.4443 Z-0.3253
X4.441 Z-0.3313
X4.4368 Z-0.3368
X4.4315 Z-0.3416
X4.4256 Z-0.3458
X4.4191 Z-0.3494
X4.4123 Z-0.3525
X4.4052 Z-0.355
X4.3979 Z-0.357
X4.3905 Z-0.3584
X4.3755 Z-0.3597
X4.3484 Z-0.36
X-4.3694 Z-0.3599
X-4.3806 Z-0.3595
X-4.3949 Z-0.3575
X-4.4016 Z-0.356
X-4.4082 Z-0.354
X-4.4146 Z-0.3516
X-4.4216 Z-0.3482
X-4.4278 Z-0.3444
X-4.4346 Z-0.339
X-4.4393 Z-0.3338
X-4.4414 Z-0.3307
X-4.445 Z-0.3236
X-4.4465 Z-0.3184
X-4.4472 Z-0.3106
X-4.4474 Z-0.1038
X-4.4483 Z-0.0981
X-4.4499 Z-0.0929
X-4.4524 Z-0.0871
X-4.456 Z-0.0813
X-4.4603 Z-0.0758
X-4.4654 Z-0.0707
X-4.471 Z-0.0661
X-4.514 Z-0.0366
X-4.5237 Z-0.0312
X-4.534 Z-0.0268
X-4.5387 Z-0.0252
X-4.5472 Z-0.0223
X-4.5481 Y-1.7724 Z-0.022
X-4.549 Y-1.7722 Z-0.0218
X-4.5498 Y-1.7718 Z-0.0216
X-4.5505 Y-1.7713 Z-0.0215
X-4.5512 Y-1.7707
X-4.5518 Y-1.77 Z-0.0216
X-4.5522 Y-1.7692 Z-0.0217
X-4.5525 Y-1.7683 Z-0.0218
X-4.5527 Y-1.7675 Z-0.0221
Y-1.7666 Z-0.0223
X-4.5526 Y-1.7657 Z-0.0227
X-4.5523 Y-1.765 Z-0.023
X-4.5519 Y-1.7642 Z-0.0234
X-4.5513 Y-1.7636 Z-0.0238
X-4.5507 Y-1.7631 Z-0.0242
X-4.5499 Y-1.7628 Z-0.0245
X-4.5491 Y-1.7625 Z-0.0249
X-4.5482 Z-0.0252
X-4.5444 Z-0.0265
X-4.5342 Z-0.0308
X-4.5245 Z-0.0363
X-4.494 Z-0.0576
X-4.4818 Z-0.0662
X-4.4763 Z-0.0709
X-4.4715 Z-0.0761
X-4.4671 Z-0.0816
X-4.4637 Z-0.0874
X-4.4611 Z-0.0933
X-4.4596 Z-0.0984
X-4.4587 Z-0.1047
X-4.4586 Z-0.3106
X-4.4578 Z-0.3186
X-4.4562 Z-0.3242
X-4.4546 Z-0.3276
X-4.4507 Z-0.3338
X-4.4447 Z-0.3403
X-4.439 Z-0.3448
X-4.433 Z-0.3486
X-4.4266 Z-0.3518
X-4.4193 Z-0.3545
X-4.4127 Z-0.3564
X-4.406 Z-0.3578
X-4.3954 Z-0.3593
X-4.3842 Z-0.3599
X4.3762 Z-0.36
X4.3945 Z-0.3594
X4.4021 Z-0.3586
X4.4095 Z-0.3571
X4.4168 Z-0.3552
X4.4239 Z-0.3528
X4.4307 Z-0.3498
X4.437 Z-0.3462
X4.4428 Z-0.3419
X4.4479 Z-0.337
X4.4522 Z-0.3316
X4.4554 Z-0.3258
X4.4575 Z-0.3199
X4.4585 Z-0.3121
Z-0.3119
X4.4586 Z-0.1075
X4.459 Z-0.1022
X4.4606 Z-0.0948
X4.4619 Z-0.0913
X4.4637 Z-0.0874
X4.4676 Z-0.081
X4.4709 Z-0.0768
X4.477 Z-0.0703
X4.4828 Z-0.0654
X4.5199 Z-0.0396
X4.5285 Z-0.0338
X4.5378 Z-0.0291
X4.5482 Z-0.0252
X4.5566 Z-0.0221
X4.5574 Y-1.7624 Z-0.0218
X4.5581 Y-1.7622 Z-0.0216
X4.5589 Y-1.7619 Z-0.0214
X4.5596 Y-1.7615 Z-0.0213
X4.5603 Y-1.761 Z-0.0212
X4.5608 Y-1.7604
X4.5613 Y-1.7597 Z-0.0213
X4.5617 Y-1.759 Z-0.0214
X4.562 Y-1.7582 Z-0.0216
X4.5621 Y-1.7575 Z-0.0218
X4.5622 Y-1.7567 Z-0.0221
X4.5621 Y-1.7559 Z-0.0224
X4.5618 Y-1.7552 Z-0.0227
X4.5615 Y-1.7545 Z-0.0231
X4.5611 Y-1.7539 Z-0.0234
X4.5606 Y-1.7534 Z-0.0238
X4.56 Y-1.753 Z-0.0242
X4.5593 Y-1.7527 Z-0.0246
X4.5585 Y-1.7525 Z-0.0249
X4.5578 Z-0.0252
X4.5474 Z-0.0291
X4.5381 Z-0.0338
X4.5294 Z-0.0396
X4.4939 Z-0.0649
X4.4882 Z-0.0696
X4.4832 Z-0.0747
X4.4786 Z-0.0804
X4.4748 Z-0.0868
X4.4718 Z-0.0942
X4.4701 Z-0.1016
X4.4697 Z-0.1075
X4.4696 Z-0.312
X4.4686 Z-0.3198
X4.4666 Z-0.3258
X4.4635 Z-0.3317
X4.4594 Z-0.337
X4.4543 Z-0.3419
X4.4485 Z-0.3461
X4.4421 Z-0.3498
X4.4354 Z-0.3529
X4.4283 Z-0.3554
X4.4211 Z-0.3573
X4.4136 Z-0.3587
X4.4061 Z-0.3595
X4.3838 Z-0.36
X-4.3959 Z-0.3599
X-4.4108 Z-0.359
X-4.4176 Z-0.358
X-4.4243 Z-0.3566
X-4.4344 Z-0.3533
X-4.4381 Z-0.3518
X-4.4444 Z-0.3486
X-4.4505 Z-0.3448
X-4.4562 Z-0.3403
X-4.4622 Z-0.3337
X-4.466 Z-0.3272
X-4.4679 Z-0.3225
X-4.4691 Z-0.3168
X-4.4697 Z-0.3106
Z-0.3104
Z-0.1071
X-4.4703 Z-0.1003
X-4.4715 Z-0.0949
X-4.4737 Z-0.0891
X-4.4768 Z-0.0832
X-4.4807 Z-0.0776
X-4.4854 Z-0.0723
X-4.4908 Z-0.0674
X-4.4966 Z-0.063
X-4.5331 Z-0.037
X-4.5426 Z-0.0314
X-4.5528 Z-0.0269
X-4.5578 Z-0.0252
X-4.5656 Z-0.0224
X-4.5664 Y-1.7524 Z-0.0222
X-4.5673 Y-1.7522 Z-0.0219
X-4.5681 Y-1.7518 Z-0.0218
X-4.5688 Y-1.7513 Z-0.0217
X-4.5695 Y-1.7507 Z-0.0216
X-4.5701 Y-1.75
X-4.5705 Y-1.7492 Z-0.0217
X-4.5708 Y-1.7483 Z-0.0219
X-4.571 Y-1.7475 Z-0.0221
Y-1.7466 Z-0.0224
X-4.5708 Y-1.7457 Z-0.0227
X-4.5706 Y-1.745 Z-0.023
X-4.5701 Y-1.7442 Z-0.0234
X-4.5696 Y-1.7436 Z-0.0238
X-4.5689 Y-1.7431 Z-0.0242
X-4.5682 Y-1.7428 Z-0.0245
X-4.5674 Y-1.7425 Z-0.0249
X-4.5666 Z-0.0252
X-4.5621 Z-0.0268
X-4.5519 Z-0.0314
X-4.5424 Z-0.0372
X-4.5063 Z-0.0632
X-4.4986 Z-0.0696
X-4.4923 Z-0.0762
X-4.4882 Z-0.0817
X-4.4848 Z-0.0876
X-4.4824 Z-0.0935
X-4.481 Z-0.099
X-4.4803 Z-0.1037
Z-0.1039
X-4.4801 Z-0.3106
X-4.4793 Z-0.319
X-4.4772 Z-0.3256
X-4.4753 Z-0.3296
X-4.4735 Z-0.3324
X-4.4685 Z-0.3387
X-4.4634 Z-0.3434
X-4.4566 Z-0.3481
X-4.4506 Z-0.3513
X-4.4442 Z-0.3539
X-4.4377 Z-0.356
X-4.431 Z-0.3576
X-4.4204 Z-0.3593
X-4.4093 Z-0.3599
X4.382 Z-0.36
X4.413 Z-0.3597
X4.4244 Z-0.3588
X4.4318 Z-0.3574
X4.4391 Z-0.3556
X4.4461 Z-0.3531
X4.4529 Z-0.3501
X4.4591 Z-0.3464
X4.4648 Z-0.3421
X4.4698 Z-0.3372
X4.4739 Z-0.3317
X4.4771 Z-0.3259
X4.479 Z-0.3199
X4.48 Z-0.3121
Z-0.3119
X4.4801 Z-0.1075
X4.4804 Z-0.1024
X4.482 Z-0.095
X4.4832 Z-0.0914
X4.4866 Z-0.0843
X4.4908 Z-0.0781
X4.4955 Z-0.0726
X4.5034 Z-0.0654
X4.5356 Z-0.042
X4.547 Z-0.0342
X4.5562 Z-0.0293
X4.5666 Z-0.0252
X4.5742 Z-0.0222
X4.575 Y-1.7424 Z-0.0219
X4.5759 Y-1.7422 Z-0.0217
X4.5767 Y-1.7418 Z-0.0215
X4.5774 Y-1.7413 Z-0.0213
X4.5781 Y-1.7407
X4.5787 Y-1.74
X4.5791 Y-1.7392 Z-0.0214
X4.5795 Y-1.7383 Z-0.0216
X4.5796 Y-1.7375 Z-0.0218
X4.5797 Y-1.7366 Z-0.0221
X4.5795 Y-1.7357 Z-0.0224
X4.5793 Y-1.735 Z-0.0228
X4.5789 Y-1.7342 Z-0.0232
X4.5783 Y-1.7336 Z-0.0236
X4.5777 Y-1.7331 Z-0.0241
X4.577 Y-1.7328 Z-0.0245
X4.5762 Y-1.7325 Z-0.0249
X4.5753 Z-0.0252
X4.565 Z-0.0293
X4.5558 Z-0.0342
X4.5445 Z-0.0423
X4.5124 Z-0.0659
X4.5072 Z-0.0706
X4.5023 Z-0.0759
X4.4981 Z-0.0819
X4.4945 Z-0.0886
X4.4929 Z-0.0927
X4.4913 Z-0.0989
X4.4907 Z-0.1024
X4.4904 Z-0.1072
Z-0.3106
X4.4894 Z-0.3198
X4.4875 Z-0.3258
X4.4845 Z-0.3315
X4.4804 Z-0.337
X4.4754 Z-0.342
X4.4697 Z-0.3463
X4.4635 Z-0.3501
X4.4568 Z-0.3532
X4.4498 Z-0.3557
X4.4425 Z-0.3576
X4.4351 Z-0.3589
X4.4237 Z-0.3598
X4.3502 Z-0.36
X-4.4218 Z-0.3599
X-4.4328 Z-0.3591
X-4.4434 Z-0.3574
X-4.4501 Z-0.3556
X-4.4566 Z-0.3533
X-4.4629 Z-0.3504
X-4.4689 Z-0.3469
X-4.4745 Z-0.3428
X-4.4796 Z-0.3379
X-4.4841 Z-0.3322
X-4.4859 Z-0.3293
X-4.4878 Z-0.3252
X-4.4898 Z-0.3179
X-4.4904 Z-0.3106
Z-0.3104
X-4.4905 Z-0.1051
X-4.4909 Z-0.1013
X-4.4919 Z-0.0961
X-4.4938 Z-0.0903
X-4.4966 Z-0.0843
X-4.5003 Z-0.0786
X-4.5047 Z-0.0731
X-4.5098 Z-0.0681
X-4.5186 Z-0.0613
X-4.5547 Z-0.0349
X-4.5643 Z-0.0296
X-4.5712 Z-0.0267
X-4.5753 Z-0.0252
X-4.5828 Z-0.0225
X-4.5836 Y-1.7324 Z-0.0222
X-4.5845 Y-1.7322 Z-0.0219
X-4.5853 Y-1.7318 Z-0.0218
X-4.586 Y-1.7313 Z-0.0216
X-4.5867 Y-1.7307
X-4.5873 Y-1.73
X-4.5877 Y-1.7292 Z-0.0217
X-4.588 Y-1.7283 Z-0.0218
X-4.5882 Y-1.7275 Z-0.0221
Y-1.7266 Z-0.0223
X-4.588 Y-1.7257 Z-0.0226
X-4.5878 Y-1.725 Z-0.023
X-4.5873 Y-1.7242 Z-0.0233
X-4.5868 Y-1.7236 Z-0.0237
X-4.5862 Y-1.7231 Z-0.0241
X-4.5854 Y-1.7228 Z-0.0245
X-4.5846 Y-1.7225 Z-0.0249
X-4.5838 Z-0.0252
X-4.5796 Z-0.0267
X-4.5695 Z-0.0314
X-4.5601 Z-0.0372
X-4.524 Z-0.0643
X-4.5161 Z-0.0712
X-4.5114 Z-0.0765
X-4.5075 Z-0.0821
X-4.5043 Z-0.088
X-4.5021 Z-0.0939
X-4.5004 Z-0.1015
X-4.5 Z-0.1075
Z-0.1077
Z-0.3106
X-4.4991 Z-0.3192
X-4.4978 Z-0.3242
X-4.4964 Z-0.3273
X-4.4928 Z-0.3337
X-4.4871 Z-0.3405
X-4.4816 Z-0.3452
X-4.4756 Z-0.3492
X-4.4693 Z-0.3523
X-4.4628 Z-0.3549
X-4.4561 Z-0.3569
X-4.4486 Z-0.3585
X-4.4418 Z-0.3594
X-4.4308 Z-0.3599
X4.434 Z-0.3598
X4.4454 Z-0.3589
X4.4529 Z-0.3576
X4.4601 Z-0.3557
X4.4671 Z-0.3532
X4.4738 Z-0.3501
X4.4799 Z-0.3464
X4.4855 Z-0.342
X4.4904 Z-0.3369
X4.4944 Z-0.3313
X4.4974 Z-0.3252
X4.4992 Z-0.3187
X4.4998 Z-0.3129
X4.5 Z-0.1075
X4.5004 Z-0.102
X4.5016 Z-0.0957
X4.503 Z-0.0912
X4.5044 Z-0.0878
X4.5081 Z-0.0811
X4.5125 Z-0.0752
X4.5174 Z-0.0699
X4.5227 Z-0.0653
X4.5585 Z-0.0383
X4.5643 Z-0.0344
X4.5735 Z-0.0294
X4.5838 Z-0.0252
X4.5906 Z-0.0224
X4.5915 Y-1.7224 Z-0.0221
X4.5923 Y-1.7222 Z-0.0218
X4.5931 Y-1.7218 Z-0.0216
X4.5939 Y-1.7213 Z-0.0215
X4.5945 Y-1.7207 Z-0.0214
X4.5951 Y-1.72
X4.5956 Y-1.7192 Z-0.0215
X4.5959 Y-1.7183 Z-0.0216
X4.596 Y-1.7175 Z-0.0218
X4.5961 Y-1.7166 Z-0.0221
X4.596 Y-1.7157 Z-0.0224
X4.5957 Y-1.715 Z-0.0228
X4.5953 Y-1.7142 Z-0.0232
X4.5948 Y-1.7136 Z-0.0236
X4.5941 Y-1.7131 Z-0.024
X4.5934 Y-1.7128 Z-0.0245
X4.5926 Y-1.7125 Z-0.0248
X4.5918 Z-0.0252
X4.5815 Z-0.0294
X4.5724 Z-0.0346
X4.5667 Z-0.0387
X4.531 Z-0.0658
X4.5257 Z-0.0706
X4.521 Z-0.0761
X4.5168 Z-0.0822
X4.5131 Z-0.0898
X4.5108 Z-0.0971
X4.5099 Z-0.1019
X4.5096 Z-0.1072
Z-0.1074
Z-0.3106
X4.5085 Z-0.32
X4.5066 Z-0.3259
X4.5036 Z-0.3318
X4.4996 Z-0.3373
X4.4947 Z-0.3423
X4.4892 Z-0.3466
X4.483 Z-0.3504
X4.4764 Z-0.3535
X4.4695 Z-0.356
X4.4623 Z-0.3579
X4.4548 Z-0.3591
X4.4396 Z-0.36
X-4.4408
X-4.455 Z-0.359
X-4.4617 Z-0.358
X-4.4684 Z-0.3564
X-4.4749 Z-0.3542
X-4.4811 Z-0.3515
X-4.4879 Z-0.3476
X-4.4934 Z-0.3435
X-4.4984 Z-0.3387
X-4.5028 Z-0.3331
X-4.5064 Z-0.3265
X-4.508 Z-0.3221
X-4.5091 Z-0.3166
X-4.5096 Z-0.3106
Z-0.3104
Z-0.1056
X-4.5099 Z-0.1019
X-4.5109 Z-0.0968
X-4.5133 Z-0.0893
X-4.5169 Z-0.0821
X-4.5205 Z-0.0767
X-4.5251 Z-0.0713
X-4.5303 Z-0.0664
X-4.545 Z-0.0551
X-4.5724 Z-0.0346
X-4.582 Z-0.0292
X-4.5918 Z-0.0252
X-4.5987 Z-0.0224
X-4.5995 Y-1.7124 Z-0.0221
X-4.6004 Y-1.7122 Z-0.0218
X-4.6012 Y-1.7118 Z-0.0216
X-4.6019 Y-1.7113 Z-0.0215
X-4.6026 Y-1.7107 Z-0.0214
X-4.6031 Y-1.71
X-4.6036 Y-1.7092 Z-0.0215
X-4.6039 Y-1.7083 Z-0.0216
X-4.6041 Y-1.7075 Z-0.0219
Y-1.7066 Z-0.0221
X-4.604 Y-1.7057 Z-0.0225
X-4.6037 Y-1.705 Z-0.0228
X-4.6033 Y-1.7042 Z-0.0232
X-4.6028 Y-1.7036 Z-0.0236
X-4.6021 Y-1.7031 Z-0.024
X-4.6014 Y-1.7028 Z-0.0245
X-4.6006 Y-1.7025 Z-0.0249
X-4.5998 Z-0.0252
X-4.5919 Z-0.0283
X-4.5821 Z-0.0335
X-4.576 Z-0.0377
X-4.5435 Z-0.0628
X-4.5379 Z-0.0674
X-4.5328 Z-0.0724
X-4.5284 Z-0.0779
X-4.5248 Z-0.0837
X-4.522 Z-0.0896
X-4.52 Z-0.0955
X-4.519 Z-0.1008
X-4.5186 Z-0.1048
Z-0.105
X-4.5184 Z-0.3117
X-4.517 Z-0.322
X-4.5155 Z-0.3262
X-4.5136 Z-0.3304
X-4.5116 Z-0.3337
X-4.5074 Z-0.3392
X-4.501 Z-0.345
X-4.4951 Z-0.349
X-4.4889 Z-0.3523
X-4.4824 Z-0.355
X-4.4757 Z-0.357
X-4.4682 Z-0.3586
X-4.4615 Z-0.3595
X-4.4544 Z-0.3598
X4.4492 Z-0.36
X4.4645 Z-0.3591
X4.4719 Z-0.3579
X4.4791 Z-0.356
X4.486 Z-0.3535
X4.4926 Z-0.3504
X4.4988 Z-0.3466
X4.5043 Z-0.3422
X4.509 Z-0.3372
X4.5129 Z-0.3315
X4.5158 Z-0.3255
X4.5176 Z-0.3193
X4.5185 Z-0.3106
Z-0.1072
X4.5187 Z-0.1031
X4.5196 Z-0.0972
X4.5209 Z-0.0924
X4.5222 Z-0.0889
X4.5257 Z-0.082
X4.5299 Z-0.0759
X4.5347 Z-0.0704
X4.5399 Z-0.0656
X4.5747 Z-0.0387
X4.5804 Z-0.0346
X4.5895 Z-0.0294
X4.5998 Z-0.0252
X4.6062 Z-0.0225
X4.607 Y-1.7024 Z-0.0222
X4.6079 Y-1.7022 Z-0.0219
X4.6087 Y-1.7018 Z-0.0217
X4.6094 Y-1.7013 Z-0.0215
X4.6101 Y-1.7007 Z-0.0214
X4.6106 Y-1.7
X4.6111 Y-1.6992 Z-0.0215
X4.6114 Y-1.6983 Z-0.0216
X4.6116 Y-1.6975 Z-0.0218
Y-1.6966 Z-0.0221
X4.6115 Y-1.6957 Z-0.0224
X4.6112 Y-1.695 Z-0.0228
X4.6108 Y-1.6942 Z-0.0232
X4.6103 Y-1.6936 Z-0.0236
X4.6097 Y-1.6931 Z-0.024
X4.6089 Y-1.6928 Z-0.0244
X4.6082 Y-1.6925 Z-0.0248
X4.6073 Z-0.0252
X4.5971 Z-0.0296
X4.588 Z-0.0348
X4.5824 Z-0.039
X4.5507 Z-0.0637
X4.5451 Z-0.0686
X4.5391 Z-0.0753
X4.536 Z-0.0797
X4.5322 Z-0.0862
X4.5293 Z-0.0937
X4.5277 Z-0.1012
X4.5273 Z-0.1075
Z-0.3106
X4.5263 Z-0.3197
X4.5245 Z-0.3258
X4.5216 Z-0.3317
X4.5177 Z-0.3373
X4.5129 Z-0.3423
X4.5075 Z-0.3468
X4.5014 Z-0.3506
X4.4949 Z-0.3538
X4.4879 Z-0.3563
X4.4807 Z-0.3581
X4.4733 Z-0.3592
X4.4581 Z-0.36
X-4.461
X-4.4751 Z-0.359
X-4.4818 Z-0.3578
X-4.4885 Z-0.3561
X-4.495 Z-0.3537
X-4.5012 Z-0.3508
X-4.507 Z-0.3471
X-4.5125 Z-0.3428
X-4.5174 Z-0.3376
X-4.5217 Z-0.3316
X-4.5234 Z-0.3284
X-4.5252 Z-0.3241
X-4.5265 Z-0.319
X-4.5273 Z-0.3106
Z-0.3104
Z-0.1071
X-4.5278 Z-0.1007
X-4.5287 Z-0.0957
X-4.5306 Z-0.0899
X-4.5334 Z-0.084
X-4.537 Z-0.0782
X-4.5414 Z-0.0726
X-4.5463 Z-0.0674
X-4.5519 Z-0.0628
X-4.5848 Z-0.0371
X-4.5941 Z-0.0312
X-4.604 Z-0.0265
X-4.6073 Z-0.0252
X-4.6137 Z-0.0228
X-4.6146 Y-1.6924 Z-0.0225
X-4.6154 Y-1.6922 Z-0.0222
X-4.6162 Y-1.6918 Z-0.022
X-4.617 Y-1.6913 Z-0.0219
X-4.6176 Y-1.6907 Z-0.0218
X-4.6182 Y-1.69
X-4.6186 Y-1.6892
X-4.6189 Y-1.6883 Z-0.022
X-4.619 Y-1.6875 Z-0.0221
X-4.6191 Y-1.6866 Z-0.0224
X-4.6189 Y-1.6857 Z-0.0227
X-4.6186 Y-1.685 Z-0.023
X-4.6182 Y-1.6842 Z-0.0234
X-4.6177 Y-1.6836 Z-0.0237
X-4.617 Y-1.6831 Z-0.0241
X-4.6163 Y-1.6828 Z-0.0245
X-4.6155 Y-1.6825 Z-0.0249
X-4.6147 Z-0.0252
X-4.6101 Z-0.027
X-4.6001 Z-0.0319
X-4.594 Z-0.0359
X-4.5618 Z-0.0612
X-4.5534 Z-0.0683
X-4.5486 Z-0.0736
X-4.5444 Z-0.0792
X-4.5411 Z-0.0851
X-4.5386 Z-0.091
X-4.5369 Z-0.0968
X-4.536 Z-0.1019
X-4.5358 Z-0.1056
Z-0.1058
X-4.5357 Z-0.3106
X-4.5351 Z-0.3183
X-4.5332 Z-0.3253
X-4.5315 Z-0.3295
X-4.5298 Z-0.3324
X-4.5256 Z-0.3384
X-4.5206 Z-0.3433
X-4.5152 Z-0.3476
X-4.5093 Z-0.3511
X-4.5023 Z-0.3544
X-4.4958 Z-0.3566
X-4.4892 Z-0.3582
X-4.4824 Z-0.3593
X-4.4716 Z-0.3599
X4.4669 Z-0.36
X4.4821 Z-0.3593
X4.4895 Z-0.3581
X4.4967 Z-0.3563
X4.5036 Z-0.3538
X4.5101 Z-0.3506
X4.5162 Z-0.3468
X4.5217 Z-0.3423
X4.5264 Z-0.3373
X4.5302 Z-0.3318
X4.533 Z-0.3258
X4.5348 Z-0.3198
X4.5357 Z-0.3106
Z-0.3104
Z-0.1075
X4.5361 Z-0.1014
X4.5377 Z-0.0938
X4.5405 Z-0.0863
X4.5441 Z-0.0796
X4.5484 Z-0.0737
X4.5533 Z-0.0684
X4.5585 Z-0.0638
X4.5845 Z-0.0435
X4.5954 Z-0.0349
X4.6044 Z-0.0296
X4.6147 Z-0.0252
X4.6209 Z-0.0226
X4.6217 Y-1.6824 Z-0.0222
X4.6226 Y-1.6822 Z-0.0219
X4.6234 Y-1.6818 Z-0.0217
X4.6241 Y-1.6813 Z-0.0216
X4.6248 Y-1.6807 Z-0.0215
X4.6253 Y-1.68
X4.6258 Y-1.6792
X4.6261 Y-1.6783 Z-0.0216
X4.6263 Y-1.6775 Z-0.0218
Y-1.6766 Z-0.0221
X4.6262 Y-1.6757 Z-0.0224
X4.6259 Y-1.675 Z-0.0228
X4.6255 Y-1.6742 Z-0.0232
X4.625 Y-1.6736 Z-0.0236
X4.6243 Y-1.6731 Z-0.024
X4.6236 Y-1.6728 Z-0.0244
X4.6229 Y-1.6725 Z-0.0248
X4.622 Z-0.0252
X4.6118 Z-0.0296
X4.6027 Z-0.0349
X4.5971 Z-0.0392
X4.5658 Z-0.0644
X4.5604 Z-0.0694
X4.5556 Z-0.0748
X4.5514 Z-0.0808
X4.5479 Z-0.0876
X4.5453 Z-0.0953
X4.544 Z-0.1028
X4.5438 Z-0.1071
Z-0.1073
Z-0.3106
X4.5428 Z-0.32
X4.541 Z-0.3259
X4.5382 Z-0.3318
X4.5344 Z-0.3374
X4.5298 Z-0.3425
X4.5244 Z-0.347
X4.5184 Z-0.3509
X4.5119 Z-0.354
X4.505 Z-0.3565
X4.4978 Z-0.3582
X4.4905 Z-0.3594
X4.4752 Z-0.36
X-4.4826 Z-0.3598
X-4.4896 Z-0.3595
X-4.4963 Z-0.3586
X-4.5039 Z-0.3568
X-4.5105 Z-0.3546
X-4.5169 Z-0.3517
X-4.5238 Z-0.3475
X-4.5292 Z-0.3431
X-4.5346 Z-0.3372
X-4.5398 Z-0.329
X-4.5423 Z-0.3219
X-4.5432 Z-0.3182
X-4.5438 Z-0.3106
Z-0.3104
Z-0.1072
X-4.544 Z-0.1023
X-4.5455 Z-0.0945
X-4.5486 Z-0.086
X-4.5518 Z-0.0801
X-4.5559 Z-0.0745
X-4.5606 Z-0.0692
X-4.5689 Z-0.062
X-4.6008 Z-0.0363
X-4.6069 Z-0.0323
X-4.6168 Z-0.0272
X-4.622 Z-0.0252
X-4.6279 Z-0.0229
X-4.6287 Y-1.6724 Z-0.0226
X-4.6295 Y-1.6722 Z-0.0223
X-4.6303 Y-1.6718 Z-0.0221
X-4.631 Y-1.6713 Z-0.0219
X-4.6317 Y-1.6707
X-4.6322 Y-1.67 Z-0.0218
X-4.6327 Y-1.6692 Z-0.0219
X-4.633 Y-1.6683 Z-0.022
X-4.6331 Y-1.6675 Z-0.0222
Y-1.6666 Z-0.0224
X-4.633 Y-1.6657 Z-0.0227
X-4.6327 Y-1.665 Z-0.023
X-4.6323 Y-1.6642 Z-0.0233
X-4.6317 Y-1.6636 Z-0.0237
X-4.6311 Y-1.6631 Z-0.0241
X-4.6304 Y-1.6628 Z-0.0245
X-4.6296 Y-1.6625 Z-0.0249
X-4.6288 Z-0.0252
X-4.6241 Z-0.0271
X-4.6175 Z-0.0303
X-4.6082 Z-0.0362
X-4.5751 Z-0.0629
X-4.5678 Z-0.0695
X-4.5632 Z-0.0749
X-4.5594 Z-0.0806
X-4.5565 Z-0.0862
X-4.5541 Z-0.0926
X-4.5523 Z-0.1001
X-4.5518 Z-0.1075
Z-0.1077
Z-0.3106
X-4.5511 Z-0.3187
X-4.5498 Z-0.324
X-4.5481 Z-0.3282
X-4.5464 Z-0.3315
X-4.5422 Z-0.3377
X-4.5369 Z-0.3434
X-4.5315 Z-0.3477
X-4.5245 Z-0.3519
X-4.5181 Z-0.3548
X-4.5115 Z-0.357
X-4.5047 Z-0.3586
X-4.5008 Z-0.3592
X-4.49 Z-0.3599
X4.4833 Z-0.36
X4.4985 Z-0.3595
X4.5059 Z-0.3584
X4.513 Z-0.3566
X4.5199 Z-0.3541
X4.5264 Z-0.3509
X4.5324 Z-0.347
X4.5377 Z-0.3425
X4.5424 Z-0.3375
X4.5462 Z-0.3319
X4.549 Z-0.326
X4.5507 Z-0.3202
X4.5516 Z-0.3123
Z-0.3121
X4.5518 Z-0.1075
X4.552 Z-0.1025
X4.553 Z-0.0966
X4.5554 Z-0.0887
X4.5587 Z-0.0818
X4.5627 Z-0.0756
X4.5673 Z-0.07
X4.5727 Z-0.0648
X4.604 Z-0.0395
X4.6125 Z-0.0333
X4.6216 Z-0.0282
X4.6288 Z-0.0252
X4.6345 Z-0.0228
X4.6353 Y-1.6624 Z-0.0225
X4.6361 Y-1.6622 Z-0.0222
X4.6369 Y-1.6618 Z-0.022
X4.6376 Y-1.6613 Z-0.0218
X4.6383 Y-1.6607 Z-0.0217
X4.6388 Y-1.66
X4.6393 Y-1.6592 Z-0.0218
X4.6396 Y-1.6583 Z-0.0219
X4.6397 Y-1.6575 Z-0.022
Y-1.6566 Z-0.0223
X4.6396 Y-1.6557 Z-0.0226
X4.6393 Y-1.655 Z-0.0229
X4.6389 Y-1.6542 Z-0.0233
X4.6384 Y-1.6536 Z-0.0237
X4.6378 Y-1.6531 Z-0.0241
X4.6371 Y-1.6528 Z-0.0245
X4.6363 Y-1.6525 Z-0.0249
X4.6355 Z-0.0252
X4.6283 Z-0.0282
X4.6192 Z-0.0333
X4.6108 Z-0.0396
X4.5794 Z-0.0654
X4.5743 Z-0.0704
X4.5697 Z-0.076
X4.5658 Z-0.0823
X4.5625 Z-0.0893
X4.5611 Z-0.0936
X4.5597 Z-0.1001
X4.5592 Z-0.1073
Z-0.1075
Z-0.3106
X4.5583 Z-0.3196
X4.5566 Z-0.3257
X4.5539 Z-0.3317
X4.5502 Z-0.3374
X4.5456 Z-0.3425
X4.5404 Z-0.3471
X4.5344 Z-0.3509
X4.5279 Z-0.3541
X4.521 Z-0.3566
X4.5139 Z-0.3584
X4.5065 Z-0.3595
X4.4912 Z-0.36
X-4.4975 Z-0.3599
X-4.5083 Z-0.3592
X-4.5189 Z-0.3572
X-4.5256 Z-0.355
X-4.532 Z-0.3522
X-4.5382 Z-0.3486
X-4.5447 Z-0.3435
X-4.5494 Z-0.3384
X-4.5517 Z-0.3354
X-4.5556 Z-0.3283
X-4.5573 Z-0.324
X-4.5585 Z-0.3187
X-4.5592 Z-0.3106
Z-0.3104
Z-0.1071
X-4.5597 Z-0.1
X-4.5607 Z-0.095
X-4.5626 Z-0.0891
X-4.5653 Z-0.0831
X-4.5688 Z-0.0773
X-4.5731 Z-0.0717
X-4.5781 Z-0.0666
X-4.5836 Z-0.0619
X-4.6154 Z-0.036
X-4.6214 Z-0.0319
X-4.6312 Z-0.0269
X-4.6355 Z-0.0252
X-4.6412 Z-0.0229
X-4.6421 Y-1.6524 Z-0.0226
X-4.6429 Y-1.6522 Z-0.0224
X-4.6437 Y-1.6518 Z-0.0221
X-4.6444 Y-1.6513 Z-0.022
X-4.6451 Y-1.6507 Z-0.0219
X-4.6456 Y-1.65
X-4.646 Y-1.6492
X-4.6463 Y-1.6483 Z-0.022
X-4.6465 Y-1.6475 Z-0.0222
Y-1.6466 Z-0.0224
X-4.6463 Y-1.6457 Z-0.0227
X-4.646 Y-1.645 Z-0.023
X-4.6456 Y-1.6442 Z-0.0234
X-4.6451 Y-1.6436 Z-0.0237
X-4.6445 Y-1.6431 Z-0.0241
X-4.6437 Y-1.6428 Z-0.0245
X-4.6429 Y-1.6425 Z-0.0249
X-4.6421 Z-0.0252
X-4.6416 Z-0.0254
X-4.6315 Z-0.03
X-4.6252 Z-0.0337
X-4.6192 Z-0.0382
X-4.5894 Z-0.0629
X-4.5822 Z-0.0698
X-4.5776 Z-0.0752
X-4.5738 Z-0.081
X-4.5708 Z-0.087
X-4.5687 Z-0.0929
X-4.5674 Z-0.0981
X-4.5666 Z-0.1039
Z-0.1041
X-4.5665 Z-0.3106
X-4.5659 Z-0.3185
X-4.5645 Z-0.3242
X-4.5631 Z-0.3278
X-4.5598 Z-0.3342
X-4.5543 Z-0.3411
X-4.549 Z-0.346
X-4.5432 Z-0.3501
X-4.5371 Z-0.3534
X-4.5307 Z-0.356
X-4.5233 Z-0.3581
X-4.5166 Z-0.3592
X-4.5069 Z-0.3599
X-2.6023 Z-0.36
X-2.5139 Z-0.3604
X-2.4519 Z-0.3601
X-1.6023 Z-0.36
X-1.5139 Z-0.3604
X-1.4558 Z-0.3602
X-0.6023 Z-0.36
X-0.5139 Z-0.3604
X-0.4558 Z-0.3602
X0.3977 Z-0.36
X0.4861 Z-0.3604
X0.5442 Z-0.3602
X1.3977 Z-0.36
X1.4861 Z-0.3604
X1.5481 Z-0.3601
X2.3977 Z-0.36
X2.4861 Z-0.3604
X2.5481 Z-0.3601
X4.4712 Z-0.36
X4.5099 Z-0.3598
X4.5174 Z-0.3591
X4.5283 Z-0.3568
X4.5352 Z-0.3543
X4.5416 Z-0.3511
X4.5475 Z-0.3472
X4.5528 Z-0.3427
X4.5573 Z-0.3376
X4.561 Z-0.3321
X4.5638 Z-0.3262
X4.5654 Z-0.3205
X4.566 Z-0.3174
X4.5665 Z-0.3106
Z-0.3104
Z-0.1072
X4.567 Z-0.1008
X4.5683 Z-0.0942
X4.5697 Z-0.0898
X4.5728 Z-0.0828
X4.5768 Z-0.0764
X4.5813 Z-0.0708
X4.5862 Z-0.0657
X4.6174 Z-0.0396
X4.6259 Z-0.0333
X4.635 Z-0.0282
X4.6421 Z-0.0252
X4.6473 Z-0.023
X4.6481 Y-1.6424 Z-0.0227
X4.6489 Y-1.6422 Z-0.0224
X4.6497 Y-1.6418 Z-0.0221
X4.6504 Y-1.6413 Z-0.022
X4.651 Y-1.6407 Z-0.0219
X4.6516 Y-1.64 Z-0.0218
X4.652 Y-1.6392
X4.6523 Y-1.6383 Z-0.0219
X4.6525 Y-1.6375 Z-0.0221
Y-1.6366 Z-0.0223
X4.6523 Y-1.6357 Z-0.0226
X4.6521 Y-1.635 Z-0.0229
X4.6516 Y-1.6342 Z-0.0233
X4.6511 Y-1.6336 Z-0.0237
X4.6505 Y-1.6331 Z-0.0241
X4.6498 Y-1.6328 Z-0.0245
X4.649 Y-1.6325 Z-0.0248
X4.6482 Z-0.0252
X4.6411 Z-0.0283
X4.6321 Z-0.0335
X4.6237 Z-0.04
X4.5951 Z-0.0637
X4.5899 Z-0.0686
X4.5852 Z-0.0742
X4.5811 Z-0.0803
X4.5777 Z-0.0873
X4.5764 Z-0.0907
X4.5751 Z-0.0952
X4.574 Z-0.1016
X4.5736 Z-0.1075
Z-0.1077
X4.5735 Z-0.3125
X4.573 Z-0.3186
X4.5714 Z-0.3251
X4.5687 Z-0.3313
X4.5651 Z-0.337
X4.5606 Z-0.3422
X4.5553 Z-0.3469
X4.5494 Z-0.3508
X4.543 Z-0.3541
X4.5361 Z-0.3567
X4.529 Z-0.3585
X4.5184 Z-0.3597
X4.4953 Z-0.36
X2.5935 Z-0.3602
X2.5209 Z-0.3623
X2.4861 Z-0.3624
X2.4428 Z-0.3613
X2.3966 Z-0.36
X1.5935 Z-0.3602
X1.5209 Z-0.3623
X1.4861 Z-0.3624
X1.4428 Z-0.3613
X1.3966 Z-0.36
X0.5935 Z-0.3602
X0.5209 Z-0.3623
X0.4861 Z-0.3624
X0.4428 Z-0.3613
X0.3966 Z-0.36
X-0.4065 Z-0.3602
X-0.4791 Z-0.3623
X-0.5139 Z-0.3624
X-0.5572 Z-0.3613
X-0.6035 Z-0.36
X-1.4065 Z-0.3602
X-1.4791 Z-0.3623
X-1.5139 Z-0.3624
X-1.5572 Z-0.3613
X-1.6034 Z-0.36
X-2.4065 Z-0.3602
X-2.4791 Z-0.3623
X-2.5139 Z-0.3624
X-2.5572 Z-0.3613
X-2.6034 Z-0.36
X-4.5136 Z-0.3599
X-4.5243 Z-0.3592
X-4.5282 Z-0.3586
X-4.5349 Z-0.357
X-4.5415 Z-0.3547
X-4.5488 Z-0.3512
X-4.5546 Z-0.3475
X-4.5605 Z-0.3423
X-4.5652 Z-0.3369
X-4.5673 Z-0.334
X-4.5701 Z-0.3285
X-4.5725 Z-0.3209
X-4.5732 Z-0.3163
X-4.5736 Z-0.3106
Z-0.3104
Z-0.1072
X-4.574 Z-0.1018
X-4.5755 Z-0.0938
X-4.5786 Z-0.0852
X-4.5818 Z-0.0793
X-4.5857 Z-0.0736
X-4.5904 Z-0.0682
X-4.5986 Z-0.0609
X-4.6277 Z-0.0367
X-4.6337 Z-0.0324
X-4.6401 Z-0.0288
X-4.6482 Z-0.0252
X-4.6533 Z-0.023
X-4.6541 Y-1.6324 Z-0.0226
X-4.6549 Y-1.6322 Z-0.0223
X-4.6557 Y-1.6318 Z-0.0221
X-4.6564 Y-1.6313 Z-0.0219
X-4.6571 Y-1.6307 Z-0.0218
X-4.6576 Y-1.63 Z-0.0217
X-4.658 Y-1.6292 Z-0.0218
X-4.6583 Y-1.6283
X-4.6585 Y-1.6275 Z-0.022
Y-1.6266 Z-0.0222
X-4.6584 Y-1.6257 Z-0.0225
X-4.6581 Y-1.625 Z-0.0229
X-4.6577 Y-1.6242 Z-0.0232
X-4.6572 Y-1.6236 Z-0.0236
X-4.6566 Y-1.6231 Z-0.024
X-4.6559 Y-1.6228 Z-0.0244
X-4.6551 Y-1.6225 Z-0.0248
X-4.6543 Z-0.0252
X-4.6457 Z-0.029
X-4.6393 Z-0.0327
X-4.6334 Z-0.037
X-4.5994 Z-0.0659
X-4.5945 Z-0.071
X-4.5902 Z-0.0766
X-4.5867 Z-0.0824
X-4.5839 Z-0.0884
X-4.582 Z-0.0943
X-4.581 Z-0.0994
X-4.5803 Z-0.1071
Z-0.1073
Z-0.3106
X-4.5795 Z-0.3195
X-4.5783 Z-0.3245
X-4.5771 Z-0.3277
X-4.5739 Z-0.3342
X-4.5684 Z-0.3412
X-4.5632 Z-0.3461
X-4.5575 Z-0.3503
X-4.5514 Z-0.3536
X-4.545 Z-0.3561
X-4.5384 Z-0.358
X-4.5316 Z-0.3592
X-4.5208 Z-0.36
X-2.6433
X-2.6174 Z-0.3604
X-2.579 Z-0.3626
X-2.54 Z-0.3652
X-2.514 Z-0.3662
X-2.4947 Z-0.3663
X-2.4757 Z-0.3659
X-2.4544 Z-0.3648
X-2.409 Z-0.3618
X-2.376 Z-0.3602
X-1.6433 Z-0.36
X-1.6174 Z-0.3604
X-1.579 Z-0.3626
X-1.54 Z-0.3652
X-1.514 Z-0.3662
X-1.4947 Z-0.3663
X-1.4757 Z-0.3659
X-1.4544 Z-0.3648
X-1.409 Z-0.3618
X-1.376 Z-0.3602
X-0.6433 Z-0.36
X-0.6174 Z-0.3604
X-0.579 Z-0.3626
X-0.54 Z-0.3652
X-0.514 Z-0.3662
X-0.4947 Z-0.3663
X-0.4757 Z-0.3659
X-0.4544 Z-0.3648
X-0.409 Z-0.3618
X-0.376 Z-0.3602
X0.3567 Z-0.36
X0.3826 Z-0.3604
X0.421 Z-0.3626
X0.46 Z-0.3652
X0.486 Z-0.3662
X0.5053 Z-0.3663
X0.5243 Z-0.3659
X0.5456 Z-0.3648
X0.591 Z-0.3618
X0.624 Z-0.3602
X1.3567 Z-0.36
X1.3826 Z-0.3604
X1.421 Z-0.3626
X1.46 Z-0.3652
X1.486 Z-0.3662
X1.5053 Z-0.3663
X1.5243 Z-0.3659
X1.5456 Z-0.3648
X1.591 Z-0.3618
X1.624 Z-0.3602
X2.3567 Z-0.36
X2.3826 Z-0.3604
X2.421 Z-0.3626
X2.46 Z-0.3652
X2.486 Z-0.3662
X2.5053 Z-0.3663
X2.5243 Z-0.3659
X2.5456 Z-0.3648
X2.591 Z-0.3618
X2.624 Z-0.3602
X4.4825 Z-0.36
X4.525 Z-0.3598
X4.536 Z-0.3586
X4.5432 Z-0.3568
X4.55 Z-0.3543
X4.5563 Z-0.351
X4.5622 Z-0.347
X4.5674 Z-0.3423
X4.5718 Z-0.337
X4.5755 Z-0.3312
X4.5781 Z-0.325
X4.5797 Z-0.3184
X4.5802 Z-0.3118
Z-0.3116
X4.5803 Z-0.1075
X4.5805 Z-0.1031
X4.5819 Z-0.0949
X4.5832 Z-0.0904
X4.5862 Z-0.0832
X4.59 Z-0.0768
X4.5945 Z-0.071
X4.5995 Z-0.0659
X4.6298 Z-0.04
X4.6381 Z-0.0335
X4.6472 Z-0.0283
X4.6543 Z-0.0252
X4.6594 Z-0.023
X4.6602 Y-1.6224 Z-0.0227
X4.661 Y-1.6222 Z-0.0224
X4.6618 Y-1.6218 Z-0.0221
X4.6625 Y-1.6213 Z-0.022
X4.6632 Y-1.6207 Z-0.0219
X4.6637 Y-1.62 Z-0.0218
X4.6641 Y-1.6192
X4.6644 Y-1.6183 Z-0.0219
X4.6646 Y-1.6175 Z-0.0221
Y-1.6166 Z-0.0223
X4.6645 Y-1.6157 Z-0.0226
X4.6642 Y-1.615 Z-0.0229
X4.6638 Y-1.6142 Z-0.0233
X4.6633 Y-1.6136 Z-0.0237
X4.6626 Y-1.6131 Z-0.0241
X4.6619 Y-1.6128 Z-0.0245
X4.6612 Y-1.6125 Z-0.0248
X4.6603 Z-0.0252
X4.6533 Z-0.0283
X4.6442 Z-0.0335
X4.6359 Z-0.04
X4.6056 Z-0.066
X4.6008 Z-0.0713
X4.5953 Z-0.0789
X4.5927 Z-0.0836
X4.5897 Z-0.0909
X4.5884 Z-0.0954
X4.5872 Z-0.1035
Z-0.1037
X4.5869 Z-0.3127
X4.5864 Z-0.3187
X4.5847 Z-0.3251
X4.5821 Z-0.3313
X4.5785 Z-0.3371
X4.574 Z-0.3424
X4.5688 Z-0.347
X4.563 Z-0.351
X4.5566 Z-0.3543
X4.5498 Z-0.3569
X4.539 Z-0.3592
X4.5315 Z-0.3598
X2.6476 Z-0.3602
X2.6245 Z-0.3615
X2.5933 Z-0.3647
X2.5511 Z-0.3696
X2.53 Z-0.3714
X2.5085 Z-0.3724
X2.4891
X2.4668 Z-0.3712
X2.4448 Z-0.3692
X2.383 Z-0.3621
X2.3603 Z-0.3605
X2.3399 Z-0.36
X1.6476 Z-0.3602
X1.6245 Z-0.3615
X1.5933 Z-0.3647
X1.5511 Z-0.3696
X1.53 Z-0.3714
X1.5085 Z-0.3724
X1.4891
X1.4668 Z-0.3712
X1.4448 Z-0.3692
X1.383 Z-0.3621
X1.3603 Z-0.3605
X1.3399 Z-0.36
X0.6476 Z-0.3602
X0.6245 Z-0.3615
X0.5933 Z-0.3647
X0.5511 Z-0.3696
X0.53 Z-0.3714
X0.5085 Z-0.3724
X0.4891
X0.4668 Z-0.3712
X0.4448 Z-0.3692
X0.383 Z-0.3621
X0.3603 Z-0.3605
X0.3399 Z-0.36
X-0.3524 Z-0.3602
X-0.3755 Z-0.3615
X-0.4067 Z-0.3647
X-0.4489 Z-0.3696
X-0.47 Z-0.3714
X-0.4915 Z-0.3724
X-0.5126 Z-0.3723
X-0.5336 Z-0.3712
X-0.5555 Z-0.3691
X-0.6172 Z-0.3621
X-0.6392 Z-0.3605
X-0.6584 Z-0.36
X-1.3524 Z-0.3602
X-1.3755 Z-0.3615
X-1.4067 Z-0.3647
X-1.4489 Z-0.3696
X-1.47 Z-0.3714
X-1.4915 Z-0.3724
X-1.5109
X-1.5332 Z-0.3712
X-1.5552 Z-0.3692
X-1.617 Z-0.3621
X-1.6397 Z-0.3605
X-1.6601 Z-0.36
X-2.3524 Z-0.3602
X-2.3755 Z-0.3615
X-2.4067 Z-0.3647
X-2.4489 Z-0.3696
X-2.47 Z-0.3714
X-2.4915 Z-0.3724
X-2.5109
X-2.5332 Z-0.3712
X-2.5552 Z-0.3692
X-2.617 Z-0.3621
X-2.6397 Z-0.3605
X-2.6601 Z-0.36
X-4.5309 Z-0.3598
X-4.5378 Z-0.3594
X-4.5445 Z-0.3583
X-4.5511 Z-0.3564
X-4.5575 Z-0.3539
X-4.5636 Z-0.3506
X-4.5693 Z-0.3466
X-4.5745 Z-0.3418
X-4.5801 Z-0.3348
X-4.5832 Z-0.3292
X-4.5855 Z-0.3224
X-4.5867 Z-0.3151
X-4.587 Z-0.3106
Z-0.3104
Z-0.1071
X-4.5875 Z-0.1001
X-4.5896 Z-0.0914
X-4.5932 Z-0.0827
X-4.5967 Z-0.0768
X-4.6008 Z-0.0712
X-4.6057 Z-0.066
X-4.6227 Z-0.0513
X-4.6394 Z-0.037
X-4.6453 Z-0.0327
X-4.6517 Z-0.029
X-4.6603 Z-0.0252
X-4.6649 Z-0.0232
X-4.6657 Y-1.6124 Z-0.0228
X-4.6665 Y-1.6122 Z-0.0225
X-4.6673 Y-1.6118 Z-0.0222
X-4.668 Y-1.6113 Z-0.022
X-4.6686 Y-1.6107 Z-0.0219
X-4.6692 Y-1.61 Z-0.0218
X-4.6696 Y-1.6092
X-4.6699 Y-1.6083 Z-0.0219
X-4.67 Y-1.6075 Z-0.0221
Y-1.6066 Z-0.0223
X-4.6699 Y-1.6057 Z-0.0226
X-4.6696 Y-1.605 Z-0.0229
X-4.6692 Y-1.6042 Z-0.0232
X-4.6687 Y-1.6036 Z-0.0236
X-4.6681 Y-1.6031 Z-0.024
X-4.6674 Y-1.6028 Z-0.0244
X-4.6666 Y-1.6025 Z-0.0248
X-4.6658 Z-0.0252
X-4.6576 Z-0.0289
X-4.6513 Z-0.0327
X-4.6454 Z-0.037
X-4.6166 Z-0.0617
X-4.6112 Z-0.0665
X-4.6064 Z-0.0718
X-4.6023 Z-0.0775
X-4.599 Z-0.0834
X-4.5964 Z-0.0894
X-4.5947 Z-0.0953
X-4.5938 Z-0.1003
X-4.5933 Z-0.1075
Z-0.1077
Z-0.3106
X-4.5924 Z-0.3201
X-4.5913 Z-0.3246
X-4.59 Z-0.328
X-4.5874 Z-0.3334
X-4.5829 Z-0.34
X-4.5803 Z-0.3428
X-4.5751 Z-0.3474
X-4.5682 Z-0.3519
X-4.5619 Z-0.3549
X-4.5553 Z-0.3572
X-4.5485 Z-0.3588
X-4.5378 Z-0.3598
X-2.6705 Z-0.3601
X-2.6552 Z-0.3608
X-2.6364 Z-0.3627
X-2.6146 Z-0.3659
X-2.5785 Z-0.3724
X-2.5535 Z-0.3769
X-2.5317 Z-0.3799
X-2.5135 Z-0.3812
X-2.4941 Z-0.3815
X-2.4714 Z-0.3802
X-2.4496 Z-0.3774
X-2.4362 Z-0.3751
X-2.4045 Z-0.3693
X-2.3768 Z-0.3645
X-2.3531 Z-0.3615
X-2.3329 Z-0.3602
X-1.6705 Z-0.3601
X-1.6552 Z-0.3608
X-1.6364 Z-0.3627
X-1.6146 Z-0.3659
X-1.5785 Z-0.3724
X-1.5535 Z-0.3769
X-1.5317 Z-0.3799
X-1.5135 Z-0.3812
X-1.4941 Z-0.3815
X-1.4714 Z-0.3802
X-1.4496 Z-0.3774
X-1.4362 Z-0.3751
X-1.4045 Z-0.3693
X-1.3768 Z-0.3645
X-1.3531 Z-0.3615
X-1.3329 Z-0.3602
X-0.6758 Z-0.36
X-0.6564 Z-0.3607
X-0.6338 Z-0.363
X-0.6121 Z-0.3663
X-0.5763 Z-0.3728
X-0.5528 Z-0.377
X-0.5329 Z-0.3798
X-0.5101 Z-0.3815
X-0.4941
X-0.4714 Z-0.3802
X-0.4496 Z-0.3774
X-0.4324 Z-0.3744
X-0.4011 Z-0.3686
X-0.3735 Z-0.364
X-0.3498 Z-0.3612
X-0.332 Z-0.3601
X0.3295
X0.3448 Z-0.3608
X0.3636 Z-0.3627
X0.3854 Z-0.3659
X0.4215 Z-0.3724
X0.4465 Z-0.3769
X0.4683 Z-0.3799
X0.4865 Z-0.3812
X0.5059 Z-0.3815
X0.5286 Z-0.3802
X0.5504 Z-0.3774
X0.5676 Z-0.3744
X0.5989 Z-0.3686
X0.6265 Z-0.364
X0.6502 Z-0.3612
X0.668 Z-0.3601
X1.3295
X1.3448 Z-0.3608
X1.3636 Z-0.3627
X1.3854 Z-0.3659
X1.4215 Z-0.3724
X1.4465 Z-0.3769
X1.4683 Z-0.3799
X1.4865 Z-0.3812
X1.5059 Z-0.3815
X1.5286 Z-0.3802
X1.5504 Z-0.3774
X1.5638 Z-0.3751
X1.5955 Z-0.3693
X1.6232 Z-0.3645
X1.6469 Z-0.3615
X1.6671 Z-0.3602
X2.3295 Z-0.3601
X2.3448 Z-0.3608
X2.3636 Z-0.3627
X2.3854 Z-0.3659
X2.4215 Z-0.3724
X2.4465 Z-0.3769
X2.4683 Z-0.3799
X2.4865 Z-0.3812
X2.5059 Z-0.3815
X2.5286 Z-0.3802
X2.5504 Z-0.3774
X2.5638 Z-0.3751
X2.5955 Z-0.3693
X2.6232 Z-0.3645
X2.6469 Z-0.3615
X2.6671 Z-0.3602
X4.5381 Z-0.3598
X4.5456 Z-0.3592
X4.5564 Z-0.3569
X4.5632 Z-0.3544
X4.5695 Z-0.3511
X4.5754 Z-0.3471
X4.5805 Z-0.3426
X4.5849 Z-0.3373
X4.5884 Z-0.3315
X4.591 Z-0.3254
X4.5926 Z-0.319
X4.5932 Z-0.3123
X4.5933 Z-0.1072
X4.5935 Z-0.1025
X4.5945 Z-0.0963
X4.5957 Z-0.0916
X4.5969 Z-0.0881
X4.6002 Z-0.081
X4.6042 Z-0.0747
X4.6088 Z-0.0691
X4.6139 Z-0.064
X4.6415 Z-0.0404
X4.6498 Z-0.0337
X4.6587 Z-0.0283
X4.6658 Z-0.0252
X4.6704 Z-0.0232
X4.6712 Y-1.6024 Z-0.0228
X4.6721 Y-1.6022 Z-0.0225
X4.6728 Y-1.6018 Z-0.0223
X4.6735 Y-1.6013 Z-0.0221
X4.6742 Y-1.6007 Z-0.022
X4.6747 Y-1.6 Z-0.0219
X4.6751 Y-1.5992
X4.6754 Y-1.5983 Z-0.022
X4.6756 Y-1.5975 Z-0.0221
Y-1.5966 Z-0.0223
X4.6754 Y-1.5958 Z-0.0226
X4.6752 Y-1.595 Z-0.0229
X4.6748 Y-1.5942 Z-0.0233
X4.6742 Y-1.5936 Z-0.0236
X4.6736 Y-1.5931 Z-0.024
X4.6729 Y-1.5928 Z-0.0244
X4.6721 Y-1.5925 Z-0.0248
X4.6713 Z-0.0252
X4.6642 Z-0.0283
X4.6553 Z-0.0337
X4.647 Z-0.0404
X4.619 Z-0.0649
X4.614 Z-0.07
X4.6095 Z-0.0758
X4.6056 Z-0.0822
X4.6025 Z-0.0894
X4.6014 Z-0.093
X4.5998 Z-0.1007
X4.5994 Z-0.1071
Z-0.1073
X4.5992 Z-0.3131
X4.5985 Z-0.3196
X4.5969 Z-0.3257
X4.5944 Z-0.3318
X4.5908 Z-0.3375
X4.5864 Z-0.3427
X4.5813 Z-0.3473
X4.5755 Z-0.3513
X4.5692 Z-0.3546
X4.5588 Z-0.358
X4.5515 Z-0.3593
X4.5363 Z-0.36
X2.6843 Z-0.3601
X2.6667 Z-0.3614
X2.6465 Z-0.3643
X2.6223 Z-0.3693
X2.5952 Z-0.3765
X2.574 Z-0.3823
X2.5518 Z-0.387
X2.5293 Z-0.3902
X2.5067 Z-0.3915
X2.4873 Z-0.3913
X2.4691 Z-0.39
X2.4473 Z-0.3868
X2.4257 Z-0.3822
X2.4081 Z-0.3775
X2.3906 Z-0.3726
X2.3693 Z-0.3674
X2.3477 Z-0.3633
X2.3289 Z-0.361
X2.3118 Z-0.36
X1.6843 Z-0.3601
X1.6667 Z-0.3614
X1.6465 Z-0.3643
X1.6223 Z-0.3693
X1.5952 Z-0.3765
X1.574 Z-0.3823
X1.5518 Z-0.387
X1.5293 Z-0.3902
X1.5067 Z-0.3915
X1.4873 Z-0.3913
X1.4691 Z-0.39
X1.4473 Z-0.3868
X1.4257 Z-0.3822
X1.4081 Z-0.3775
X1.3906 Z-0.3726
X1.3693 Z-0.3674
X1.3477 Z-0.3633
X1.3289 Z-0.361
X1.3118 Z-0.36
X0.6843 Z-0.3601
X0.6667 Z-0.3614
X0.6465 Z-0.3643
X0.6223 Z-0.3693
X0.5952 Z-0.3765
X0.574 Z-0.3823
X0.5518 Z-0.387
X0.5293 Z-0.3902
X0.5067 Z-0.3915
X0.4873 Z-0.3913
X0.4691 Z-0.39
X0.4473 Z-0.3868
X0.4257 Z-0.3822
X0.4081 Z-0.3775
X0.3906 Z-0.3726
X0.3693 Z-0.3674
X0.3477 Z-0.3633
X0.3289 Z-0.361
X0.3118 Z-0.36
X-0.3157 Z-0.3601
X-0.3333 Z-0.3614
X-0.3535 Z-0.3643
X-0.3777 Z-0.3693
X-0.4048 Z-0.3765
X-0.426 Z-0.3823
X-0.4482 Z-0.387
X-0.4707 Z-0.3902
X-0.4933 Z-0.3915
X-0.5098
X-0.5309 Z-0.39
X-0.5527 Z-0.3868
X-0.5743 Z-0.3822
X-0.5919 Z-0.3775
X-0.6094 Z-0.3726
X-0.6307 Z-0.3674
X-0.6523 Z-0.3633
X-0.6711 Z-0.361
X-0.6882 Z-0.36
X-1.3157 Z-0.3601
X-1.3333 Z-0.3614
X-1.3535 Z-0.3643
X-1.3777 Z-0.3693
X-1.4048 Z-0.3765
X-1.426 Z-0.3823
X-1.4482 Z-0.387
X-1.4707 Z-0.3902
X-1.4933 Z-0.3915
X-1.5127 Z-0.3913
X-1.5309 Z-0.39
X-1.5527 Z-0.3868
X-1.5743 Z-0.3822
X-1.5919 Z-0.3775
X-1.6094 Z-0.3726
X-1.6307 Z-0.3674
X-1.6523 Z-0.3633
X-1.6711 Z-0.361
X-1.6882 Z-0.36
X-2.3157 Z-0.3601
X-2.3333 Z-0.3614
X-2.3535 Z-0.3643
X-2.3777 Z-0.3693
X-2.4048 Z-0.3765
X-2.426 Z-0.3823
X-2.4482 Z-0.387
X-2.4707 Z-0.3902
X-2.4933 Z-0.3915
X-2.5127 Z-0.3913
X-2.5309 Z-0.39
X-2.5527 Z-0.3868
X-2.5743 Z-0.3822
X-2.5919 Z-0.3775
X-2.6094 Z-0.3726
X-2.6307 Z-0.3674
X-2.6523 Z-0.3633
X-2.6711 Z-0.361
X-2.6882 Z-0.36
X-4.5425 Z-0.3599
X-4.5494 Z-0.3596
X-4.5562 Z-0.3586
X-4.563 Z-0.3569
X-4.5704 Z-0.354
X-4.5765 Z-0.3507
X-4.5828 Z-0.3461
X-4.5879 Z-0.3411
X-4.5932 Z-0.3339
X-4.5964 Z-0.3273
X-4.5975 Z-0.3241
X-4.5987 Z-0.3188
X-4.5994 Z-0.3106
Z-0.3104
Z-0.1051
X-4.6001 Z-0.0985
X-4.6013 Z-0.0933
X-4.6033 Z-0.0873
X-4.6061 Z-0.0813
X-4.6097 Z-0.0755
X-4.6141 Z-0.0699
X-4.6212 Z-0.063
X-4.6498 Z-0.038
X-4.6557 Z-0.0334
X-4.6619 Z-0.0296
X-4.6713 Z-0.0252
X-4.6758 Z-0.0231
X-4.6767 Y-1.5924 Z-0.0228
X-4.6775 Y-1.5922 Z-0.0224
X-4.6782 Y-1.5918 Z-0.0222
X-4.679 Y-1.5913 Z-0.022
X-4.6796 Y-1.5907 Z-0.0218
X-4.6801 Y-1.59
X-4.6805 Y-1.5892
X-4.6808 Y-1.5883 Z-0.0219
X-4.681 Y-1.5875 Z-0.022
Y-1.5866 Z-0.0222
X-4.6809 Y-1.5858 Z-0.0225
X-4.6806 Y-1.585 Z-0.0228
X-4.6802 Y-1.5842 Z-0.0232
X-4.6797 Y-1.5836 Z-0.0236
X-4.6791 Y-1.5831 Z-0.024
X-4.6784 Y-1.5828 Z-0.0244
X-4.6776 Y-1.5825 Z-0.0248
X-4.6768 Z-0.0252
X-4.6679 Z-0.0293
X-4.6616 Z-0.0331
X-4.6558 Z-0.0376
X-4.6265 Z-0.0632
X-4.6197 Z-0.0701
X-4.6154 Z-0.0757
X-4.6119 Z-0.0816
X-4.6092 Z-0.0876
X-4.6073 Z-0.0936
X-4.6062 Z-0.0988
X-4.6054 Z-0.107
Z-0.1072
Z-0.3106
X-4.605 Z-0.3174
X-4.6037 Z-0.3238
X-4.6022 Z-0.3279
X-4.5983 Z-0.3354
X-4.5962 Z-0.3385
X-4.5916 Z-0.3437
X-4.5852 Z-0.349
X-4.5791 Z-0.3527
X-4.5728 Z-0.3556
X-4.5654 Z-0.3579
X-4.5587 Z-0.3592
X-4.5492 Z-0.3599
X-2.7143 Z-0.36
X-2.6961 Z-0.3603
X-2.6829 Z-0.3615
X-2.6661 Z-0.3641
X-2.6448 Z-0.3691
X-2.6275 Z-0.3745
X-2.6068 Z-0.382
X-2.5858 Z-0.3888
X-2.5719 Z-0.3925
X-2.5503 Z-0.3971
X-2.5293 Z-0.4001
X-2.511 Z-0.4014
X-2.4917 Z-0.4015
X-2.469 Z-0.3999
X-2.454 Z-0.3979
X-2.4318 Z-0.3935
X-2.4099 Z-0.3875
X-2.3955 Z-0.3828
X-2.3796 Z-0.3769
X-2.3593 Z-0.3702
X-2.3453 Z-0.3666
X-2.3286 Z-0.3631
X-2.3117 Z-0.3609
X-2.2981 Z-0.3601
X-1.7143 Z-0.36
X-1.6961 Z-0.3603
X-1.6829 Z-0.3615
X-1.6661 Z-0.3641
X-1.6448 Z-0.3691
X-1.6275 Z-0.3745
X-1.6068 Z-0.382
X-1.5858 Z-0.3888
X-1.5719 Z-0.3925
X-1.5503 Z-0.3971
X-1.5293 Z-0.4001
X-1.511 Z-0.4014
X-1.4917 Z-0.4015
X-1.469 Z-0.3999
X-1.454 Z-0.3979
X-1.4318 Z-0.3935
X-1.4171 Z-0.3896
X-1.4027 Z-0.3852
X-1.3844 Z-0.3787
X-1.3691 Z-0.3734
X-1.3523 Z-0.3683
X-1.332 Z-0.3637
X-1.3151 Z-0.3612
X-1.3012 Z-0.3602
X-0.7143 Z-0.36
X-0.6961 Z-0.3603
X-0.6829 Z-0.3615
X-0.6661 Z-0.3641
X-0.6448 Z-0.3691
X-0.6275 Z-0.3745
X-0.6068 Z-0.382
X-0.5858 Z-0.3888
X-0.5719 Z-0.3925
X-0.5503 Z-0.3971
X-0.5293 Z-0.4001
X-0.5094 Z-0.4014
X-0.4917 Z-0.4015
X-0.469 Z-0.3999
X-0.454 Z-0.3979
X-0.4318 Z-0.3935
X-0.4099 Z-0.3875
X-0.3955 Z-0.3828
X-0.3796 Z-0.3769
X-0.3593 Z-0.3702
X-0.3453 Z-0.3666
X-0.3286 Z-0.3631
X-0.3117 Z-0.3609
X-0.2981 Z-0.3601
X0.2857 Z-0.36
X0.3039 Z-0.3603
X0.3171 Z-0.3615
X0.3339 Z-0.3641
X0.3552 Z-0.3691
X0.3725 Z-0.3745
X0.3932 Z-0.382
X0.4142 Z-0.3888
X0.4281 Z-0.3925
X0.4497 Z-0.3971
X0.4707 Z-0.4001
X0.489 Z-0.4014
X0.5083 Z-0.4015
X0.531 Z-0.3999
X0.546 Z-0.3979
X0.5682 Z-0.3935
X0.5829 Z-0.3896
X0.5973 Z-0.3852
X0.6156 Z-0.3787
X0.6309 Z-0.3734
X0.6477 Z-0.3683
X0.668 Z-0.3637
X0.6849 Z-0.3612
X0.6988 Z-0.3602
X1.2857 Z-0.36
X1.3039 Z-0.3603
X1.3171 Z-0.3615
X1.3339 Z-0.3641
X1.3552 Z-0.3691
X1.3725 Z-0.3745
X1.3932 Z-0.382
X1.4142 Z-0.3888
X1.4281 Z-0.3925
X1.4497 Z-0.3971
X1.4707 Z-0.4001
X1.489 Z-0.4014
X1.5083 Z-0.4015
X1.531 Z-0.3999
X1.546 Z-0.3979
X1.5682 Z-0.3935
X1.5829 Z-0.3896
X1.5973 Z-0.3852
X1.6156 Z-0.3787
X1.6309 Z-0.3734
X1.6477 Z-0.3683
X1.668 Z-0.3637
X1.6849 Z-0.3612
X1.6988 Z-0.3602
X2.2857 Z-0.36
X2.3039 Z-0.3603
X2.3171 Z-0.3615
X2.3339 Z-0.3641
X2.3552 Z-0.3691
X2.3725 Z-0.3745
X2.3932 Z-0.382
X2.4142 Z-0.3888
X2.4281 Z-0.3925
X2.4497 Z-0.3971
X2.4707 Z-0.4001
X2.489 Z-0.4014
X2.5083 Z-0.4015
X2.531 Z-0.3999
X2.546 Z-0.3979
X2.5682 Z-0.3935
X2.5829 Z-0.3896
X2.5973 Z-0.3852
X2.6156 Z-0.3787
X2.6309 Z-0.3734
X2.6477 Z-0.3683
X2.668 Z-0.3637
X2.6849 Z-0.3612
X2.6988 Z-0.3602
X4.5424 Z-0.36
X4.5576 Z-0.3594
X4.5649 Z-0.358
X4.5753 Z-0.3546
X4.5816 Z-0.3514
X4.5874 Z-0.3474
X4.5925 Z-0.3427
X4.5969 Z-0.3375
X4.6004 Z-0.3318
X4.603 Z-0.3258
X4.6046 Z-0.3197
X4.6054 Z-0.3106
Z-0.3104
Z-0.1075
X4.6056 Z-0.1029
X4.6062 Z-0.0983
X4.6081 Z-0.0907
X4.6114 Z-0.0826
X4.6152 Z-0.076
X4.6196 Z-0.0702
X4.6246 Z-0.065
X4.6525 Z-0.0404
X4.6608 Z-0.0337
X4.6697 Z-0.0283
X4.6768 Z-0.0252
X4.6809 Z-0.0233
X4.6817 Y-1.5824 Z-0.023
X4.6825 Y-1.5822 Z-0.0227
X4.6833 Y-1.5818 Z-0.0224
X4.684 Y-1.5813 Z-0.0222
X4.6846 Y-1.5807 Z-0.0221
X4.6852 Y-1.58 Z-0.022
X4.6856 Y-1.5792
X4.6859 Y-1.5783
X4.686 Y-1.5775 Z-0.0222
Y-1.5766 Z-0.0224
X4.6859 Y-1.5758 Z-0.0226
X4.6856 Y-1.575 Z-0.0229
X4.6852 Y-1.5742 Z-0.0233
X4.6847 Y-1.5736 Z-0.0236
X4.684 Y-1.5731 Z-0.024
X4.6833 Y-1.5728 Z-0.0244
X4.6826 Y-1.5725 Z-0.0248
X4.6818 Z-0.0252
X4.6747 Z-0.0284
X4.6658 Z-0.0339
X4.6577 Z-0.0407
X4.6297 Z-0.0653
X4.6248 Z-0.0705
X4.6204 Z-0.0764
X4.6167 Z-0.083
X4.6137 Z-0.0904
X4.6127 Z-0.094
X4.6113 Z-0.1017
X4.611 Z-0.1075
Z-0.1077
X4.6108 Z-0.3135
X4.6101 Z-0.3199
X4.6086 Z-0.3259
X4.606 Z-0.3319
X4.6026 Z-0.3376
X4.5983 Z-0.3428
X4.5932 Z-0.3475
X4.5875 Z-0.3515
X4.5812 Z-0.3547
X4.571 Z-0.358
X4.5636 Z-0.3594
X4.5485 Z-0.36
X2.7136 Z-0.3601
X2.6979 Z-0.3614
X2.6845 Z-0.3636
X2.6679 Z-0.3676
X2.6548 Z-0.3718
X2.6382 Z-0.3784
X2.6251 Z-0.3842
X2.6039 Z-0.3925
X2.5823 Z-0.3994
X2.5676 Z-0.4033
X2.5454 Z-0.4079
X2.5228 Z-0.4106
X2.5038 Z-0.4115
X2.4922
X2.4707 Z-0.41
X2.4571 Z-0.4082
X2.4355 Z-0.4041
X2.4141 Z-0.3984
X2.3932 Z-0.3914
X2.3728 Z-0.3834
X2.3562 Z-0.376
X2.3392 Z-0.3697
X2.3247 Z-0.3657
X2.3099 Z-0.3625
X2.2949 Z-0.3606
X2.2806 Z-0.36
X1.7154
X1.7013 Z-0.361
X1.6878 Z-0.3629
X1.6712 Z-0.3667
X1.658 Z-0.3706
X1.64 Z-0.3776
X1.6251 Z-0.3842
X1.6039 Z-0.3925
X1.5823 Z-0.3994
X1.5676 Z-0.4033
X1.5454 Z-0.4079
X1.5228 Z-0.4106
X1.5038 Z-0.4115
X1.4922
X1.4707 Z-0.41
X1.4571 Z-0.4082
X1.4355 Z-0.4041
X1.4141 Z-0.3984
X1.3932 Z-0.3914
X1.3728 Z-0.3834
X1.3562 Z-0.376
X1.3392 Z-0.3697
X1.3247 Z-0.3657
X1.3099 Z-0.3625
X1.2949 Z-0.3606
X1.2801 Z-0.36
X0.7154
X0.7013 Z-0.361
X0.6878 Z-0.3629
X0.6712 Z-0.3667
X0.658 Z-0.3706
X0.64 Z-0.3776
X0.6251 Z-0.3842
X0.6039 Z-0.3925
X0.5823 Z-0.3994
X0.5676 Z-0.4033
X0.5454 Z-0.4079
X0.5228 Z-0.4106
X0.5038 Z-0.4115
X0.4922
X0.4707 Z-0.41
X0.4571 Z-0.4082
X0.4355 Z-0.4041
X0.4141 Z-0.3984
X0.3932 Z-0.3914
X0.3728 Z-0.3834
X0.3562 Z-0.376
X0.3392 Z-0.3697
X0.3247 Z-0.3657
X0.3099 Z-0.3625
X0.2949 Z-0.3606
X0.2801 Z-0.36
X-0.2846
X-0.2987 Z-0.361
X-0.3122 Z-0.3629
X-0.3288 Z-0.3667
X-0.342 Z-0.3706
X-0.36 Z-0.3776
X-0.3749 Z-0.3842
X-0.3961 Z-0.3925
X-0.4177 Z-0.3994
X-0.4324 Z-0.4033
X-0.4546 Z-0.4079
X-0.4772 Z-0.4106
X-0.4962 Z-0.4115
X-0.5078
X-0.5293 Z-0.41
X-0.5429 Z-0.4082
X-0.5645 Z-0.4041
X-0.5859 Z-0.3984
X-0.6068 Z-0.3914
X-0.6272 Z-0.3834
X-0.6438 Z-0.376
X-0.6608 Z-0.3697
X-0.6753 Z-0.3657
X-0.6901 Z-0.3625
X-0.7051 Z-0.3606
X-0.7199 Z-0.36
X-1.2846
X-1.2987 Z-0.361
X-1.3122 Z-0.3629
X-1.3288 Z-0.3667
X-1.342 Z-0.3706
X-1.36 Z-0.3776
X-1.3749 Z-0.3842
X-1.3961 Z-0.3925
X-1.4177 Z-0.3994
X-1.4324 Z-0.4033
X-1.4546 Z-0.4079
X-1.4772 Z-0.4106
X-1.4962 Z-0.4115
X-1.5078
X-1.5293 Z-0.41
X-1.5429 Z-0.4082
X-1.5645 Z-0.4041
X-1.5859 Z-0.3984
X-1.6068 Z-0.3914
X-1.6272 Z-0.3834
X-1.6438 Z-0.376
X-1.6608 Z-0.3697
X-1.6753 Z-0.3657
X-1.6901 Z-0.3625
X-1.7051 Z-0.3606
X-1.7199 Z-0.36
X-2.2846
X-2.2987 Z-0.361
X-2.3122 Z-0.3629
X-2.3288 Z-0.3667
X-2.342 Z-0.3706
X-2.36 Z-0.3776
X-2.3749 Z-0.3842
X-2.3961 Z-0.3925
X-2.4177 Z-0.3994
X-2.4324 Z-0.4033
X-2.4546 Z-0.4079
X-2.4772 Z-0.4106
X-2.4962 Z-0.4115
X-2.5078
X-2.5293 Z-0.41
X-2.5429 Z-0.4082
X-2.5645 Z-0.4041
X-2.5859 Z-0.3984
X-2.6068 Z-0.3914
X-2.6272 Z-0.3834
X-2.6438 Z-0.376
X-2.6608 Z-0.3697
X-2.6753 Z-0.3657
X-2.6901 Z-0.3625
X-2.7051 Z-0.3606
X-2.7199 Z-0.36
X-4.5543
X-4.5612 Z-0.3596
X-4.568 Z-0.3587
X-4.5748 Z-0.357
X-4.5823 Z-0.3542
X-4.5883 Z-0.3509
X-4.5946 Z-0.3462
X-4.5998 Z-0.3412
X-4.605 Z-0.334
X-4.6081 Z-0.3273
X-4.6092 Z-0.3241
X-4.6104 Z-0.3188
X-4.611 Z-0.3106
Z-0.1052
X-4.6117 Z-0.0985
X-4.6129 Z-0.0933
X-4.6148 Z-0.0873
X-4.6176 Z-0.0813
X-4.6211 Z-0.0754
X-4.6254 Z-0.0699
X-4.6321 Z-0.0631
X-4.6615 Z-0.0373
X-4.6674 Z-0.0328
X-4.6737 Z-0.029
X-4.6818 Z-0.0252
X-4.6858 Z-0.0233
X-4.6866 Y-1.5724 Z-0.0229
X-4.6874 Y-1.5722 Z-0.0226
X-4.6882 Y-1.5718 Z-0.0223
X-4.6889 Y-1.5713 Z-0.0221
X-4.6895 Y-1.5707 Z-0.022
X-4.69 Y-1.57 Z-0.0219
X-4.6905 Y-1.5692
X-4.6907 Y-1.5683
X-4.6909 Y-1.5675 Z-0.0221
Y-1.5666 Z-0.0223
X-4.6908 Y-1.5658 Z-0.0225
X-4.6905 Y-1.565 Z-0.0228
X-4.6901 Y-1.5642 Z-0.0232
X-4.6896 Y-1.5636 Z-0.0236
X-4.689 Y-1.5631 Z-0.024
X-4.6883 Y-1.5628 Z-0.0244
X-4.6875 Y-1.5625 Z-0.0248
X-4.6867 Z-0.0252
X-4.6778 Z-0.0294
X-4.6716 Z-0.0333
X-4.6659 Z-0.0378
X-4.6381 Z-0.0626
X-4.6329 Z-0.0676
X-4.6283 Z-0.073
X-4.6245 Z-0.0787
X-4.6214 Z-0.0847
X-4.6191 Z-0.0907
X-4.6176 Z-0.0966
X-4.6168 Z-0.1017
X-4.6165 Z-0.1055
Z-0.1057
Z-0.3106
X-4.6157 Z-0.3193
X-4.6138 Z-0.3266
X-4.6102 Z-0.3345
X-4.6048 Z-0.3416
X-4.5991 Z-0.3471
X-4.5935 Z-0.3512
X-4.5864 Z-0.3549
X-4.5798 Z-0.3573
X-4.5731 Z-0.3589
X-4.5624 Z-0.3599
X-2.7277 Z-0.36
X-2.7128 Z-0.3612
X-2.7016 Z-0.3629
X-2.6869 Z-0.3664
X-2.6765 Z-0.3698
X-2.6629 Z-0.3753
X-2.6467 Z-0.3834
X-2.6266 Z-0.3926
X-2.6062 Z-0.4009
X-2.5853 Z-0.408
X-2.5648 Z-0.4137
X-2.5432 Z-0.4181
X-2.5296 Z-0.4199
X-2.5153 Z-0.4211
X-2.4965 Z-0.4215
X-2.4775 Z-0.4206
X-2.455 Z-0.4177
X-2.4401 Z-0.4148
X-2.4181 Z-0.4091
X-2.3966 Z-0.402
X-2.3756 Z-0.3936
X-2.355 Z-0.3842
X-2.3394 Z-0.3763
X-2.3264 Z-0.3709
X-2.3134 Z-0.3665
X-2.3001 Z-0.3633
X-2.2866 Z-0.3611
X-2.2733 Z-0.3601
X-1.7277 Z-0.36
X-1.7128 Z-0.3612
X-1.7016 Z-0.3629
X-1.6869 Z-0.3664
X-1.6765 Z-0.3698
X-1.6629 Z-0.3753
X-1.6467 Z-0.3834
X-1.6266 Z-0.3926
X-1.6062 Z-0.4009
X-1.5853 Z-0.408
X-1.5648 Z-0.4137
X-1.5432 Z-0.4181
X-1.5296 Z-0.4199
X-1.5153 Z-0.4211
X-1.4965 Z-0.4215
X-1.4775 Z-0.4206
X-1.455 Z-0.4177
X-1.4401 Z-0.4148
X-1.4181 Z-0.4091
X-1.3966 Z-0.402
X-1.3756 Z-0.3936
X-1.355 Z-0.3842
X-1.3394 Z-0.3763
X-1.3264 Z-0.3709
X-1.3134 Z-0.3665
X-1.3001 Z-0.3633
X-1.2866 Z-0.3611
X-1.2733 Z-0.3601
X-0.7277 Z-0.36
X-0.7128 Z-0.3612
X-0.7016 Z-0.3629
X-0.6869 Z-0.3664
X-0.6765 Z-0.3698
X-0.6629 Z-0.3753
X-0.6467 Z-0.3834
X-0.6266 Z-0.3926
X-0.6062 Z-0.4009
X-0.5853 Z-0.408
X-0.5648 Z-0.4137
X-0.5432 Z-0.4181
X-0.5296 Z-0.4199
X-0.5153 Z-0.4211
X-0.4965 Z-0.4215
X-0.4775 Z-0.4206
X-0.455 Z-0.4177
X-0.4401 Z-0.4148
X-0.4181 Z-0.4091
X-0.3966 Z-0.402
X-0.3756 Z-0.3936
X-0.355 Z-0.3842
X-0.3394 Z-0.3763
X-0.3264 Z-0.3709
X-0.3134 Z-0.3665
X-0.3001 Z-0.3633
X-0.2866 Z-0.3611
X-0.2733 Z-0.3601
X0.2723 Z-0.36
X0.2872 Z-0.3612
X0.2984 Z-0.3629
X0.3131 Z-0.3664
X0.3235 Z-0.3698
X0.3371 Z-0.3753
X0.3533 Z-0.3834
X0.3734 Z-0.3926
X0.3938 Z-0.4009
X0.4147 Z-0.408
X0.4352 Z-0.4137
X0.4568 Z-0.4181
X0.4704 Z-0.4199
X0.4847 Z-0.4211
X0.5035 Z-0.4215
X0.5225 Z-0.4206
X0.545 Z-0.4177
X0.5599 Z-0.4148
X0.5819 Z-0.4091
X0.6034 Z-0.402
X0.6244 Z-0.3936
X0.645 Z-0.3842
X0.6606 Z-0.3763
X0.6736 Z-0.3709
X0.6866 Z-0.3665
X0.6999 Z-0.3633
X0.7134 Z-0.3611
X0.7267 Z-0.3601
X1.2723 Z-0.36
X1.2872 Z-0.3612
X1.2984 Z-0.3629
X1.3131 Z-0.3664
X1.3235 Z-0.3698
X1.3371 Z-0.3753
X1.3533 Z-0.3834
X1.3734 Z-0.3926
X1.3938 Z-0.4009
X1.4147 Z-0.408
X1.4352 Z-0.4137
X1.4568 Z-0.4181
X1.4704 Z-0.4199
X1.4847 Z-0.4211
X1.5035 Z-0.4215
X1.5225 Z-0.4206
X1.545 Z-0.4177
X1.5599 Z-0.4148
X1.5819 Z-0.4091
X1.6034 Z-0.402
X1.6244 Z-0.3936
X1.645 Z-0.3842
X1.6606 Z-0.3763
X1.6736 Z-0.3709
X1.6866 Z-0.3665
X1.6999 Z-0.3633
X1.7134 Z-0.3611
X1.7267 Z-0.3601
X2.2723 Z-0.36
X2.2872 Z-0.3612
X2.2984 Z-0.3629
X2.3131 Z-0.3664
X2.3235 Z-0.3698
X2.3371 Z-0.3753
X2.3533 Z-0.3834
X2.3734 Z-0.3926
X2.3938 Z-0.4009
X2.4147 Z-0.408
X2.4352 Z-0.4137
X2.4568 Z-0.4181
X2.4704 Z-0.4199
X2.4847 Z-0.4211
X2.5035 Z-0.4215
X2.5225 Z-0.4206
X2.545 Z-0.4177
X2.5599 Z-0.4148
X2.5819 Z-0.4091
X2.6034 Z-0.402
X2.6244 Z-0.3936
X2.645 Z-0.3842
X2.6606 Z-0.3763
X2.6736 Z-0.3709
X2.6866 Z-0.3665
X2.6999 Z-0.3633
X2.7134 Z-0.3611
X2.7267 Z-0.3601
X4.5493 Z-0.36
X4.5685 Z-0.3596
X4.5758 Z-0.3584
X4.5829 Z-0.3563
X4.593 Z-0.3515
X4.5987 Z-0.3475
X4.6038 Z-0.3428
X4.6081 Z-0.3376
X4.6115 Z-0.3318
X4.6141 Z-0.3258
X4.6156 Z-0.3198
X4.6165 Z-0.3106
Z-0.3104
Z-0.1075
X4.6168 Z-0.1012
X4.6183 Z-0.0936
X4.6194 Z-0.0899
X4.6224 Z-0.0826
X4.6261 Z-0.0761
X4.6306 Z-0.0702
X4.6355 Z-0.065
X4.6626 Z-0.0407
X4.6707 Z-0.0339
X4.6796 Z-0.0284
X4.6867 Z-0.0252
X4.6908 Z-0.0234
X4.6916 Y-1.5624 Z-0.023
X4.6924 Y-1.5622 Z-0.0227
X4.6932 Y-1.5618 Z-0.0224
X4.6939 Y-1.5613 Z-0.0222
X4.6945 Y-1.5607 Z-0.0221
X4.695 Y-1.56 Z-0.022
X4.6954 Y-1.5592
X4.6957 Y-1.5583
X4.6959 Y-1.5575 Z-0.0222
Y-1.5566 Z-0.0224
X4.6957 Y-1.5558 Z-0.0226
X4.6955 Y-1.555 Z-0.0229
X4.695 Y-1.5542 Z-0.0233
X4.6945 Y-1.5536 Z-0.0236
X4.6939 Y-1.5531 Z-0.024
X4.6932 Y-1.5528 Z-0.0244
X4.6924 Y-1.5525 Z-0.0248
X4.6916 Z-0.0252
X4.6846 Z-0.0284
X4.6757 Z-0.0339
X4.6675 Z-0.0407
X4.6404 Z-0.0651
X4.6355 Z-0.0704
X4.6312 Z-0.0763
X4.6275 Z-0.0829
X4.6246 Z-0.0904
X4.6236 Z-0.094
X4.6222 Z-0.1017
X4.6219 Z-0.1075
Z-0.1077
X4.6217 Z-0.3135
X4.6211 Z-0.3199
X4.6196 Z-0.3258
X4.617 Z-0.3318
X4.6136 Z-0.3375
X4.6093 Z-0.3428
X4.6042 Z-0.3475
X4.5985 Z-0.3515
X4.5884 Z-0.3563
X4.5813 Z-0.3584
X4.574 Z-0.3596
X4.5548 Z-0.36
X2.7388
X2.7277 Z-0.3608
X2.7142 Z-0.3629
X2.7009 Z-0.3662
X2.6912 Z-0.3695
X2.6786 Z-0.375
X2.6502 Z-0.3902
X2.6367 Z-0.397
X2.616 Z-0.4062
X2.5948 Z-0.4143
X2.5805 Z-0.4191
X2.5586 Z-0.4249
X2.5437 Z-0.4278
X2.5212 Z-0.4307
X2.5022 Z-0.4316
X2.4834 Z-0.431
X2.4699 Z-0.4297
X2.4556 Z-0.4277
X2.4422 Z-0.425
X2.4208 Z-0.4195
X2.4006 Z-0.4128
X2.3807 Z-0.4049
X2.3613 Z-0.3961
X2.3357 Z-0.3828
X2.3231 Z-0.3758
X2.3094 Z-0.3698
X2.2987 Z-0.3661
X2.2853 Z-0.3628
X2.2729 Z-0.3608
X2.2616 Z-0.3601
X1.739 Z-0.36
X1.7277 Z-0.3608
X1.7142 Z-0.3629
X1.7009 Z-0.3662
X1.6912 Z-0.3695
X1.6786 Z-0.375
X1.6502 Z-0.3902
X1.6367 Z-0.397
X1.616 Z-0.4062
X1.5948 Z-0.4143
X1.5805 Z-0.4191
X1.5586 Z-0.4249
X1.5437 Z-0.4278
X1.5212 Z-0.4307
X1.5022 Z-0.4316
X1.4834 Z-0.431
X1.4699 Z-0.4297
X1.4556 Z-0.4277
X1.4422 Z-0.425
X1.4208 Z-0.4195
X1.4006 Z-0.4128
X1.3807 Z-0.4049
X1.3613 Z-0.3961
X1.3357 Z-0.3828
X1.3231 Z-0.3758
X1.3094 Z-0.3698
X1.2987 Z-0.3661
X1.2853 Z-0.3628
X1.2729 Z-0.3608
X1.2616 Z-0.3601
X0.739 Z-0.36
X0.7277 Z-0.3608
X0.7142 Z-0.3629
X0.7009 Z-0.3662
X0.6912 Z-0.3695
X0.6786 Z-0.375
X0.6502 Z-0.3902
X0.6367 Z-0.397
X0.616 Z-0.4062
X0.5948 Z-0.4143
X0.5805 Z-0.4191
X0.5586 Z-0.4249
X0.5437 Z-0.4278
X0.5212 Z-0.4307
X0.5022 Z-0.4316
X0.4834 Z-0.431
X0.4699 Z-0.4297
X0.4556 Z-0.4277
X0.4422 Z-0.425
X0.4208 Z-0.4195
X0.4006 Z-0.4128
X0.3807 Z-0.4049
X0.3613 Z-0.3961
X0.3357 Z-0.3828
X0.3231 Z-0.3758
X0.3094 Z-0.3698
X0.2987 Z-0.3661
X0.2853 Z-0.3628
X0.2729 Z-0.3608
X0.2616 Z-0.3601
X-0.261 Z-0.36
X-0.2723 Z-0.3608
X-0.2858 Z-0.3629
X-0.2991 Z-0.3662
X-0.3088 Z-0.3695
X-0.3214 Z-0.375
X-0.3498 Z-0.3902
X-0.3633 Z-0.397
X-0.384 Z-0.4062
X-0.4052 Z-0.4143
X-0.4195 Z-0.4191
X-0.4414 Z-0.4249
X-0.4563 Z-0.4278
X-0.4788 Z-0.4307
X-0.4978 Z-0.4316
X-0.5166 Z-0.431
X-0.5301 Z-0.4297
X-0.5444 Z-0.4277
X-0.5578 Z-0.425
X-0.5792 Z-0.4195
X-0.5994 Z-0.4128
X-0.6193 Z-0.4049
X-0.6387 Z-0.3961
X-0.6643 Z-0.3828
X-0.6769 Z-0.3758
X-0.6906 Z-0.3698
X-0.7013 Z-0.3661
X-0.7147 Z-0.3628
X-0.7271 Z-0.3608
X-0.7384 Z-0.3601
X-1.261 Z-0.36
X-1.2723 Z-0.3608
X-1.2858 Z-0.3629
X-1.2991 Z-0.3662
X-1.3088 Z-0.3695
X-1.3214 Z-0.375
X-1.3498 Z-0.3902
X-1.3633 Z-0.397
X-1.384 Z-0.4062
X-1.4052 Z-0.4143
X-1.4195 Z-0.4191
X-1.4414 Z-0.4249
X-1.4563 Z-0.4278
X-1.4788 Z-0.4307
X-1.4978 Z-0.4316
X-1.5166 Z-0.431
X-1.5301 Z-0.4297
X-1.5444 Z-0.4277
X-1.5578 Z-0.425
X-1.5792 Z-0.4195
X-1.5994 Z-0.4128
X-1.6193 Z-0.4049
X-1.6387 Z-0.3961
X-1.6643 Z-0.3828
X-1.6769 Z-0.3758
X-1.6906 Z-0.3698
X-1.7013 Z-0.3661
X-1.7147 Z-0.3628
X-1.7271 Z-0.3608
X-1.7384 Z-0.3601
X-2.261 Z-0.36
X-2.2723 Z-0.3608
X-2.2858 Z-0.3629
X-2.2991 Z-0.3662
X-2.3088 Z-0.3695
X-2.3214 Z-0.375
X-2.3498 Z-0.3902
X-2.3633 Z-0.397
X-2.384 Z-0.4062
X-2.4052 Z-0.4143
X-2.4195 Z-0.4191
X-2.4414 Z-0.4249
X-2.4563 Z-0.4278
X-2.4788 Z-0.4307
X-2.4978 Z-0.4316
X-2.5166 Z-0.431
X-2.5301 Z-0.4297
X-2.5444 Z-0.4277
X-2.5578 Z-0.425
X-2.5792 Z-0.4195
X-2.5994 Z-0.4128
X-2.6193 Z-0.4049
X-2.6387 Z-0.3961
X-2.6643 Z-0.3828
X-2.6769 Z-0.3758
X-2.6906 Z-0.3698
X-2.7013 Z-0.3661
X-2.7147 Z-0.3628
X-2.7271 Z-0.3608
X-2.7384 Z-0.3601
X-4.5656 Z-0.36
X-4.5763 Z-0.3592
X-4.583 Z-0.3579
X-4.5896 Z-0.3558
X-4.596 Z-0.3528
X-4.602 Z-0.3491
X-4.6083 Z-0.3438
X-4.6129 Z-0.3386
X-4.6172 Z-0.3316
X-4.6188 Z-0.3279
X-4.6203 Z-0.3238
X-4.6211 Z-0.3197
X-4.6219 Z-0.3106
Z-0.3104
Z-0.1071
X-4.6225 Z-0.0997
X-4.6234 Z-0.0946
X-4.6252 Z-0.0887
X-4.6277 Z-0.0827
X-4.631 Z-0.0767
X-4.635 Z-0.071
X-4.6411 Z-0.0644
X-4.6728 Z-0.0361
X-4.6787 Z-0.0318
X-4.6851 Z-0.0282
X-4.6916 Z-0.0252
X-4.6954 Z-0.0235
X-4.6962 Y-1.5524 Z-0.0232
X-4.697 Y-1.5522 Z-0.0228
X-4.6977 Y-1.5518 Z-0.0226
X-4.6984 Y-1.5513 Z-0.0224
X-4.6991 Y-1.5507 Z-0.0222
X-4.6996 Y-1.55 Z-0.0221
X-4.7 Y-1.5492
X-4.7002 Y-1.5483
X-4.7004 Y-1.5475 Z-0.0223
Y-1.5466 Z-0.0224
X-4.7002 Y-1.5458 Z-0.0227
X-4.7 Y-1.545 Z-0.023
X-4.6995 Y-1.5442 Z-0.0233
X-4.699 Y-1.5436 Z-0.0237
X-4.6984 Y-1.5431 Z-0.024
X-4.6977 Y-1.5428 Z-0.0244
X-4.6969 Y-1.5425 Z-0.0248
X-4.6961 Z-0.0252
X-4.6901 Z-0.028
X-4.6837 Z-0.0316
X-4.6781 Z-0.0357
X-4.6474 Z-0.0632
X-4.6423 Z-0.0683
X-4.6379 Z-0.0738
X-4.6342 Z-0.0796
X-4.6313 Z-0.0856
X-4.6285 Z-0.0942
X-4.6271 Z-0.1021
X-4.6269 Z-0.1072
Z-0.1074
Z-0.3106
X-4.6267 Z-0.3137
X-4.6258 Z-0.3211
X-4.6235 Z-0.3287
X-4.6206 Z-0.3346
X-4.6185 Z-0.3378
X-4.614 Z-0.3433
X-4.6071 Z-0.3492
X-4.6011 Z-0.353
X-4.5941 Z-0.3562
X-4.5875 Z-0.3582
X-4.5784 Z-0.3596
X-4.5716 Z-0.36
X-2.9109
X-2.7455 Z-0.3602
X-2.736 Z-0.3611
X-2.7231 Z-0.3634
X-2.7122 Z-0.3665
X-2.7016 Z-0.3704
X-2.6915 Z-0.3752
X-2.6824 Z-0.3806
X-2.66 Z-0.3935
X-2.6404 Z-0.4038
X-2.6212 Z-0.4129
X-2.6015 Z-0.4211
X-2.5814 Z-0.4282
X-2.5609 Z-0.434
X-2.5401 Z-0.4383
X-2.5198 Z-0.4408
X-2.501 Z-0.4416
X-2.4818 Z-0.4409
X-2.4593 Z-0.4382
X-2.4444 Z-0.4353
X-2.4297 Z-0.4315
X-2.4153 Z-0.4272
X-2.394 Z-0.4194
X-2.3732 Z-0.4104
X-2.3529 Z-0.4004
X-2.3329 Z-0.3895
X-2.3141 Z-0.3784
X-2.3081 Z-0.375
X-2.2987 Z-0.3706
X-2.2858 Z-0.3658
X-2.2759 Z-0.3632
X-2.2641 Z-0.3611
X-2.2516 Z-0.3601
X-1.9109 Z-0.36
X-1.7455 Z-0.3602
X-1.736 Z-0.3611
X-1.7231 Z-0.3634
X-1.7122 Z-0.3665
X-1.7016 Z-0.3704
X-1.6915 Z-0.3752
X-1.6824 Z-0.3806
X-1.66 Z-0.3935
X-1.6404 Z-0.4038
X-1.6212 Z-0.4129
X-1.6015 Z-0.4211
X-1.5814 Z-0.4282
X-1.5609 Z-0.434
X-1.5401 Z-0.4383
X-1.5198 Z-0.4408
X-1.501 Z-0.4416
X-1.4818 Z-0.4409
X-1.4593 Z-0.4382
X-1.4444 Z-0.4353
X-1.4297 Z-0.4315
X-1.4153 Z-0.4272
X-1.394 Z-0.4194
X-1.3732 Z-0.4104
X-1.3529 Z-0.4004
X-1.3329 Z-0.3895
X-1.3141 Z-0.3784
X-1.3081 Z-0.375
X-1.2987 Z-0.3706
X-1.2858 Z-0.3658
X-1.2759 Z-0.3632
X-1.2641 Z-0.3611
X-1.2516 Z-0.3601
X-0.7831 Z-0.36
X-0.7455 Z-0.3602
X-0.736 Z-0.3611
X-0.7231 Z-0.3634
X-0.7122 Z-0.3665
X-0.7016 Z-0.3704
X-0.6915 Z-0.3752
X-0.6824 Z-0.3806
X-0.66 Z-0.3935
X-0.6404 Z-0.4038
X-0.6212 Z-0.4129
X-0.6015 Z-0.4211
X-0.5814 Z-0.4282
X-0.5609 Z-0.434
X-0.5401 Z-0.4383
X-0.5198 Z-0.4408
X-0.501 Z-0.4416
X-0.4818 Z-0.4409
X-0.4593 Z-0.4382
X-0.4444 Z-0.4353
X-0.4297 Z-0.4315
X-0.4153 Z-0.4272
X-0.394 Z-0.4194
X-0.3732 Z-0.4104
X-0.3529 Z-0.4004
X-0.3329 Z-0.3895
X-0.3141 Z-0.3784
X-0.3081 Z-0.375
X-0.2987 Z-0.3706
X-0.2858 Z-0.3658
X-0.2759 Z-0.3632
X-0.2641 Z-0.3611
X-0.2516 Z-0.3601
X0.0891 Z-0.36
X0.2545 Z-0.3602
X0.264 Z-0.3611
X0.2769 Z-0.3634
X0.2878 Z-0.3665
X0.2984 Z-0.3704
X0.3085 Z-0.3752
X0.3176 Z-0.3806
X0.34 Z-0.3935
X0.3596 Z-0.4038
X0.3788 Z-0.4129
X0.3985 Z-0.4211
X0.4186 Z-0.4282
X0.4391 Z-0.434
X0.4599 Z-0.4383
X0.4802 Z-0.4408
X0.499 Z-0.4416
X0.5182 Z-0.4409
X0.5407 Z-0.4382
X0.5556 Z-0.4353
X0.5703 Z-0.4315
X0.5847 Z-0.4272
X0.606 Z-0.4194
X0.6268 Z-0.4104
X0.6471 Z-0.4004
X0.6671 Z-0.3895
X0.6859 Z-0.3784
X0.6919 Z-0.375
X0.7013 Z-0.3706
X0.7142 Z-0.3658
X0.7241 Z-0.3632
X0.7359 Z-0.3611
X0.7484 Z-0.3601
X1.2169 Z-0.36
X1.2545 Z-0.3602
X1.264 Z-0.3611
X1.2769 Z-0.3634
X1.2878 Z-0.3665
X1.2984 Z-0.3704
X1.3085 Z-0.3752
X1.3176 Z-0.3806
X1.34 Z-0.3935
X1.3596 Z-0.4038
X1.3788 Z-0.4129
X1.3985 Z-0.4211
X1.4186 Z-0.4282
X1.4391 Z-0.434
X1.4599 Z-0.4383
X1.4802 Z-0.4408
X1.499 Z-0.4416
X1.5182 Z-0.4409
X1.5407 Z-0.4382
X1.5556 Z-0.4353
X1.5703 Z-0.4315
X1.5847 Z-0.4272
X1.606 Z-0.4194
X1.6268 Z-0.4104
X1.6471 Z-0.4004
X1.6671 Z-0.3895
X1.6859 Z-0.3784
X1.6919 Z-0.375
X1.7013 Z-0.3706
X1.7142 Z-0.3658
X1.7241 Z-0.3632
X1.7359 Z-0.3611
X1.7484 Z-0.3601
X2.0891 Z-0.36
X2.2545 Z-0.3602
X2.264 Z-0.3611
X2.2769 Z-0.3634
X2.2878 Z-0.3665
X2.2984 Z-0.3704
X2.3085 Z-0.3752
X2.3176 Z-0.3806
X2.34 Z-0.3935
X2.3596 Z-0.4038
X2.3788 Z-0.4129
X2.3985 Z-0.4211
X2.4186 Z-0.4282
X2.4391 Z-0.434
X2.4599 Z-0.4383
X2.4802 Z-0.4408
X2.499 Z-0.4416
X2.5182 Z-0.4409
X2.5407 Z-0.4382
X2.5556 Z-0.4353
X2.5703 Z-0.4315
X2.5847 Z-0.4272
X2.606 Z-0.4194
X2.6268 Z-0.4104
X2.6471 Z-0.4004
X2.6671 Z-0.3895
X2.6859 Z-0.3784
X2.6919 Z-0.375
X2.7013 Z-0.3706
X2.7142 Z-0.3658
X2.7241 Z-0.3632
X2.7359 Z-0.3611
X2.7486 Z-0.3601
X4.5602 Z-0.36
X4.5794 Z-0.3596
X4.5867 Z-0.3584
X4.5938 Z-0.3563
X4.6005 Z-0.3534
X4.6037 Z-0.3516
X4.6094 Z-0.3476
X4.6144 Z-0.3429
X4.6186 Z-0.3376
X4.622 Z-0.3319
X4.6245 Z-0.3259
X4.626 Z-0.3199
X4.6267 Z-0.3136
Z-0.3134
X4.6269 Z-0.1075
X4.6271 Z-0.1021
X4.6284 Z-0.0945
X4.6294 Z-0.0908
X4.6323 Z-0.0833
X4.6359 Z-0.0767
X4.6402 Z-0.0707
X4.6451 Z-0.0654
X4.6751 Z-0.0383
X4.6831 Z-0.0321
X4.6891 Z-0.0285
X4.6961 Z-0.0252
X4.6998 Z-0.0235
X4.7006 Y-1.5424 Z-0.0232
X4.7014 Y-1.5422 Z-0.0228
X4.7021 Y-1.5418 Z-0.0226
X4.7028 Y-1.5413 Z-0.0224
X4.7034 Y-1.5407 Z-0.0222
X4.7039 Y-1.54 Z-0.0221
X4.7043 Y-1.5392
X4.7046 Y-1.5383
X4.7048 Y-1.5375 Z-0.0222
Y-1.5366 Z-0.0224
X4.7046 Y-1.5358 Z-0.0226
X4.7043 Y-1.535 Z-0.0229
X4.7039 Y-1.5342 Z-0.0233
X4.7034 Y-1.5336 Z-0.0236
X4.7028 Y-1.5331 Z-0.024
X4.7021 Y-1.5328 Z-0.0244
X4.7013 Y-1.5325 Z-0.0248
X4.7005 Z-0.0252
X4.6935 Z-0.0285
X4.6875 Z-0.0321
X4.6795 Z-0.0383
X4.6497 Z-0.0656
X4.6449 Z-0.071
X4.6407 Z-0.077
X4.6371 Z-0.0837
X4.6342 Z-0.0912
X4.6327 Z-0.0973
X4.632 Z-0.1025
X4.6318 Z-0.1075
Z-0.1077
X4.6317 Z-0.3121
X4.6309 Z-0.32
X4.6294 Z-0.3259
X4.6269 Z-0.3319
X4.6235 Z-0.3376
X4.6193 Z-0.3429
X4.6143 Z-0.3476
X4.6086 Z-0.3516
X4.5987 Z-0.3563
X4.5917 Z-0.3585
X4.5844 Z-0.3596
X4.5656 Z-0.36
X2.7578 Z-0.3601
X2.747 Z-0.3609
X2.7369 Z-0.3626
X2.7253 Z-0.3658
X2.7141 Z-0.3699
X2.7048 Z-0.3745
X2.6702 Z-0.396
X2.6437 Z-0.4107
X2.6234 Z-0.4208
X2.6026 Z-0.4299
X2.5813 Z-0.4377
X2.5668 Z-0.4421
X2.5521 Z-0.4458
X2.5372 Z-0.4487
X2.5222 Z-0.4505
X2.503 Z-0.4516
X2.4842 Z-0.4511
X2.4631 Z-0.4487
X2.443 Z-0.4447
X2.4225 Z-0.439
X2.4025 Z-0.4319
X2.3828 Z-0.4237
X2.3636 Z-0.4145
X2.3448 Z-0.4045
X2.3199 Z-0.3899
X2.2949 Z-0.3743
X2.2848 Z-0.3695
X2.2725 Z-0.3651
X2.2634 Z-0.3627
X2.2522 Z-0.3608
X2.2399 Z-0.36
X1.7584
X1.747 Z-0.3609
X1.7369 Z-0.3626
X1.7253 Z-0.3658
X1.7141 Z-0.3699
X1.7048 Z-0.3745
X1.6702 Z-0.396
X1.6437 Z-0.4107
X1.6234 Z-0.4208
X1.6026 Z-0.4299
X1.5813 Z-0.4377
X1.5668 Z-0.4421
X1.5521 Z-0.4458
X1.5372 Z-0.4487
X1.5222 Z-0.4505
X1.503 Z-0.4516
X1.4842 Z-0.4511
X1.4631 Z-0.4487
X1.443 Z-0.4447
X1.4225 Z-0.439
X1.4025 Z-0.4319
X1.3828 Z-0.4237
X1.3636 Z-0.4145
X1.3448 Z-0.4045
X1.3199 Z-0.3899
X1.2949 Z-0.3743
X1.2848 Z-0.3695
X1.2725 Z-0.3651
X1.2634 Z-0.3627
X1.2522 Z-0.3608
X1.2399 Z-0.36
X0.7584
X0.747 Z-0.3609
X0.7369 Z-0.3626
X0.7253 Z-0.3658
X0.7141 Z-0.3699
X0.7048 Z-0.3745
X0.6702 Z-0.396
X0.6437 Z-0.4107
X0.6234 Z-0.4208
X0.6026 Z-0.4299
X0.5813 Z-0.4377
X0.5668 Z-0.4421
X0.5521 Z-0.4458
X0.5372 Z-0.4487
X0.5222 Z-0.4505
X0.503 Z-0.4516
X0.4842 Z-0.4511
X0.4631 Z-0.4487
X0.443 Z-0.4447
X0.4225 Z-0.439
X0.4025 Z-0.4319
X0.3828 Z-0.4237
X0.3636 Z-0.4145
X0.3448 Z-0.4045
X0.3199 Z-0.3899
X0.2949 Z-0.3743
X0.2848 Z-0.3695
X0.2725 Z-0.3651
X0.2634 Z-0.3627
X0.2522 Z-0.3608
X0.2399 Z-0.36
X-0.2416
X-0.253 Z-0.3609
X-0.2631 Z-0.3626
X-0.2747 Z-0.3658
X-0.2859 Z-0.3699
X-0.2952 Z-0.3745
X-0.3298 Z-0.396
X-0.3563 Z-0.4107
X-0.3766 Z-0.4208
X-0.3974 Z-0.4299
X-0.4187 Z-0.4377
X-0.4332 Z-0.4421
X-0.4479 Z-0.4458
X-0.4628 Z-0.4487
X-0.4778 Z-0.4505
X-0.497 Z-0.4516
X-0.5158 Z-0.4511
X-0.5369 Z-0.4487
X-0.557 Z-0.4447
X-0.5775 Z-0.439
X-0.5975 Z-0.4319
X-0.6172 Z-0.4237
X-0.6364 Z-0.4145
X-0.6552 Z-0.4045
X-0.6801 Z-0.3899
X-0.7051 Z-0.3743
X-0.7152 Z-0.3695
X-0.7275 Z-0.3651
X-0.7366 Z-0.3627
X-0.7478 Z-0.3608
X-0.7601 Z-0.36
X-1.2416
X-1.253 Z-0.3609
X-1.2631 Z-0.3626
X-1.2747 Z-0.3658
X-1.2859 Z-0.3699
X-1.2952 Z-0.3745
X-1.3298 Z-0.396
X-1.3563 Z-0.4107
X-1.3766 Z-0.4208
X-1.3974 Z-0.4299
X-1.4187 Z-0.4377
X-1.4332 Z-0.4421
X-1.4479 Z-0.4458
X-1.4628 Z-0.4487
X-1.4778 Z-0.4505
X-1.497 Z-0.4516
X-1.5158 Z-0.4511
X-1.5369 Z-0.4487
X-1.557 Z-0.4447
X-1.5775 Z-0.439
X-1.5975 Z-0.4319
X-1.6172 Z-0.4237
X-1.6364 Z-0.4145
X-1.6552 Z-0.4045
X-1.6801 Z-0.3899
X-1.7051 Z-0.3743
X-1.7152 Z-0.3695
X-1.7275 Z-0.3651
X-1.7366 Z-0.3627
X-1.7478 Z-0.3608
X-1.7601 Z-0.36
X-2.2416
X-2.253 Z-0.3609
X-2.2631 Z-0.3626
X-2.2747 Z-0.3658
X-2.2859 Z-0.3699
X-2.2952 Z-0.3745
X-2.3298 Z-0.396
X-2.3563 Z-0.4107
X-2.3766 Z-0.4208
X-2.3974 Z-0.4299
X-2.4187 Z-0.4377
X-2.4332 Z-0.4421
X-2.4479 Z-0.4458
X-2.4628 Z-0.4487
X-2.4778 Z-0.4505
X-2.497 Z-0.4516
X-2.5158 Z-0.4511
X-2.5369 Z-0.4487
X-2.557 Z-0.4447
X-2.5775 Z-0.439
X-2.5975 Z-0.4319
X-2.6172 Z-0.4237
X-2.6364 Z-0.4145
X-2.6552 Z-0.4045
X-2.6801 Z-0.3899
X-2.7051 Z-0.3743
X-2.7152 Z-0.3695
X-2.7275 Z-0.3651
X-2.7366 Z-0.3627
X-2.7478 Z-0.3608
X-2.7601 Z-0.36
X-4.5771
X-4.5878 Z-0.3591
X-4.5946 Z-0.3577
X-4.6011 Z-0.3554
X-4.6075 Z-0.3523
X-4.6142 Z-0.3477
X-4.6192 Z-0.343
X-4.6242 Z-0.3366
X-4.628 Z-0.3297
X-4.6299 Z-0.3246
X-4.6309 Z-0.3201
X-4.6318 Z-0.3106
Z-0.3104
Z-0.1075
X-4.6323 Z-0.1003
X-4.6331 Z-0.0953
X-4.6348 Z-0.0894
X-4.6372 Z-0.0833
X-4.6404 Z-0.0774
X-4.6444 Z-0.0717
X-4.6491 Z-0.0663
X-4.6795 Z-0.0383
X-4.6853 Z-0.0336
X-4.6914 Z-0.0296
X-4.7005 Z-0.0252
X-4.7041 Z-0.0235
X-4.7049 Y-1.5324 Z-0.0231
X-4.7057 Y-1.5322 Z-0.0228
X-4.7064 Y-1.5318 Z-0.0225
X-4.7071 Y-1.5313 Z-0.0223
X-4.7078 Y-1.5307 Z-0.0221
X-4.7083 Y-1.53 Z-0.022
X-4.7087 Y-1.5292
X-4.709 Y-1.5283
X-4.7091 Y-1.5275 Z-0.0221
Y-1.5266 Z-0.0223
X-4.709 Y-1.5258 Z-0.0226
X-4.7087 Y-1.525 Z-0.0229
X-4.7083 Y-1.5242 Z-0.0232
X-4.7078 Y-1.5236 Z-0.0236
X-4.7072 Y-1.5231 Z-0.024
X-4.7065 Y-1.5228 Z-0.0244
X-4.7057 Y-1.5225 Z-0.0248
X-4.7049 Z-0.0252
X-4.6985 Z-0.0282
X-4.6922 Z-0.0319
X-4.6863 Z-0.0362
X-4.6575 Z-0.0625
X-4.6512 Z-0.0689
X-4.6469 Z-0.0745
X-4.6434 Z-0.0804
X-4.6406 Z-0.0864
X-4.638 Z-0.0949
X-4.6368 Z-0.1027
X-4.6366 Z-0.1072
Z-0.1074
Z-0.3106
X-4.6361 Z-0.3184
X-4.6354 Z-0.3221
X-4.6332 Z-0.3293
X-4.6301 Z-0.3352
X-4.628 Z-0.3384
X-4.6235 Z-0.3437
X-4.6172 Z-0.3491
X-4.6112 Z-0.3529
X-4.6042 Z-0.3561
X-4.5976 Z-0.3582
X-4.5894 Z-0.3596
X-4.5817 Z-0.36
X-2.7656 Z-0.3601
X-2.7543 Z-0.3612
X-2.7432 Z-0.3634
X-2.7325 Z-0.3666
X-2.7222 Z-0.371
X-2.7124 Z-0.3765
X-2.6942 Z-0.3887
X-2.6625 Z-0.4086
X-2.6373 Z-0.4226
X-2.612 Z-0.435
X-2.5923 Z-0.4432
X-2.5722 Z-0.4502
X-2.5517 Z-0.4557
X-2.5375 Z-0.4584
X-2.5194 Z-0.4607
X-2.5 Z-0.4616
X-2.4801 Z-0.4607
X-2.465 Z-0.4589
X-2.4501 Z-0.456
X-2.4283 Z-0.4503
X-2.4139 Z-0.4455
X-2.3998 Z-0.44
X-2.3791 Z-0.4308
X-2.3589 Z-0.4206
X-2.3391 Z-0.4095
X-2.3197 Z-0.3976
X-2.3007 Z-0.3853
X-2.285 Z-0.3749
X-2.2742 Z-0.3693
X-2.2646 Z-0.3656
X-2.2547 Z-0.3629
X-2.2446 Z-0.361
X-2.2345 Z-0.3601
X-1.7656
X-1.7543 Z-0.3612
X-1.7432 Z-0.3634
X-1.7325 Z-0.3666
X-1.7222 Z-0.371
X-1.7124 Z-0.3765
X-1.6942 Z-0.3887
X-1.6625 Z-0.4086
X-1.6373 Z-0.4226
X-1.612 Z-0.435
X-1.5923 Z-0.4432
X-1.5722 Z-0.4502
X-1.5517 Z-0.4557
X-1.5375 Z-0.4584
X-1.5194 Z-0.4607
X-1.5 Z-0.4616
X-1.4801 Z-0.4607
X-1.465 Z-0.4589
X-1.4501 Z-0.456
X-1.4283 Z-0.4503
X-1.4139 Z-0.4455
X-1.3998 Z-0.44
X-1.3791 Z-0.4308
X-1.3589 Z-0.4206
X-1.3391 Z-0.4095
X-1.3197 Z-0.3976
X-1.3007 Z-0.3853
X-1.285 Z-0.3749
X-1.2742 Z-0.3693
X-1.2646 Z-0.3656
X-1.2547 Z-0.3629
X-1.2446 Z-0.361
X-1.2345 Z-0.3601
X-0.7656
X-0.7543 Z-0.3612
X-0.7432 Z-0.3634
X-0.7325 Z-0.3666
X-0.7222 Z-0.371
X-0.7124 Z-0.3765
X-0.6942 Z-0.3887
X-0.6625 Z-0.4086
X-0.6373 Z-0.4226
X-0.612 Z-0.435
X-0.5923 Z-0.4432
X-0.5722 Z-0.4502
X-0.5517 Z-0.4557
X-0.5375 Z-0.4584
X-0.5194 Z-0.4607
X-0.5 Z-0.4616
X-0.4801 Z-0.4607
X-0.465 Z-0.4589
X-0.4501 Z-0.456
X-0.4283 Z-0.4503
X-0.4139 Z-0.4455
X-0.3998 Z-0.44
X-0.3791 Z-0.4308
X-0.3589 Z-0.4206
X-0.3391 Z-0.4095
X-0.3197 Z-0.3976
X-0.3007 Z-0.3853
X-0.285 Z-0.3749
X-0.2742 Z-0.3693
X-0.2646 Z-0.3656
X-0.2547 Z-0.3629
X-0.2446 Z-0.361
X-0.2345 Z-0.3601
X0.2344
X0.2457 Z-0.3612
X0.2568 Z-0.3634
X0.2675 Z-0.3666
X0.2778 Z-0.371
X0.2876 Z-0.3765
X0.3058 Z-0.3887
X0.3375 Z-0.4086
X0.3627 Z-0.4226
X0.388 Z-0.435
X0.4077 Z-0.4432
X0.4278 Z-0.4502
X0.4483 Z-0.4557
X0.4625 Z-0.4584
X0.4806 Z-0.4607
X0.5 Z-0.4616
X0.5199 Z-0.4607
X0.535 Z-0.4589
X0.5499 Z-0.456
X0.5717 Z-0.4503
X0.5861 Z-0.4455
X0.6002 Z-0.44
X0.6209 Z-0.4308
X0.6411 Z-0.4206
X0.6609 Z-0.4095
X0.6803 Z-0.3976
X0.6993 Z-0.3853
X0.715 Z-0.3749
X0.7258 Z-0.3693
X0.7354 Z-0.3656
