%
(003 - Holes and Finishing Lip)
(T5 D=0.0625 CR=0 - ZMIN=-0.185 - flat end mill)
G90
G17
G20
(When using Fusion for Personal Use, the feedrate of rapid)
(moves is reduced to match the feedrate of cutting moves,)
(which can increase machining time. Unrestricted rapid moves)
(are available with a Fusion Subscription.)
G28 G91 Z0
G90

(2D Pocket4)
T5 M6
S13000 M3
G17 G90
G54
G0 X3.4179 Y-2.2522
Z0.53
G1 Z0.13 F60
Z0.0362 F7.5
X3.418 Y-2.2514 Z0.0332 F13.333
X3.4184 Y-2.2493 Z0.0309
X3.4187 Y-2.2463 Z0.03
G3 X3.3595 Y-2.2437 Z0.0267 I-0.0296 J0.0013
X3.4187 Y-2.2463 Z0.0235 I0.0296 J-0.0013
X3.3595 Y-2.2437 Z0.0202 I-0.0296 J0.0013
X3.4187 Y-2.2463 Z0.017 I0.0296 J-0.0013
X3.3595 Y-2.2437 Z0.0137 I-0.0296 J0.0013
X3.4187 Y-2.2463 Z0.0105 I0.0296 J-0.0013
X3.3595 Y-2.2437 Z0.0072 I-0.0296 J0.0013
X3.4187 Y-2.2463 Z0.0039 I0.0296 J-0.0013
X3.3595 Y-2.2437 Z0.0007 I-0.0296 J0.0013
X3.4187 Y-2.2463 Z-0.0026 I0.0296 J-0.0013
X3.3595 Y-2.2437 Z-0.0058 I-0.0296 J0.0013
X3.4187 Y-2.2463 Z-0.0091 I0.0296 J-0.0013
X3.3595 Y-2.2437 Z-0.0123 I-0.0296 J0.0013
X3.4187 Y-2.2463 Z-0.0156 I0.0296 J-0.0013
X3.3595 Y-2.2437 Z-0.0189 I-0.0296 J0.0013
X3.4187 Y-2.2463 Z-0.0221 I0.0296 J-0.0013
X3.3595 Y-2.2437 Z-0.0254 I-0.0296 J0.0013
X3.4187 Y-2.2463 Z-0.0286 I0.0296 J-0.0013
X3.3595 Y-2.2437 Z-0.0319 I-0.0296 J0.0013
X3.4187 Y-2.2463 Z-0.0351 I0.0296 J-0.0013
X3.3595 Y-2.2437 Z-0.0384 I-0.0296 J0.0013
X3.4187 Y-2.2463 Z-0.0417 I0.0296 J-0.0013
X3.3595 Y-2.2437 Z-0.0449 I-0.0296 J0.0013
X3.4187 Y-2.2463 Z-0.0482 I0.0296 J-0.0013
X3.3595 Y-2.2437 Z-0.0514 I-0.0296 J0.0013
X3.4187 Y-2.2463 Z-0.0547 I0.0296 J-0.0013
X3.3595 Y-2.2437 Z-0.0579 I-0.0296 J0.0013
X3.4187 Y-2.2463 Z-0.0612 I0.0296 J-0.0013
X3.3595 Y-2.2437 Z-0.0645 I-0.0296 J0.0013
X3.4187 Y-2.2463 Z-0.0677 I0.0296 J-0.0013
X3.3595 Y-2.2437 Z-0.071 I-0.0296 J0.0013
X3.4187 Y-2.2463 Z-0.0742 I0.0296 J-0.0013
X3.3595 Y-2.2437 Z-0.0775 I-0.0296 J0.0013
X3.4187 Y-2.2463 Z-0.0807 I0.0296 J-0.0013
X3.3595 Y-2.2437 Z-0.084 I-0.0296 J0.0013
X3.4187 Y-2.2463 Z-0.0872 I0.0296 J-0.0013
X3.3595 Y-2.2437 Z-0.0905 I-0.0296 J0.0013
X3.4187 Y-2.2463 Z-0.0938 I0.0296 J-0.0013
X3.3595 Y-2.2437 Z-0.097 I-0.0296 J0.0013
X3.4187 Y-2.2463 Z-0.1003 I0.0296 J-0.0013
X3.3595 Y-2.2437 Z-0.1035 I-0.0296 J0.0013
X3.4187 Y-2.2463 Z-0.1068 I0.0296 J-0.0013
X3.3595 Y-2.2437 Z-0.11 I-0.0296 J0.0013
X3.4187 Y-2.2463 Z-0.1133 I0.0296 J-0.0013
X3.3595 Y-2.2437 Z-0.1166 I-0.0296 J0.0013
X3.4187 Y-2.2463 Z-0.1198 I0.0296 J-0.0013
X3.3595 Y-2.2437 Z-0.1231 I-0.0296 J0.0013
X3.4187 Y-2.2463 Z-0.1263 I0.0296 J-0.0013
X3.3595 Y-2.2437 Z-0.1296 I-0.0296 J0.0013
X3.4187 Y-2.2463 Z-0.1328 I0.0296 J-0.0013
X3.3595 Y-2.2437 Z-0.1361 I-0.0296 J0.0013
X3.4187 Y-2.2463 Z-0.1394 I0.0296 J-0.0013
X3.3595 Y-2.2437 Z-0.1426 I-0.0296 J0.0013
X3.4187 Y-2.2463 Z-0.1459 I0.0296 J-0.0013
X3.3595 Y-2.2437 Z-0.1491 I-0.0296 J0.0013
X3.4187 Y-2.2463 Z-0.1524 I0.0296 J-0.0013
X3.3595 Y-2.2437 Z-0.1556 I-0.0296 J0.0013
X3.4187 Y-2.2463 Z-0.1589 I0.0296 J-0.0013
X3.3595 Y-2.2437 Z-0.1622 I-0.0296 J0.0013
X3.4187 Y-2.2463 Z-0.1654 I0.0296 J-0.0013
X3.3595 Y-2.2437 Z-0.1687 I-0.0296 J0.0013
X3.4187 Y-2.2463 Z-0.1719 I0.0296 J-0.0013
X3.3595 Y-2.2437 Z-0.1752 I-0.0296 J0.0013
X3.4187 Y-2.2463 Z-0.1784 I0.0296 J-0.0013
X3.3595 Y-2.2437 Z-0.1817 I-0.0296 J0.0013
X3.3884 Y-2.2746 Z-0.1833 I0.0296 J-0.0013
X3.4187 Y-2.245 Z-0.185 I0.0007 J0.0296
X3.3963 I-0.0112 J0 F60
X3.4561 I0.0299 J0
X3.3589 I-0.0486 J0
X3.4935 I0.0673 J0
X3.3215 I-0.086 J0
X3.4935 I0.086 J0
G1 Y-2.2435 Z-0.1846
X3.4929 Y-2.242 Z-0.1842
X3.4922 Y-2.2411 Z-0.183
X3.4914 Y-2.2403 Z-0.1819
X3.4907 Y-2.2399 Z-0.1788
Z0.13
X-3.3971 Y-2.2522
Z0.0362 F7.5
X-3.397 Y-2.2514 Z0.0332 F13.333
X-3.3966 Y-2.2493 Z0.0309
X-3.3963 Y-2.2463 Z0.03
G3 X-3.4555 Y-2.2437 Z0.0267 I-0.0296 J0.0013
X-3.3963 Y-2.2463 Z0.0235 I0.0296 J-0.0013
X-3.4555 Y-2.2437 Z0.0202 I-0.0296 J0.0013
X-3.3963 Y-2.2463 Z0.017 I0.0296 J-0.0013
X-3.4555 Y-2.2437 Z0.0137 I-0.0296 J0.0013
X-3.3963 Y-2.2463 Z0.0105 I0.0296 J-0.0013
X-3.4555 Y-2.2437 Z0.0072 I-0.0296 J0.0013
X-3.3963 Y-2.2463 Z0.0039 I0.0296 J-0.0013
X-3.4555 Y-2.2437 Z0.0007 I-0.0296 J0.0013
X-3.3963 Y-2.2463 Z-0.0026 I0.0296 J-0.0013
X-3.4555 Y-2.2437 Z-0.0058 I-0.0296 J0.0013
X-3.3963 Y-2.2463 Z-0.0091 I0.0296 J-0.0013
X-3.4555 Y-2.2437 Z-0.0123 I-0.0296 J0.0013
X-3.3963 Y-2.2463 Z-0.0156 I0.0296 J-0.0013
X-3.4555 Y-2.2437 Z-0.0189 I-0.0296 J0.0013
X-3.3963 Y-2.2463 Z-0.0221 I0.0296 J-0.0013
X-3.4555 Y-2.2437 Z-0.0254 I-0.0296 J0.0013
X-3.3963 Y-2.2463 Z-0.0286 I0.0296 J-0.0013
X-3.4555 Y-2.2437 Z-0.0319 I-0.0296 J0.0013
X-3.3963 Y-2.2463 Z-0.0351 I0.0296 J-0.0013
X-3.4555 Y-2.2437 Z-0.0384 I-0.0296 J0.0013
X-3.3963 Y-2.2463 Z-0.0417 I0.0296 J-0.0013
X-3.4555 Y-2.2437 Z-0.0449 I-0.0296 J0.0013
X-3.3963 Y-2.2463 Z-0.0482 I0.0296 J-0.0013
X-3.4555 Y-2.2437 Z-0.0514 I-0.0296 J0.0013
X-3.3963 Y-2.2463 Z-0.0547 I0.0296 J-0.0013
X-3.4555 Y-2.2437 Z-0.0579 I-0.0296 J0.0013
X-3.3963 Y-2.2463 Z-0.0612 I0.0296 J-0.0013
X-3.4555 Y-2.2437 Z-0.0645 I-0.0296 J0.0013
X-3.3963 Y-2.2463 Z-0.0677 I0.0296 J-0.0013
X-3.4555 Y-2.2437 Z-0.071 I-0.0296 J0.0013
X-3.3963 Y-2.2463 Z-0.0742 I0.0296 J-0.0013
X-3.4555 Y-2.2437 Z-0.0775 I-0.0296 J0.0013
X-3.3963 Y-2.2463 Z-0.0807 I0.0296 J-0.0013
X-3.4555 Y-2.2437 Z-0.084 I-0.0296 J0.0013
X-3.3963 Y-2.2463 Z-0.0872 I0.0296 J-0.0013
X-3.4555 Y-2.2437 Z-0.0905 I-0.0296 J0.0013
X-3.3963 Y-2.2463 Z-0.0938 I0.0296 J-0.0013
X-3.4555 Y-2.2437 Z-0.097 I-0.0296 J0.0013
X-3.3963 Y-2.2463 Z-0.1003 I0.0296 J-0.0013
X-3.4555 Y-2.2437 Z-0.1035 I-0.0296 J0.0013
X-3.3963 Y-2.2463 Z-0.1068 I0.0296 J-0.0013
X-3.4555 Y-2.2437 Z-0.11 I-0.0296 J0.0013
X-3.3963 Y-2.2463 Z-0.1133 I0.0296 J-0.0013
X-3.4555 Y-2.2437 Z-0.1166 I-0.0296 J0.0013
X-3.3963 Y-2.2463 Z-0.1198 I0.0296 J-0.0013
X-3.4555 Y-2.2437 Z-0.1231 I-0.0296 J0.0013
X-3.3963 Y-2.2463 Z-0.1263 I0.0296 J-0.0013
X-3.4555 Y-2.2437 Z-0.1296 I-0.0296 J0.0013
X-3.3963 Y-2.2463 Z-0.1328 I0.0296 J-0.0013
X-3.4555 Y-2.2437 Z-0.1361 I-0.0296 J0.0013
X-3.3963 Y-2.2463 Z-0.1394 I0.0296 J-0.0013
X-3.4555 Y-2.2437 Z-0.1426 I-0.0296 J0.0013
X-3.3963 Y-2.2463 Z-0.1459 I0.0296 J-0.0013
X-3.4555 Y-2.2437 Z-0.1491 I-0.0296 J0.0013
X-3.3963 Y-2.2463 Z-0.1524 I0.0296 J-0.0013
X-3.4555 Y-2.2437 Z-0.1556 I-0.0296 J0.0013
X-3.3963 Y-2.2463 Z-0.1589 I0.0296 J-0.0013
X-3.4555 Y-2.2437 Z-0.1622 I-0.0296 J0.0013
X-3.3963 Y-2.2463 Z-0.1654 I0.0296 J-0.0013
X-3.4555 Y-2.2437 Z-0.1687 I-0.0296 J0.0013
X-3.3963 Y-2.2463 Z-0.1719 I0.0296 J-0.0013
X-3.4555 Y-2.2437 Z-0.1752 I-0.0296 J0.0013
X-3.3963 Y-2.2463 Z-0.1784 I0.0296 J-0.0013
X-3.4555 Y-2.2437 Z-0.1817 I-0.0296 J0.0013
X-3.4266 Y-2.2746 Z-0.1833 I0.0296 J-0.0013
X-3.3963 Y-2.245 Z-0.185 I0.0007 J0.0296
X-3.4187 I-0.0112 J0 F60
X-3.3587 I0.03 J0
X-3.4563 I-0.0488 J0
X-3.3211 I0.0676 J0
X-3.4939 I-0.0864 J0
X-3.3211 I0.0864 J0
G1 X-3.3215 Y-2.2435 Z-0.1846
X-3.3221 Y-2.242 Z-0.1842
X-3.3228 Y-2.2411 Z-0.183
X-3.3236 Y-2.2403 Z-0.1819
X-3.3243 Y-2.2399 Z-0.1788
Z0.53
(When using Fusion for Personal Use, the feedrate of rapid)
(moves is reduced to match the feedrate of cutting moves,)
(which can increase machining time. Unrestricted rapid moves)
(are available with a Fusion Subscription.)

(Parallel5)
G0 X3.9758 Y-2.4775
G1 Z0.33 F60
Z0.01
Z-0.0638 F7.5
X3.9755 Z-0.0657 F60
X3.9746 Z-0.0674
X3.9732 Z-0.0688
X3.9715 Z-0.0697
X3.9695 Z-0.07
X-3.9695
X-4.1006
X-4.1019 Y-2.4772
X-4.1031 Y-2.4764
X-4.1038 Y-2.4753
X-4.1041 Y-2.474
X-4.1038 Y-2.4726
X-4.1031 Y-2.4715
X-4.1019 Y-2.4707
X-4.1006 Y-2.4705
X4.1006
X4.1013 Z-0.0699
X4.102 Z-0.0697
X4.1026 Z-0.0694
X4.1033
X4.1572
X4.1585 Y-2.4702
X4.1597 Y-2.4694
X4.1604 Y-2.4683
X4.1607 Y-2.467
X4.1604 Y-2.4656
X4.1597 Y-2.4645
X4.1585 Y-2.4637
X4.1572 Y-2.4635
X4.1565
X4.1558 Z-0.0697
X4.1551 Z-0.0699
X4.1544 Z-0.07
X-4.1544
X-4.1551 Z-0.0699
X-4.1558 Z-0.0697
X-4.1565 Z-0.0694
X-4.1572
X-4.1993
X-4.2006 Y-2.4632
X-4.2017 Y-2.4624
X-4.2025 Y-2.4613
X-4.2028 Y-2.46
X-4.2025 Y-2.4586
X-4.2017 Y-2.4575
X-4.2006 Y-2.4567
X-4.1993 Y-2.4565
X-4.1986
X-4.1979 Z-0.0697
X-4.1972 Z-0.0699
X-4.1965 Z-0.07
X4.1965
X4.1972 Z-0.0699
X4.1979 Z-0.0697
X4.1986 Z-0.0694
X4.1993
X4.235
X4.2363 Y-2.4562
X4.2374 Y-2.4554
X4.2382 Y-2.4543
X4.2385 Y-2.453
X4.2382 Y-2.4516
X4.2374 Y-2.4505
X4.2363 Y-2.4497
X4.235 Y-2.4495
X4.2343
X4.2336 Z-0.0697
X4.2329 Z-0.0699
X4.2322 Z-0.07
X-4.2322
X-4.2329 Z-0.0699
X-4.2336 Z-0.0697
X-4.2343 Z-0.0694
X-4.235
X-4.2653
X-4.2666 Y-2.4492
X-4.2678 Y-2.4484
X-4.2685 Y-2.4473
X-4.2688 Y-2.446
X-4.2685 Y-2.4446
X-4.2678 Y-2.4435
X-4.2666 Y-2.4427
X-4.2653 Y-2.4425
X-4.2646
X-4.2639 Z-0.0697
X-4.2632 Z-0.0699
X-4.2625 Z-0.07
X4.2625
X4.2632 Z-0.0699
X4.2639 Z-0.0697
X4.2646 Z-0.0694
X4.2653
X4.2929
X4.2943 Y-2.4422
X4.2954 Y-2.4414
X4.2962 Y-2.4403
X4.2964 Y-2.439
X4.2962 Y-2.4376
X4.2954 Y-2.4365
X4.2943 Y-2.4357
X4.2929 Y-2.4355
X4.2922
X4.2916 Z-0.0697
X4.2909 Z-0.0699
X4.2902 Z-0.07
X-4.2902
X-4.2909 Z-0.0699
X-4.2916 Z-0.0697
X-4.2922 Z-0.0694
X-4.2929
X-4.319
X-4.3204 Y-2.4352
X-4.3215 Y-2.4344
X-4.3223 Y-2.4333
X-4.3225 Y-2.432
X-4.3223 Y-2.4306
X-4.3215 Y-2.4295
X-4.3204 Y-2.4287
X-4.319 Y-2.4285
X-4.3183
X-4.3177 Z-0.0697
X-4.317 Z-0.0699
X-4.3163 Z-0.07
X4.3163
X4.317 Z-0.0699
X4.3177 Z-0.0697
X4.3183 Z-0.0694
X4.319
X4.3419
X4.3433 Y-2.4282
X4.3444 Y-2.4274
X4.3452 Y-2.4263
X4.3454 Y-2.425
X4.3452 Y-2.4236
X4.3444 Y-2.4225
X4.3433 Y-2.4217
X4.3419 Y-2.4215
X4.3412
X4.3406 Z-0.0697
X4.3399 Z-0.0699
X4.3392 Z-0.07
X-4.3392
X-4.3399 Z-0.0699
X-4.3406 Z-0.0697
X-4.3412 Z-0.0694
X-4.3419
X-4.3644
X-4.3658 Y-2.4212
X-4.3669 Y-2.4204
X-4.3677 Y-2.4193
X-4.3679 Y-2.418
X-4.3677 Y-2.4166
X-4.3669 Y-2.4155
X-4.3658 Y-2.4147
X-4.3644 Y-2.4145
X-4.3637
X-4.3631 Z-0.0697
X-4.3624 Z-0.0699
X-4.3617 Z-0.07
X4.3617
X4.3624 Z-0.0699
X4.3631 Z-0.0697
X4.3637 Z-0.0694
X4.3644
X4.3848
X4.3861 Y-2.4142
X4.3872 Y-2.4134
X4.388 Y-2.4123
X4.3883 Y-2.411
X4.388 Y-2.4096
X4.3872 Y-2.4085
X4.3861 Y-2.4077
X4.3848 Y-2.4075
X4.384
X4.3834 Z-0.0697
X4.3827 Z-0.0699
X4.382 Z-0.07
X-4.382
X-4.3827 Z-0.0699
X-4.3834 Z-0.0697
X-4.384 Z-0.0694
X-4.3848
X-4.4049
X-4.4062 Y-2.4072
X-4.4073 Y-2.4064
X-4.4081 Y-2.4053
X-4.4084 Y-2.404
X-4.4081 Y-2.4026
X-4.4073 Y-2.4015
X-4.4062 Y-2.4007
X-4.4049 Y-2.4005
X-4.4041
X-4.4035 Z-0.0697
X-4.4028 Z-0.0699
X-4.4021 Z-0.07
X4.4021
X4.4028 Z-0.0699
X4.4035 Z-0.0697
X4.4041 Z-0.0694
X4.4049
X4.4231
X4.4244 Y-2.4002
X4.4256 Y-2.3994
X4.4263 Y-2.3983
X4.4266 Y-2.397
X4.4263 Y-2.3956
X4.4256 Y-2.3945
X4.4244 Y-2.3937
X4.4231 Y-2.3935
X4.4224
X4.4217 Z-0.0697
X4.421 Z-0.0699
X4.4203 Z-0.07
X-4.4203
X-4.421 Z-0.0699
X-4.4217 Z-0.0697
X-4.4224 Z-0.0694
X-4.4231
X-4.4413
X-4.4427 Y-2.3932
X-4.4438 Y-2.3924
X-4.4445 Y-2.3913
X-4.4448 Y-2.39
X-4.4445 Y-2.3886
X-4.4438 Y-2.3875
X-4.4427 Y-2.3867
X-4.4413 Y-2.3865
X-4.4406
X-4.4399 Z-0.0697
X-4.4393 Z-0.0699
X-4.4386 Z-0.07
X4.4386
X4.4393 Z-0.0699
X4.4399 Z-0.0697
X4.4406 Z-0.0694
X4.4413
X4.4581
X4.4594 Y-2.3862
X4.4605 Y-2.3854
X4.4613 Y-2.3843
X4.4616 Y-2.383
X4.4613 Y-2.3816
X4.4605 Y-2.3805
X4.4594 Y-2.3797
X4.4581 Y-2.3795
X4.4574
X4.4567 Z-0.0697
X4.456 Z-0.0699
X4.4553 Z-0.07
X-4.4553
X-4.456 Z-0.0699
X-4.4567 Z-0.0697
X-4.4574 Z-0.0694
X-4.4581
X-4.4746
X-4.4759 Y-2.3792
X-4.477 Y-2.3784
X-4.4778 Y-2.3773
X-4.4781 Y-2.376
X-4.4778 Y-2.3746
X-4.477 Y-2.3735
X-4.4759 Y-2.3727
X-4.4746 Y-2.3725
X-4.4738
X-4.4732 Z-0.0697
X-4.4725 Z-0.0699
X-4.4718 Z-0.07
X4.4718
X4.4725 Z-0.0699
X4.4732 Z-0.0697
X4.4738 Z-0.0694
X4.4746
X4.4905
X4.4918 Y-2.3722
X4.493 Y-2.3714
X4.4937 Y-2.3703
X4.494 Y-2.369
X4.4937 Y-2.3676
X4.493 Y-2.3665
X4.4918 Y-2.3657
X4.4905 Y-2.3655
X4.4898
X4.4891 Z-0.0697
X4.4884 Z-0.0699
X4.4877 Z-0.07
X-4.4877
X-4.4884 Z-0.0699
X-4.4891 Z-0.0697
X-4.4898 Z-0.0694
X-4.4905
X-4.5055
X-4.5068 Y-2.3652
X-4.508 Y-2.3644
X-4.5087 Y-2.3633
X-4.509 Y-2.362
X-4.5087 Y-2.3606
X-4.508 Y-2.3595
X-4.5068 Y-2.3587
X-4.5055 Y-2.3585
X-4.5048
X-4.5041 Z-0.0697
X-4.5035 Z-0.0699
X-4.5028 Z-0.07
X-3.4374
X-3.4367 Z-0.0699
X-3.436 Z-0.0697
X-3.4353 Z-0.0694
X-3.4346
X-3.4333 Y-2.3582
X-3.4322 Y-2.3574
X-3.4314 Y-2.3563
X-3.4311 Y-2.355
X-3.4314 Y-2.3536
X-3.4322 Y-2.3525
X-3.4333 Y-2.3517
X-3.4346 Y-2.3515
X-3.4541
X-3.4548
X-3.4555 Z-0.0697
X-3.4562 Z-0.0699
X-3.4569 Z-0.07
X-4.5178
X-4.5185 Z-0.0699
X-4.5192 Z-0.0697
X-4.5198 Z-0.0694
X-4.5205
X-4.5346
X-4.536 Y-2.3512
X-4.5371 Y-2.3504
X-4.5379 Y-2.3493
X-4.5381 Y-2.348
X-4.5379 Y-2.3466
X-4.5371 Y-2.3455
X-4.536 Y-2.3447
X-4.5346 Y-2.3445
X-4.5339
X-4.5333 Z-0.0697
X-4.5326 Z-0.0699
X-4.5319 Z-0.07
X-3.4697
X-3.469 Z-0.0699
X-3.4684 Z-0.0697
X-3.4677 Z-0.0694
X-3.467
X-3.4656 Y-2.3442
X-3.4645 Y-2.3434
X-3.4638 Y-2.3423
X-3.4635 Y-2.341
X-3.4638 Y-2.3396
X-3.4645 Y-2.3385
X-3.4656 Y-2.3377
X-3.467 Y-2.3375
X-3.477
X-3.4777
X-3.4784 Z-0.0697
X-3.4791 Z-0.0699
X-3.4798 Z-0.07
X-4.5456
X-4.5463 Z-0.0699
X-4.547 Z-0.0697
X-4.5477 Z-0.0694
X-4.5484
X-4.5621
X-4.5634 Y-2.3372
X-4.5646 Y-2.3364
X-4.5653 Y-2.3353
X-4.5656 Y-2.334
X-4.5653 Y-2.3326
X-4.5646 Y-2.3315
X-4.5634 Y-2.3307
X-4.5621 Y-2.3305
X-4.5614
X-4.5607 Z-0.0697
X-4.56 Z-0.0699
X-4.5593 Z-0.07
X-3.4881
X-3.4874 Z-0.0699
X-3.4868 Z-0.0697
X-3.4861 Z-0.0694
X-3.4854
X-3.484 Y-2.3302
X-3.4829 Y-2.3294
X-3.4821 Y-2.3283
X-3.4819 Y-2.327
X-3.4821 Y-2.3256
X-3.4829 Y-2.3245
X-3.484 Y-2.3237
X-3.4854 Y-2.3235
X-3.492
X-3.4927
X-3.4934 Z-0.0697
X-3.494 Z-0.0699
X-3.4947 Z-0.07
X-4.5721
X-4.5728 Z-0.0699
X-4.5735 Z-0.0697
X-4.5742 Z-0.0694
X-4.5749
X-4.5875
X-4.5889 Y-2.3232
X-4.59 Y-2.3224
X-4.5907 Y-2.3213
X-4.591 Y-2.32
X-4.5907 Y-2.3186
X-4.59 Y-2.3175
X-4.5889 Y-2.3167
X-4.5875 Y-2.3165
X-4.5868
X-4.5861 Z-0.0697
X-4.5855 Z-0.0699
X-4.5848 Z-0.07
X-3.5005
X-3.4998 Z-0.0699
X-3.4992 Z-0.0697
X-3.4985 Z-0.0694
X-3.4978
X-3.4964 Y-2.3162
X-3.4953 Y-2.3154
X-3.4945 Y-2.3143
X-3.4943 Y-2.313
X-3.4945 Y-2.3116
X-3.4953 Y-2.3105
X-3.4964 Y-2.3097
X-3.4978 Y-2.3095
X-3.503
X-3.5037
X-3.5044 Z-0.0697
X-3.505 Z-0.0699
X-3.5057 Z-0.07
X-4.5974
X-4.5981 Z-0.0699
X-4.5988 Z-0.0697
X-4.5994 Z-0.0694
X-4.6001
X-4.612
X-4.6133 Y-2.3092
X-4.6145 Y-2.3084
X-4.6152 Y-2.3073
X-4.6155 Y-2.306
X-4.6152 Y-2.3046
X-4.6145 Y-2.3035
X-4.6133 Y-2.3027
X-4.612 Y-2.3025
X-4.6113
X-4.6106 Z-0.0697
X-4.6099 Z-0.0699
X-4.6092 Z-0.07
X-3.5098
X-3.5091 Z-0.0699
X-3.5084 Z-0.0697
X-3.5077 Z-0.0694
X-3.507
X-3.5057 Y-2.3022
X-3.5045 Y-2.3014
X-3.5038 Y-2.3003
X-3.5035 Y-2.299
X-3.5038 Y-2.2976
X-3.5045 Y-2.2965
X-3.5057 Y-2.2957
X-3.507 Y-2.2955
X-3.5107
X-3.5114
X-3.5121 Z-0.0697
X-3.5128 Z-0.0699
X-3.5135 Z-0.07
X-4.6209
X-4.6216 Z-0.0699
X-4.6223 Z-0.0697
X-4.6229 Z-0.0694
X-4.6236
X-4.6353
X-4.6366 Y-2.2952
X-4.6378 Y-2.2944
X-4.6385 Y-2.2933
X-4.6388 Y-2.292
X-4.6385 Y-2.2906
X-4.6378 Y-2.2895
X-4.6366 Y-2.2887
X-4.6353 Y-2.2885
X-4.6346
X-4.6339 Z-0.0697
X-4.6332 Z-0.0699
X-4.6325 Z-0.07
X-3.5165
X-3.5158 Z-0.0699
X-3.5151 Z-0.0697
X-3.5145 Z-0.0694
X-3.5137
X-3.5124 Y-2.2882
X-3.5113 Y-2.2874
X-3.5105 Y-2.2863
X-3.5102 Y-2.285
X-3.5105 Y-2.2836
X-3.5113 Y-2.2825
X-3.5124 Y-2.2817
X-3.5137 Y-2.2815
X-3.5163
X-3.517
X-3.5177 Z-0.0697
X-3.5183 Z-0.0699
X-3.519 Z-0.07
X-4.6437
X-4.6444 Z-0.0699
X-4.6451 Z-0.0697
X-4.6458 Z-0.0694
X-4.6465
X-4.6572
X-4.6586 Y-2.2812
X-4.6597 Y-2.2804
X-4.6605 Y-2.2793
X-4.6607 Y-2.278
X-4.6605 Y-2.2766
X-4.6597 Y-2.2755
X-4.6586 Y-2.2747
X-4.6572 Y-2.2745
X-4.6565
X-4.6559 Z-0.0697
X-4.6552 Z-0.0699
X-4.6545 Z-0.07
X-3.5211
X-3.5204 Z-0.0699
X-3.5197 Z-0.0697
X-3.5191 Z-0.0694
X-3.5184
X-3.517 Y-2.2742
X-3.5159 Y-2.2734
X-3.5151 Y-2.2723
X-3.5149 Y-2.271
X-3.5151 Y-2.2696
X-3.5159 Y-2.2685
X-3.517 Y-2.2677
X-3.5184 Y-2.2675
X-3.5199
X-3.5206
X-3.5213 Z-0.0697
X-3.5219 Z-0.0699
X-3.5227 Z-0.07
X-4.6653
X-4.666 Z-0.0699
X-4.6667 Z-0.0697
X-4.6673 Z-0.0694
X-4.668
X-4.6787
X-4.6801 Y-2.2672
X-4.6812 Y-2.2664
X-4.682 Y-2.2653
X-4.6822 Y-2.264
X-4.682 Y-2.2626
X-4.6812 Y-2.2615
X-4.6801 Y-2.2607
X-4.6787 Y-2.2605
X-4.678
X-4.6773 Z-0.0697
X-4.6767 Z-0.0699
X-4.676 Z-0.07
X-3.5239
X-3.5232 Z-0.0699
X-3.5225 Z-0.0697
X-3.5218 Z-0.0694
X-3.5211
X-3.5198 Y-2.2602
X-3.5187 Y-2.2594
X-3.5179 Y-2.2583
X-3.5176 Y-2.257
X-3.5179 Y-2.2556
X-3.5187 Y-2.2545
X-3.5198 Y-2.2537
X-3.5211 Y-2.2535
X-3.5218
X-3.5225
X-3.5231 Z-0.0697
X-3.5238 Z-0.0699
X-3.5245 Z-0.07
X-4.686
X-4.6867 Z-0.0699
X-4.6873 Z-0.0697
X-4.688 Z-0.0694
X-4.6887
X-4.6987
X-4.7001 Y-2.2532
X-4.7012 Y-2.2524
X-4.702 Y-2.2513
X-4.7022 Y-2.25
X-4.702 Y-2.2486
X-4.7012 Y-2.2475
X-4.7001 Y-2.2467
X-4.6987 Y-2.2465
X-4.698
X-4.6973 Z-0.0697
X-4.6967 Z-0.0699
X-4.696 Z-0.07
X-3.5249
X-3.5242 Z-0.0699
X-3.5235 Z-0.0697
X-3.5229 Z-0.0694
X-3.5222
X-3.5219
X-3.5206 Y-2.2462
X-3.5195 Y-2.2454
X-3.5187 Y-2.2443
X-3.5184 Y-2.243
X-3.5187 Y-2.2416
X-3.5195 Y-2.2405
X-3.5206 Y-2.2397
X-3.5219 Y-2.2395
X-3.5226
X-3.5233 Z-0.0697
X-3.524 Z-0.0699
X-3.5247 Z-0.07
X-4.706
X-4.7067 Z-0.0699
X-4.7073 Z-0.0697
X-4.708 Z-0.0694
X-4.7087
X-4.7184
X-4.7197 Y-2.2392
X-4.7208 Y-2.2384
X-4.7216 Y-2.2373
X-4.7219 Y-2.236
X-4.7216 Y-2.2346
X-4.7208 Y-2.2335
X-4.7197 Y-2.2327
X-4.7184 Y-2.2325
X-4.7177
X-4.717 Z-0.0697
X-4.7163 Z-0.0699
X-4.7156 Z-0.07
X-3.5243
X-3.5236 Z-0.0699
X-3.5229 Z-0.0697
X-3.5222 Z-0.0694
X-3.5215
X-3.5204
X-3.5191 Y-2.2322
X-3.5179 Y-2.2314
X-3.5172 Y-2.2303
X-3.5169 Y-2.229
X-3.5172 Y-2.2276
X-3.5179 Y-2.2265
X-3.5191 Y-2.2257
X-3.5204 Y-2.2255
X-3.5211
X-3.5218 Z-0.0697
X-3.5225 Z-0.0699
X-3.5232 Z-0.07
X-4.7249
X-4.7256 Z-0.0699
X-4.7263 Z-0.0697
X-4.7269 Z-0.0694
X-4.7277
X-4.7369
X-4.7383 Y-2.2252
X-4.7394 Y-2.2244
X-4.7402 Y-2.2233
X-4.7404 Y-2.222
X-4.7402 Y-2.2206
X-4.7394 Y-2.2195
X-4.7383 Y-2.2187
X-4.7369 Y-2.2185
X-4.7362
X-4.7356 Z-0.0697
X-4.7349 Z-0.0699
X-4.7342 Z-0.07
X-3.5219
X-3.5212 Z-0.0699
X-3.5206 Z-0.0697
X-3.5199 Z-0.0694
X-3.5192
X-3.5172
X-3.5158 Y-2.2182
X-3.5147 Y-2.2174
X-3.5139 Y-2.2163
X-3.5137 Y-2.215
X-3.5139 Y-2.2136
X-3.5147 Y-2.2125
X-3.5158 Y-2.2117
X-3.5172 Y-2.2115
X-3.5179
X-3.5185 Z-0.0697
X-3.5192 Z-0.0699
X-3.5199 Z-0.07
X-4.7435
X-4.7442 Z-0.0699
X-4.7448 Z-0.0697
X-4.7455 Z-0.0694
X-4.7462
X-4.7551
X-4.7564 Y-2.2112
X-4.7575 Y-2.2104
X-4.7583 Y-2.2093
X-4.7586 Y-2.208
X-4.7583 Y-2.2066
X-4.7575 Y-2.2055
X-4.7564 Y-2.2047
X-4.7551 Y-2.2045
X-4.7544
X-4.7537 Z-0.0697
X-4.753 Z-0.0699
X-4.7523 Z-0.07
X-3.5178
X-3.5171 Z-0.0699
X-3.5164 Z-0.0697
X-3.5157 Z-0.0694
X-3.515
X-3.512
X-3.5107 Y-2.2042
X-3.5095 Y-2.2034
X-3.5088 Y-2.2023
X-3.5085 Y-2.201
X-3.5088 Y-2.1996
X-3.5095 Y-2.1985
X-3.5107 Y-2.1977
X-3.512 Y-2.1975
X-3.5127
X-3.5134 Z-0.0697
X-3.514 Z-0.0699
X-3.5147 Z-0.07
X-4.761
X-4.7617 Z-0.0699
X-4.7623 Z-0.0697
X-4.763 Z-0.0694
X-4.7637
X-4.7724
X-4.7737 Y-2.1972
X-4.7748 Y-2.1964
X-4.7756 Y-2.1953
X-4.7759 Y-2.194
X-4.7756 Y-2.1926
X-4.7748 Y-2.1915
X-4.7737 Y-2.1907
X-4.7724 Y-2.1905
X-4.7717
X-4.771 Z-0.0697
X-4.7703 Z-0.0699
X-4.7696 Z-0.07
X-3.5115
X-3.5108 Z-0.0699
X-3.5101 Z-0.0697
X-3.5094 Z-0.0694
X-3.5087
X-3.5047
X-3.5033 Y-2.1902
X-3.5022 Y-2.1894
X-3.5014 Y-2.1883
X-3.5012 Y-2.187
X-3.5014 Y-2.1856
X-3.5022 Y-2.1845
X-3.5033 Y-2.1837
X-3.5047 Y-2.1835
X-3.5054
X-3.506 Z-0.0697
X-3.5067 Z-0.0699
X-3.5074 Z-0.07
X-4.7783
X-4.779 Z-0.0699
X-4.7796 Z-0.0697
X-4.7803 Z-0.0694
X-4.781
X-4.7892
X-4.7906 Y-2.1832
X-4.7917 Y-2.1824
X-4.7925 Y-2.1813
X-4.7927 Y-2.18
X-4.7925 Y-2.1786
X-4.7917 Y-2.1775
X-4.7906 Y-2.1767
X-4.7892 Y-2.1765
X-4.7885
X-4.7878 Z-0.0697
X-4.7872 Z-0.0699
X-4.7865 Z-0.07
X-3.5027
X-3.502 Z-0.0699
X-3.5013 Z-0.0697
X-3.5007 Z-0.0694
X-3.5
X-3.4948
X-3.4934 Y-2.1762
X-3.4923 Y-2.1754
X-3.4915 Y-2.1743
X-3.4913 Y-2.173
X-3.4915 Y-2.1716
X-3.4923 Y-2.1705
X-3.4934 Y-2.1697
X-3.4948 Y-2.1695
X-3.4955
X-3.4961 Z-0.0697
X-3.4968 Z-0.0699
X-3.4975 Z-0.07
X-4.7945
X-4.7952 Z-0.0699
X-4.7959 Z-0.0697
X-4.7966 Z-0.0694
X-4.7973
X-4.8053
X-4.8067 Y-2.1692
X-4.8078 Y-2.1684
X-4.8085 Y-2.1673
X-4.8088 Y-2.166
X-4.8085 Y-2.1646
X-4.8078 Y-2.1635
X-4.8067 Y-2.1627
X-4.8053 Y-2.1625
X-4.8046
X-4.8039 Z-0.0697
X-4.8033 Z-0.0699
X-4.8026 Z-0.07
X-3.4909
X-3.4902 Z-0.0699
X-3.4895 Z-0.0697
X-3.4889 Z-0.0694
X-3.4882
X-3.4805
X-3.4792 Y-2.1622
X-3.4781 Y-2.1614
X-3.4773 Y-2.1603
X-3.477 Y-2.159
X-3.4773 Y-2.1576
X-3.4781 Y-2.1565
X-3.4792 Y-2.1557
X-3.4805 Y-2.1555
X-3.4812
X-3.4819 Z-0.0697
X-3.4826 Z-0.0699
X-3.4833 Z-0.07
X-3.6554
Z-0.1225
Z-0.135 F15
X-4.068 F60
X-4.0805 F15
X-4.0806 Z-0.07 F60
X-4.8106
X-4.8113 Z-0.0699
X-4.812 Z-0.0697
X-4.8127 Z-0.0694
X-4.8134
X-4.8211
X-4.8224 Y-2.1552
X-4.8236 Y-2.1544
X-4.8243 Y-2.1533
X-4.8246 Y-2.152
X-4.8243 Y-2.1506
X-4.8236 Y-2.1495
X-4.8224 Y-2.1487
X-4.8211 Y-2.1485
X-4.8204
X-4.8197 Z-0.0697
X-4.8191 Z-0.0699
X-4.8183 Z-0.07
X-4.128
X-4.1279 Z-0.1225
Z-0.135 F15
X-3.6654 F60
X-3.6529 F15
Z-0.07 F60
X-3.4742
X-3.4735 Z-0.0699
X-3.4728 Z-0.0697
X-3.4722 Z-0.0694
X-3.4714
X-3.46
X-3.4586 Y-2.1482
X-3.4575 Y-2.1474
X-3.4567 Y-2.1463
X-3.4565 Y-2.145
X-3.4567 Y-2.1436
X-3.4575 Y-2.1425
X-3.4586 Y-2.1417
X-3.46 Y-2.1415
X-3.4607
X-3.4613 Z-0.0697
X-3.462 Z-0.0699
X-3.4627 Z-0.07
X-3.65
Z-0.1225
Z-0.135 F15
X-4.152 F60
X-4.1645 F15
Z-0.07 F60
X-4.8259
X-4.8266 Z-0.0699
X-4.8272 Z-0.0697
X-4.8279 Z-0.0694
X-4.8286
X-4.8361
X-4.8375 Y-2.1412
X-4.8386 Y-2.1404
X-4.8394 Y-2.1393
X-4.8396 Y-2.138
X-4.8394 Y-2.1366
X-4.8386 Y-2.1355
X-4.8375 Y-2.1347
X-4.8361 Y-2.1345
X-4.8354
X-4.8347 Z-0.0697
X-4.8341 Z-0.0699
X-4.8334 Z-0.07
X-4.1954
Z-0.1225
Z-0.135 F15
X-3.6594 F60
X-3.6469 F15
X-3.6468 Z-0.07 F60
X-3.4468
X-3.4449 Z-0.0697
X-3.4431 Z-0.0688
X-3.4417 Z-0.0674
X-3.4408 Z-0.0657
X-3.4405 Z-0.0638
Z0.13
X-3.3839 Y-2.3585
Z0.01
Z-0.0638 F7.5
X-3.3836 Z-0.0657 F60
X-3.3827 Z-0.0674
X-3.3813 Z-0.0688
X-3.3795 Z-0.0697
X-3.3776 Z-0.07
X3.3776
X3.3783 Z-0.0699
X3.379 Z-0.0697
X3.3797 Z-0.0694
X3.3804
X3.3817 Y-2.3582
X3.3828 Y-2.3574
X3.3836 Y-2.3563
X3.3839 Y-2.355
X3.3836 Y-2.3536
X3.3828 Y-2.3525
X3.3817 Y-2.3517
X3.3804 Y-2.3515
X3.3609
X3.3602
X3.3595 Z-0.0697
X3.3588 Z-0.0699
X3.3581 Z-0.07
X-3.3581
X-3.3588 Z-0.0699
X-3.3595 Z-0.0697
X-3.3602 Z-0.0694
X-3.3609
X-3.3622 Y-2.3512
X-3.3634 Y-2.3504
X-3.3641 Y-2.3493
X-3.3644 Y-2.348
X-3.3641 Y-2.3466
X-3.3634 Y-2.3455
X-3.3622 Y-2.3447
X-3.3609 Y-2.3445
X-3.348
X-3.3473
X-3.3466 Z-0.0697
X-3.346 Z-0.0699
X-3.3453 Z-0.07
X3.3453
X3.346 Z-0.0699
X3.3466 Z-0.0697
X3.3473 Z-0.0694
X3.348
X3.3494 Y-2.3442
X3.3505 Y-2.3434
X3.3512 Y-2.3423
X3.3515 Y-2.341
X3.3512 Y-2.3396
X3.3505 Y-2.3385
X3.3494 Y-2.3377
X3.348 Y-2.3375
X3.338
X3.3373
X3.3366 Z-0.0697
X3.3359 Z-0.0699
X3.3352 Z-0.07
X-3.3352
X-3.3359 Z-0.0699
X-3.3366 Z-0.0697
X-3.3373 Z-0.0694
X-3.338
X-3.3393 Y-2.3372
X-3.3404 Y-2.3364
X-3.3412 Y-2.3353
X-3.3415 Y-2.334
X-3.3412 Y-2.3326
X-3.3404 Y-2.3315
X-3.3393 Y-2.3307
X-3.338 Y-2.3305
X-3.3296
X-3.3289
X-3.3282 Z-0.0697
X-3.3276 Z-0.0699
X-3.3269 Z-0.07
X3.3269
X3.3276 Z-0.0699
X3.3282 Z-0.0697
X3.3289 Z-0.0694
X3.3296
X3.331 Y-2.3302
X3.3321 Y-2.3294
X3.3329 Y-2.3283
X3.3331 Y-2.327
X3.3329 Y-2.3256
X3.3321 Y-2.3245
X3.331 Y-2.3237
X3.3296 Y-2.3235
X3.323
X3.3223
X3.3216 Z-0.0697
X3.321 Z-0.0699
X3.3203 Z-0.07
X-3.3203
X-3.321 Z-0.0699
X-3.3216 Z-0.0697
X-3.3223 Z-0.0694
X-3.323
X-3.3244 Y-2.3232
X-3.3255 Y-2.3224
X-3.3262 Y-2.3213
X-3.3265 Y-2.32
X-3.3262 Y-2.3186
X-3.3255 Y-2.3175
X-3.3244 Y-2.3167
X-3.323 Y-2.3165
X-3.3172
X-3.3165
X-3.3158 Z-0.0697
X-3.3152 Z-0.0699
X-3.3145 Z-0.07
X3.3145
X3.3152 Z-0.0699
X3.3158 Z-0.0697
X3.3165 Z-0.0694
X3.3172
X3.3186 Y-2.3162
X3.3197 Y-2.3154
X3.3205 Y-2.3143
X3.3207 Y-2.313
X3.3205 Y-2.3116
X3.3197 Y-2.3105
X3.3186 Y-2.3097
X3.3172 Y-2.3095
X3.312
X3.3113
X3.3106 Z-0.0697
X3.31 Z-0.0699
X3.3093 Z-0.07
X-3.3093
X-3.31 Z-0.0699
X-3.3106 Z-0.0697
X-3.3113 Z-0.0694
X-3.312
X-3.3134 Y-2.3092
X-3.3145 Y-2.3084
X-3.3153 Y-2.3073
X-3.3155 Y-2.306
X-3.3153 Y-2.3046
X-3.3145 Y-2.3035
X-3.3134 Y-2.3027
X-3.312 Y-2.3025
X-3.308
X-3.3073
X-3.3066 Z-0.0697
X-3.3059 Z-0.0699
X-3.3052 Z-0.07
X3.3052
X3.3059 Z-0.0699
X3.3066 Z-0.0697
X3.3073 Z-0.0694
X3.308
X3.3093 Y-2.3022
X3.3105 Y-2.3014
X3.3112 Y-2.3003
X3.3115 Y-2.299
X3.3112 Y-2.2976
X3.3105 Y-2.2965
X3.3093 Y-2.2957
X3.308 Y-2.2955
X3.3043
X3.3036
X3.3029 Z-0.0697
X3.3022 Z-0.0699
X3.3015 Z-0.07
X-3.3015
X-3.3022 Z-0.0699
X-3.3029 Z-0.0697
X-3.3036 Z-0.0694
X-3.3043
X-3.3056 Y-2.2952
X-3.3067 Y-2.2944
X-3.3075 Y-2.2933
X-3.3078 Y-2.292
X-3.3075 Y-2.2906
X-3.3067 Y-2.2895
X-3.3056 Y-2.2887
X-3.3043 Y-2.2885
X-3.3013
X-3.3005
X-3.2999 Z-0.0697
X-3.2992 Z-0.0699
X-3.2985 Z-0.07
X3.2985
X3.2992 Z-0.0699
X3.2999 Z-0.0697
X3.3005 Z-0.0694
X3.3013
X3.3026 Y-2.2882
X3.3037 Y-2.2874
X3.3045 Y-2.2863
X3.3048 Y-2.285
X3.3045 Y-2.2836
X3.3037 Y-2.2825
X3.3026 Y-2.2817
X3.3013 Y-2.2815
X3.2987
X3.298
X3.2973 Z-0.0697
X3.2967 Z-0.0699
X3.296 Z-0.07
X-3.296
X-3.2967 Z-0.0699
X-3.2973 Z-0.0697
X-3.298 Z-0.0694
X-3.2987
X-3.3001 Y-2.2812
X-3.3012 Y-2.2804
X-3.302 Y-2.2793
X-3.3022 Y-2.278
X-3.302 Y-2.2766
X-3.3012 Y-2.2755
X-3.3001 Y-2.2747
X-3.2987 Y-2.2745
X-3.2966
X-3.2959
X-3.2953 Z-0.0697
X-3.2946 Z-0.0699
X-3.2939 Z-0.07
X3.2939
X3.2946 Z-0.0699
X3.2953 Z-0.0697
X3.2959 Z-0.0694
X3.2966
X3.298 Y-2.2742
X3.2991 Y-2.2734
X3.2999 Y-2.2723
X3.3001 Y-2.271
X3.2999 Y-2.2696
X3.2991 Y-2.2685
X3.298 Y-2.2677
X3.2966 Y-2.2675
X3.2951
X3.2944
X3.2937 Z-0.0697
X3.2931 Z-0.0699
X3.2923 Z-0.07
X-3.2923
X-3.2931 Z-0.0699
X-3.2937 Z-0.0697
X-3.2944 Z-0.0694
X-3.2951
X-3.2964 Y-2.2672
X-3.2976 Y-2.2664
X-3.2983 Y-2.2653
X-3.2986 Y-2.264
X-3.2983 Y-2.2626
X-3.2976 Y-2.2615
X-3.2964 Y-2.2607
X-3.2951 Y-2.2605
X-3.2939
X-3.2932
X-3.2925 Z-0.0697
X-3.2918 Z-0.0699
X-3.2911 Z-0.07
X3.2911
X3.2918 Z-0.0699
X3.2925 Z-0.0697
X3.2932 Z-0.0694
X3.2939
X3.2952 Y-2.2602
X3.2963 Y-2.2594
X3.2971 Y-2.2583
X3.2974 Y-2.257
X3.2971 Y-2.2556
X3.2963 Y-2.2545
X3.2952 Y-2.2537
X3.2939 Y-2.2535
X3.2932
X3.2925
X3.2919 Z-0.0697
X3.2912 Z-0.0699
X3.2905 Z-0.07
X-3.2905
X-3.2912 Z-0.0699
X-3.2919 Z-0.0697
X-3.2925 Z-0.0694
X-3.2932
X-3.2946 Y-2.2532
X-3.2957 Y-2.2524
X-3.2965 Y-2.2513
X-3.2967 Y-2.25
X-3.2965 Y-2.2486
X-3.2957 Y-2.2475
X-3.2946 Y-2.2467
X-3.2932 Y-2.2465
X-3.2928
X-3.2921
X-3.2915 Z-0.0697
X-3.2908 Z-0.0699
X-3.2901 Z-0.07
X3.2901
X3.2908 Z-0.0699
X3.2915 Z-0.0697
X3.2921 Z-0.0694
X3.2928
X3.2931
X3.2944 Y-2.2462
X3.2955 Y-2.2454
X3.2963 Y-2.2443
X3.2966 Y-2.243
X3.2963 Y-2.2416
X3.2955 Y-2.2405
X3.2944 Y-2.2397
X3.2931 Y-2.2395
X3.2924
X3.2917 Z-0.0697
X3.291 Z-0.0699
X3.2903 Z-0.07
X-3.2903
X-3.291 Z-0.0699
X-3.2917 Z-0.0697
X-3.2924 Z-0.0694
X-3.2931
X-3.2935
X-3.2948 Y-2.2392
X-3.296 Y-2.2384
X-3.2967 Y-2.2373
X-3.297 Y-2.236
X-3.2967 Y-2.2346
X-3.296 Y-2.2335
X-3.2948 Y-2.2327
X-3.2935 Y-2.2325
X-3.2928
X-3.2921 Z-0.0697
X-3.2914 Z-0.0699
X-3.2907 Z-0.07
X3.2907
X3.2914 Z-0.0699
X3.2921 Z-0.0697
X3.2928 Z-0.0694
X3.2935
X3.2946
X3.2959 Y-2.2322
X3.2971 Y-2.2314
X3.2978 Y-2.2303
X3.2981 Y-2.229
X3.2978 Y-2.2276
X3.2971 Y-2.2265
X3.2959 Y-2.2257
X3.2946 Y-2.2255
X3.2939
X3.2932 Z-0.0697
X3.2925 Z-0.0699
X3.2918 Z-0.07
X-3.2918
X-3.2925 Z-0.0699
X-3.2932 Z-0.0697
X-3.2939 Z-0.0694
X-3.2946
X-3.2958
X-3.2972 Y-2.2252
X-3.2983 Y-2.2244
X-3.299 Y-2.2233
X-3.2993 Y-2.222
X-3.299 Y-2.2206
X-3.2983 Y-2.2195
X-3.2972 Y-2.2187
X-3.2958 Y-2.2185
X-3.2951
X-3.2944 Z-0.0697
X-3.2938 Z-0.0699
X-3.2931 Z-0.07
X3.2931
X3.2938 Z-0.0699
X3.2944 Z-0.0697
X3.2951 Z-0.0694
X3.2958
X3.2978
X3.2992 Y-2.2182
X3.3003 Y-2.2174
X3.3011 Y-2.2163
X3.3013 Y-2.215
X3.3011 Y-2.2136
X3.3003 Y-2.2125
X3.2992 Y-2.2117
X3.2978 Y-2.2115
X3.2971
X3.2965 Z-0.0697
X3.2958 Z-0.0699
X3.2951 Z-0.07
X-3.2951
X-3.2958 Z-0.0699
X-3.2965 Z-0.0697
X-3.2971 Z-0.0694
X-3.2978
X-3.3
X-3.3013 Y-2.2112
X-3.3025 Y-2.2104
X-3.3032 Y-2.2093
X-3.3035 Y-2.208
X-3.3032 Y-2.2066
X-3.3025 Y-2.2055
X-3.3013 Y-2.2047
X-3.3 Y-2.2045
X-3.2993
X-3.2986 Z-0.0697
X-3.2979 Z-0.0699
X-3.2972 Z-0.07
X3.2972
X3.2979 Z-0.0699
X3.2986 Z-0.0697
X3.2993 Z-0.0694
X3.3
X3.303
X3.3043 Y-2.2042
X3.3055 Y-2.2034
X3.3062 Y-2.2023
X3.3065 Y-2.201
X3.3062 Y-2.1996
X3.3055 Y-2.1985
X3.3043 Y-2.1977
X3.303 Y-2.1975
X3.3023
X3.3016 Z-0.0697
X3.301 Z-0.0699
X3.3003 Z-0.07
X-3.3003
X-3.301 Z-0.0699
X-3.3016 Z-0.0697
X-3.3023 Z-0.0694
X-3.303
X-3.3063
X-3.3076 Y-2.1972
X-3.3088 Y-2.1964
X-3.3095 Y-2.1953
X-3.3098 Y-2.194
X-3.3095 Y-2.1926
X-3.3088 Y-2.1915
X-3.3076 Y-2.1907
X-3.3063 Y-2.1905
X-3.3056
X-3.3049 Z-0.0697
X-3.3042 Z-0.0699
X-3.3035 Z-0.07
X3.3035
X3.3042 Z-0.0699
X3.3049 Z-0.0697
X3.3056 Z-0.0694
X3.3063
X3.3103
X3.3117 Y-2.1902
X3.3128 Y-2.1894
X3.3136 Y-2.1883
X3.3138 Y-2.187
X3.3136 Y-2.1856
X3.3128 Y-2.1845
X3.3117 Y-2.1837
X3.3103 Y-2.1835
X3.3096
X3.309 Z-0.0697
X3.3083 Z-0.0699
X3.3076 Z-0.07
X-3.3076
X-3.3083 Z-0.0699
X-3.309 Z-0.0697
X-3.3096 Z-0.0694
X-3.3103
X-3.315
X-3.3164 Y-2.1832
X-3.3175 Y-2.1824
X-3.3183 Y-2.1813
X-3.3185 Y-2.18
X-3.3183 Y-2.1786
X-3.3175 Y-2.1775
X-3.3164 Y-2.1767
X-3.315 Y-2.1765
X-3.3143
X-3.3137 Z-0.0697
X-3.313 Z-0.0699
X-3.3123 Z-0.07
X3.3123
X3.313 Z-0.0699
X3.3137 Z-0.0697
X3.3143 Z-0.0694
X3.315
X3.3202
X3.3216 Y-2.1762
X3.3227 Y-2.1754
X3.3235 Y-2.1743
X3.3237 Y-2.173
X3.3235 Y-2.1716
X3.3227 Y-2.1705
X3.3216 Y-2.1697
X3.3202 Y-2.1695
X3.3195
X3.3189 Z-0.0697
X3.3182 Z-0.0699
X3.3175 Z-0.07
X-3.3175
X-3.3182 Z-0.0699
X-3.3189 Z-0.0697
X-3.3195 Z-0.0694
X-3.3202
X-3.3268
X-3.3282 Y-2.1692
X-3.3293 Y-2.1684
X-3.3301 Y-2.1673
X-3.3303 Y-2.166
X-3.3301 Y-2.1646
X-3.3293 Y-2.1635
X-3.3282 Y-2.1627
X-3.3268 Y-2.1625
X-3.3261
X-3.3255 Z-0.0697
X-3.3248 Z-0.0699
X-3.3241 Z-0.07
X3.3241
X3.3248 Z-0.0699
X3.3255 Z-0.0697
X3.3261 Z-0.0694
X3.3268
X3.3345
X3.3358 Y-2.1622
X3.3369 Y-2.1614
X3.3377 Y-2.1603
X3.338 Y-2.159
X3.3377 Y-2.1576
X3.3369 Y-2.1565
X3.3358 Y-2.1557
X3.3345 Y-2.1555
X3.3338
X3.3331 Z-0.0697
X3.3324 Z-0.0699
X3.3317 Z-0.07
X3.1596
Z-0.1225
Z-0.135 F15
X-3.1471 F60
X-3.1596 F15
Z-0.07 F60
X-3.3317
X-3.3324 Z-0.0699
X-3.3331 Z-0.0697
X-3.3338 Z-0.0694
X-3.3345
X-3.3436
X-3.3449 Y-2.1552
X-3.346 Y-2.1544
X-3.3468 Y-2.1533
X-3.3471 Y-2.152
X-3.3468 Y-2.1506
X-3.346 Y-2.1495
X-3.3449 Y-2.1487
X-3.3436 Y-2.1485
X-3.3428
X-3.3422 Z-0.0697
X-3.3415 Z-0.0699
X-3.3408 Z-0.07
X-3.1621
Z-0.1225
Z-0.135 F15
X3.1496 F60
X3.1621 F15
Z-0.07 F60
X3.3408
X3.3415 Z-0.0699
X3.3422 Z-0.0697
X3.3428 Z-0.0694
X3.3436
X3.355
X3.3564 Y-2.1482
X3.3575 Y-2.1474
X3.3583 Y-2.1463
X3.3585 Y-2.145
X3.3583 Y-2.1436
X3.3575 Y-2.1425
X3.3564 Y-2.1417
X3.355 Y-2.1415
X3.3543
X3.3537 Z-0.0697
X3.353 Z-0.0699
X3.3523 Z-0.07
X3.165
X3.1649 Z-0.1225
Z-0.135 F15
X-3.1525 F60
X-3.165 F15
Z-0.07 F60
X-3.3523
X-3.353 Z-0.0699
X-3.3537 Z-0.0697
X-3.3543 Z-0.0694
X-3.355
X-3.371
X-3.3723 Y-2.1412
X-3.3734 Y-2.1404
X-3.3742 Y-2.1393
X-3.3745 Y-2.138
X-3.3742 Y-2.1366
X-3.3734 Y-2.1355
X-3.3723 Y-2.1347
X-3.371 Y-2.1345
X-3.3703
X-3.3696 Z-0.0697
X-3.3689 Z-0.0699
X-3.3682 Z-0.07
X-3.1683
X-3.1682 Z-0.1225
Z-0.135 F15
X3.1556 F60
X3.1681 F15
X3.1682 Z-0.07 F60
X3.3682
X3.3701 Z-0.0697
X3.3719 Z-0.0688
X3.3733 Z-0.0674
X3.3742 Z-0.0657
X3.3745 Z-0.0638
Z0.13
X3.4311 Y-2.3585
Z0.01
Z-0.0638 F7.5
X3.4314 Z-0.0657 F60
X3.4323 Z-0.0674
X3.4337 Z-0.0688
X3.4355 Z-0.0697
X3.4374 Z-0.07
X4.5028
X4.5035 Z-0.0699
X4.5041 Z-0.0697
X4.5048 Z-0.0694
X4.5055
X4.5205
X4.5219 Y-2.3582
X4.523 Y-2.3574
X4.5238 Y-2.3563
X4.524 Y-2.355
X4.5238 Y-2.3536
X4.523 Y-2.3525
X4.5219 Y-2.3517
X4.5205 Y-2.3515
X4.5198
X4.5192 Z-0.0697
X4.5185 Z-0.0699
X4.5178 Z-0.07
X3.4569
X3.4562 Z-0.0699
X3.4555 Z-0.0697
X3.4548 Z-0.0694
X3.4541
X3.4528 Y-2.3512
X3.4516 Y-2.3504
X3.4509 Y-2.3493
X3.4506 Y-2.348
X3.4509 Y-2.3466
X3.4516 Y-2.3455
X3.4528 Y-2.3447
X3.4541 Y-2.3445
X3.467
X3.4677
X3.4684 Z-0.0697
X3.469 Z-0.0699
X3.4697 Z-0.07
X4.5319
X4.5326 Z-0.0699
X4.5333 Z-0.0697
X4.5339 Z-0.0694
X4.5346
X4.5484
X4.5497 Y-2.3442
X4.5508 Y-2.3434
X4.5516 Y-2.3423
X4.5519 Y-2.341
X4.5516 Y-2.3396
X4.5508 Y-2.3385
X4.5497 Y-2.3377
X4.5484 Y-2.3375
X4.5477
X4.547 Z-0.0697
X4.5463 Z-0.0699
X4.5456 Z-0.07
X3.4798
X3.4791 Z-0.0699
X3.4784 Z-0.0697
X3.4777 Z-0.0694
X3.477
X3.4757 Y-2.3372
X3.4746 Y-2.3364
X3.4738 Y-2.3353
X3.4735 Y-2.334
X3.4738 Y-2.3326
X3.4746 Y-2.3315
X3.4757 Y-2.3307
X3.477 Y-2.3305
X3.4854
X3.4861
X3.4868 Z-0.0697
X3.4874 Z-0.0699
X3.4881 Z-0.07
X4.5593
X4.56 Z-0.0699
X4.5607 Z-0.0697
X4.5614 Z-0.0694
X4.5621
X4.5749
X4.5762 Y-2.3302
X4.5774 Y-2.3294
X4.5781 Y-2.3283
X4.5784 Y-2.327
X4.5781 Y-2.3256
X4.5774 Y-2.3245
X4.5762 Y-2.3237
X4.5749 Y-2.3235
X4.5742
X4.5735 Z-0.0697
X4.5728 Z-0.0699
X4.5721 Z-0.07
X3.4947
X3.494 Z-0.0699
X3.4934 Z-0.0697
X3.4927 Z-0.0694
X3.492
X3.4906 Y-2.3232
X3.4895 Y-2.3224
X3.4888 Y-2.3213
X3.4885 Y-2.32
X3.4888 Y-2.3186
X3.4895 Y-2.3175
X3.4906 Y-2.3167
X3.492 Y-2.3165
X3.4978
X3.4985
X3.4992 Z-0.0697
X3.4998 Z-0.0699
X3.5005 Z-0.07
X4.5848
X4.5855 Z-0.0699
X4.5861 Z-0.0697
X4.5868 Z-0.0694
X4.5875
X4.6001
X4.6015 Y-2.3162
X4.6026 Y-2.3154
X4.6034 Y-2.3143
X4.6036 Y-2.313
X4.6034 Y-2.3116
X4.6026 Y-2.3105
X4.6015 Y-2.3097
X4.6001 Y-2.3095
X4.5994
X4.5988 Z-0.0697
X4.5981 Z-0.0699
X4.5974 Z-0.07
X3.5057
X3.505 Z-0.0699
X3.5044 Z-0.0697
X3.5037 Z-0.0694
X3.503
X3.5016 Y-2.3092
X3.5005 Y-2.3084
X3.4997 Y-2.3073
X3.4995 Y-2.306
X3.4997 Y-2.3046
X3.5005 Y-2.3035
X3.5016 Y-2.3027
X3.503 Y-2.3025
X3.507
X3.5077
X3.5084 Z-0.0697
X3.5091 Z-0.0699
X3.5098 Z-0.07
X4.6092
X4.6099 Z-0.0699
X4.6106 Z-0.0697
X4.6113 Z-0.0694
X4.612
X4.6236
X4.625 Y-2.3022
X4.6261 Y-2.3014
X4.6269 Y-2.3003
X4.6271 Y-2.299
X4.6269 Y-2.2976
X4.6261 Y-2.2965
X4.625 Y-2.2957
X4.6236 Y-2.2955
X4.6229
X4.6223 Z-0.0697
X4.6216 Z-0.0699
X4.6209 Z-0.07
X3.5135
X3.5128 Z-0.0699
X3.5121 Z-0.0697
X3.5114 Z-0.0694
X3.5107
X3.5094 Y-2.2952
X3.5083 Y-2.2944
X3.5075 Y-2.2933
X3.5072 Y-2.292
X3.5075 Y-2.2906
X3.5083 Y-2.2895
X3.5094 Y-2.2887
X3.5107 Y-2.2885
X3.5137
X3.5145
X3.5151 Z-0.0697
X3.5158 Z-0.0699
X3.5165 Z-0.07
X4.6325
X4.6332 Z-0.0699
X4.6339 Z-0.0697
X4.6346 Z-0.0694
X4.6353
X4.6465
X4.6478 Y-2.2882
X4.6489 Y-2.2874
X4.6497 Y-2.2863
X4.65 Y-2.285
X4.6497 Y-2.2836
X4.6489 Y-2.2825
X4.6478 Y-2.2817
X4.6465 Y-2.2815
X4.6458
X4.6451 Z-0.0697
X4.6444 Z-0.0699
X4.6437 Z-0.07
X3.519
X3.5183 Z-0.0699
X3.5177 Z-0.0697
X3.517 Z-0.0694
X3.5163
X3.5149 Y-2.2812
X3.5138 Y-2.2804
X3.513 Y-2.2793
X3.5128 Y-2.278
X3.513 Y-2.2766
X3.5138 Y-2.2755
X3.5149 Y-2.2747
X3.5163 Y-2.2745
X3.5184
X3.5191
X3.5197 Z-0.0697
X3.5204 Z-0.0699
X3.5211 Z-0.07
X4.6545
X4.6552 Z-0.0699
X4.6559 Z-0.0697
X4.6565 Z-0.0694
X4.6572
X4.668
X4.6694 Y-2.2742
X4.6705 Y-2.2734
X4.6713 Y-2.2723
X4.6715 Y-2.271
X4.6713 Y-2.2696
X4.6705 Y-2.2685
X4.6694 Y-2.2677
X4.668 Y-2.2675
X4.6673
X4.6667 Z-0.0697
X4.666 Z-0.0699
X4.6653 Z-0.07
X3.5227
X3.5219 Z-0.0699
X3.5213 Z-0.0697
X3.5206 Z-0.0694
X3.5199
X3.5186 Y-2.2672
X3.5174 Y-2.2664
X3.5167 Y-2.2653
X3.5164 Y-2.264
X3.5167 Y-2.2626
X3.5174 Y-2.2615
X3.5186 Y-2.2607
X3.5199 Y-2.2605
X3.5211
X3.5218
X3.5225 Z-0.0697
X3.5232 Z-0.0699
X3.5239 Z-0.07
X4.676
X4.6767 Z-0.0699
X4.6773 Z-0.0697
X4.678 Z-0.0694
X4.6787
X4.6887
X4.6901 Y-2.2602
X4.6912 Y-2.2594
X4.692 Y-2.2583
X4.6922 Y-2.257
X4.692 Y-2.2556
X4.6912 Y-2.2545
X4.6901 Y-2.2537
X4.6887 Y-2.2535
X4.688
X4.6873 Z-0.0697
X4.6867 Z-0.0699
X4.686 Z-0.07
X3.5245
X3.5238 Z-0.0699
X3.5231 Z-0.0697
X3.5225 Z-0.0694
X3.5218
X3.5204 Y-2.2532
X3.5193 Y-2.2524
X3.5185 Y-2.2513
X3.5183 Y-2.25
X3.5185 Y-2.2486
X3.5193 Y-2.2475
X3.5204 Y-2.2467
X3.5218 Y-2.2465
X3.5222
X3.5229
X3.5235 Z-0.0697
X3.5242 Z-0.0699
X3.5249 Z-0.07
X4.696
X4.6967 Z-0.0699
X4.6973 Z-0.0697
X4.698 Z-0.0694
X4.6987
X4.7087
X4.7101 Y-2.2462
X4.7112 Y-2.2454
X4.712 Y-2.2443
X4.7122 Y-2.243
X4.712 Y-2.2416
X4.7112 Y-2.2405
X4.7101 Y-2.2397
X4.7087 Y-2.2395
X4.708
X4.7073 Z-0.0697
X4.7067 Z-0.0699
X4.706 Z-0.07
X3.5247
X3.524 Z-0.0699
X3.5233 Z-0.0697
X3.5226 Z-0.0694
X3.5219
X3.5215
X3.5202 Y-2.2392
X3.519 Y-2.2384
X3.5183 Y-2.2373
X3.518 Y-2.236
X3.5183 Y-2.2346
X3.519 Y-2.2335
X3.5202 Y-2.2327
X3.5215 Y-2.2325
X3.5222
X3.5229 Z-0.0697
X3.5236 Z-0.0699
X3.5243 Z-0.07
X4.7156
X4.7163 Z-0.0699
X4.717 Z-0.0697
X4.7177 Z-0.0694
X4.7184
X4.7277
X4.729 Y-2.2322
X4.7301 Y-2.2314
X4.7309 Y-2.2303
X4.7312 Y-2.229
X4.7309 Y-2.2276
X4.7301 Y-2.2265
X4.729 Y-2.2257
X4.7277 Y-2.2255
X4.7269
X4.7263 Z-0.0697
X4.7256 Z-0.0699
X4.7249 Z-0.07
X3.5232
X3.5225 Z-0.0699
X3.5218 Z-0.0697
X3.5211 Z-0.0694
X3.5204
X3.5192
X3.5178 Y-2.2252
X3.5167 Y-2.2244
X3.516 Y-2.2233
X3.5157 Y-2.222
X3.516 Y-2.2206
X3.5167 Y-2.2195
X3.5178 Y-2.2187
X3.5192 Y-2.2185
X3.5199
X3.5206 Z-0.0697
X3.5212 Z-0.0699
X3.5219 Z-0.07
X4.7342
X4.7349 Z-0.0699
X4.7356 Z-0.0697
X4.7362 Z-0.0694
X4.7369
X4.7462
X4.7476 Y-2.2182
X4.7487 Y-2.2174
X4.7495 Y-2.2163
X4.7497 Y-2.215
X4.7495 Y-2.2136
X4.7487 Y-2.2125
X4.7476 Y-2.2117
X4.7462 Y-2.2115
X4.7455
X4.7448 Z-0.0697
X4.7442 Z-0.0699
X4.7435 Z-0.07
X3.5199
X3.5192 Z-0.0699
X3.5185 Z-0.0697
X3.5179 Z-0.0694
X3.5172
X3.515
X3.5137 Y-2.2112
X3.5125 Y-2.2104
X3.5118 Y-2.2093
X3.5115 Y-2.208
X3.5118 Y-2.2066
X3.5125 Y-2.2055
X3.5137 Y-2.2047
X3.515 Y-2.2045
X3.5157
X3.5164 Z-0.0697
X3.5171 Z-0.0699
X3.5178 Z-0.07
X4.7523
X4.753 Z-0.0699
X4.7537 Z-0.0697
X4.7544 Z-0.0694
X4.7551
X4.7637
X4.765 Y-2.2042
X4.7662 Y-2.2034
X4.7669 Y-2.2023
X4.7672 Y-2.201
X4.7669 Y-2.1996
X4.7662 Y-2.1985
X4.765 Y-2.1977
X4.7637 Y-2.1975
X4.763
X4.7623 Z-0.0697
X4.7617 Z-0.0699
X4.761 Z-0.07
X3.5147
X3.514 Z-0.0699
X3.5134 Z-0.0697
X3.5127 Z-0.0694
X3.512
X3.5087
X3.5074 Y-2.1972
X3.5062 Y-2.1964
X3.5055 Y-2.1953
X3.5052 Y-2.194
X3.5055 Y-2.1926
X3.5062 Y-2.1915
X3.5074 Y-2.1907
X3.5087 Y-2.1905
X3.5094
X3.5101 Z-0.0697
X3.5108 Z-0.0699
X3.5115 Z-0.07
X4.7696
X4.7703 Z-0.0699
X4.771 Z-0.0697
X4.7717 Z-0.0694
X4.7724
X4.781
X4.7823 Y-2.1902
X4.7835 Y-2.1894
X4.7842 Y-2.1883
X4.7845 Y-2.187
X4.7842 Y-2.1856
X4.7835 Y-2.1845
X4.7823 Y-2.1837
X4.781 Y-2.1835
X4.7803
X4.7796 Z-0.0697
X4.779 Z-0.0699
X4.7783 Z-0.07
X3.5074
X3.5067 Z-0.0699
X3.506 Z-0.0697
X3.5054 Z-0.0694
X3.5047
X3.5
X3.4986 Y-2.1832
X3.4975 Y-2.1824
X3.4967 Y-2.1813
X3.4965 Y-2.18
X3.4967 Y-2.1786
X3.4975 Y-2.1775
X3.4986 Y-2.1767
X3.5 Y-2.1765
X3.5007
X3.5013 Z-0.0697
X3.502 Z-0.0699
X3.5027 Z-0.07
X4.7865
X4.7872 Z-0.0699
X4.7878 Z-0.0697
X4.7885 Z-0.0694
X4.7892
X4.7973
X4.7986 Y-2.1762
X4.7997 Y-2.1754
X4.8005 Y-2.1743
X4.8008 Y-2.173
X4.8005 Y-2.1716
X4.7997 Y-2.1705
X4.7986 Y-2.1697
X4.7973 Y-2.1695
X4.7966
X4.7959 Z-0.0697
X4.7952 Z-0.0699
X4.7945 Z-0.07
X3.4975
X3.4968 Z-0.0699
X3.4961 Z-0.0697
X3.4955 Z-0.0694
X3.4948
X3.4882
X3.4868 Y-2.1692
X3.4857 Y-2.1684
X3.4849 Y-2.1673
X3.4847 Y-2.166
X3.4849 Y-2.1646
X3.4857 Y-2.1635
X3.4868 Y-2.1627
X3.4882 Y-2.1625
X3.4889
X3.4895 Z-0.0697
X3.4902 Z-0.0699
X3.4909 Z-0.07
X4.8026
X4.8033 Z-0.0699
X4.8039 Z-0.0697
X4.8046 Z-0.0694
X4.8053
X4.8134
X4.8147 Y-2.1622
X4.8158 Y-2.1614
X4.8166 Y-2.1603
X4.8169 Y-2.159
X4.8166 Y-2.1576
X4.8158 Y-2.1565
X4.8147 Y-2.1557
X4.8134 Y-2.1555
X4.8127
X4.812 Z-0.0697
X4.8113 Z-0.0699
X4.8106 Z-0.07
X4.0805
Z-0.1225
X4.0804 Z-0.135 F15
X3.6679 F60
X3.6554 F15
Z-0.07 F60
X3.4833
X3.4826 Z-0.0699
X3.4819 Z-0.0697
X3.4812 Z-0.0694
X3.4805
X3.4714
X3.4701 Y-2.1552
X3.469 Y-2.1544
X3.4682 Y-2.1533
X3.4679 Y-2.152
X3.4682 Y-2.1506
X3.469 Y-2.1495
X3.4701 Y-2.1487
X3.4714 Y-2.1485
X3.4722
X3.4728 Z-0.0697
X3.4735 Z-0.0699
X3.4742 Z-0.07
X3.6529
Z-0.1225
Z-0.135 F15
X4.1154 F60
X4.1279 F15
Z-0.07 F60
X4.8183
X4.8191 Z-0.0699
X4.8197 Z-0.0697
X4.8204 Z-0.0694
X4.8211
X4.8286
X4.83 Y-2.1482
X4.8311 Y-2.1474
X4.8318 Y-2.1463
X4.8321 Y-2.145
X4.8318 Y-2.1436
X4.8311 Y-2.1425
X4.83 Y-2.1417
X4.8286 Y-2.1415
X4.8279
X4.8272 Z-0.0697
X4.8266 Z-0.0699
X4.8259 Z-0.07
X4.1645
X4.1644 Z-0.1225
Z-0.135 F15
X3.6625 F60
X3.65 F15
X3.6498 Z-0.07 F60
X3.4627
X3.462 Z-0.0699
X3.4613 Z-0.0697
X3.4607 Z-0.0694
X3.46
X3.444
X3.4427 Y-2.1412
X3.4416 Y-2.1404
X3.4408 Y-2.1393
X3.4405 Y-2.138
X3.4408 Y-2.1366
X3.4416 Y-2.1355
X3.4427 Y-2.1347
X3.444 Y-2.1345
X3.4447
X3.4454 Z-0.0697
X3.4461 Z-0.0699
X3.4468 Z-0.07
X3.6468
Z-0.1225
Z-0.135 F15
X4.1829 F60
X4.1954 F15
Z-0.07 F60
X4.8334
X4.8341 Z-0.0699
X4.8347 Z-0.0697
X4.8354 Z-0.0694
X4.8361
X4.8436
X4.845 Y-2.1342
X4.8461 Y-2.1334
X4.8469 Y-2.1323
X4.8471 Y-2.131
X4.8469 Y-2.1296
X4.8461 Y-2.1285
X4.845 Y-2.1277
X4.8436 Y-2.1275
X4.8429
X4.8423 Z-0.0697
X4.8416 Z-0.0699
X4.8409 Z-0.07
X4.2216
X4.2215 Z-0.1225
Z-0.135 F15
X3.6561 F60
X3.6436 F15
Z-0.07 F60
X3.1714
Z-0.1225
Z-0.135 F15
X-3.1589 F60
X-3.1714 F15
Z-0.07 F60
X-3.6436
Z-0.1225
Z-0.135 F15
X-4.2091 F60
X-4.2216 F15
Z-0.07 F60
X-4.8409
X-4.8416 Z-0.0699
X-4.8423 Z-0.0697
X-4.8429 Z-0.0694
X-4.8436
X-4.851
X-4.8523 Y-2.1272
X-4.8535 Y-2.1264
X-4.8542 Y-2.1253
X-4.8545 Y-2.124
X-4.8542 Y-2.1226
X-4.8535 Y-2.1215
X-4.8523 Y-2.1207
X-4.851 Y-2.1205
X-4.8503
X-4.8496 Z-0.0697
X-4.849 Z-0.0699
X-4.8483 Z-0.07
X-4.2455
Z-0.1225
Z-0.135 F15
X-3.6524 F60
X-3.6399 F15
X-3.6398 Z-0.07 F60
X-3.1752
Z-0.1225
Z-0.135 F15
X3.1626 F60
X3.1751 F15
X3.1752 Z-0.07 F60
X3.6398
Z-0.1225
Z-0.135 F15
X4.2328 F60
X4.2453 F15
X4.2455 Z-0.07 F60
X4.8483
X4.849 Z-0.0699
X4.8496 Z-0.0697
X4.8503 Z-0.0694
X4.851
X4.858
X4.8593 Y-2.1202
X4.8605 Y-2.1194
X4.8612 Y-2.1183
X4.8615 Y-2.117
X4.8612 Y-2.1156
X4.8605 Y-2.1145
X4.8593 Y-2.1137
X4.858 Y-2.1135
X4.8573
X4.8566 Z-0.0697
X4.856 Z-0.0699
X4.8553 Z-0.07
X4.2679
Z-0.1225
Z-0.135 F15
X3.6484 F60
X3.6359 F15
Z-0.07 F60
X3.1791
X3.179 Z-0.1225
Z-0.135 F15
X-3.1666 F60
X-3.1791 F15
Z-0.07 F60
X-3.6359
Z-0.1225
Z-0.135 F15
X-4.2554 F60
X-4.2679 F15
X-4.268 Z-0.07 F60
X-4.8553
X-4.856 Z-0.0699
X-4.8566 Z-0.0697
X-4.8573 Z-0.0694
X-4.858
X-4.865
X-4.8663 Y-2.1132
X-4.8675 Y-2.1124
X-4.8682 Y-2.1113
X-4.8685 Y-2.11
X-4.8682 Y-2.1086
X-4.8675 Y-2.1075
X-4.8663 Y-2.1067
X-4.865 Y-2.1065
X-4.8643
X-4.8636 Z-0.0697
X-4.863 Z-0.0699
X-4.8623 Z-0.07
X-4.2876
Z-0.1225
Z-0.135 F15
X-3.6446 F60
X-3.6321 F15
X-3.6319 Z-0.07 F60
X-3.1831
Z-0.1225
Z-0.135 F15
X3.1705 F60
X3.183 F15
X3.1831 Z-0.07 F60
X3.6319
Z-0.1225
Z-0.135 F15
X4.2751 F60
X4.2876 F15
Z-0.07 F60
X4.8623
X4.863 Z-0.0699
X4.8636 Z-0.0697
X4.8643 Z-0.0694
X4.865
X4.872
X4.8733 Y-2.1062
X4.8745 Y-2.1054
X4.8752 Y-2.1043
X4.8755 Y-2.103
X4.8752 Y-2.1016
X4.8745 Y-2.1005
X4.8733 Y-2.0997
X4.872 Y-2.0995
X4.8713
X4.8706 Z-0.0697
X4.87 Z-0.0699
X4.8693 Z-0.07
X4.3069
Z-0.1225
Z-0.135 F15
X3.6397 F60
X3.6272 F15
Z-0.07 F60
X3.1878
Z-0.1225
Z-0.135 F15
X-3.1753 F60
X-3.1878 F15
Z-0.07 F60
X-3.6272
Z-0.1225
Z-0.135 F15
X-4.2944 F60
X-4.3069 F15
Z-0.07 F60
X-4.8693
X-4.87 Z-0.0699
X-4.8706 Z-0.0697
X-4.8713 Z-0.0694
X-4.872
X-4.879
X-4.8803 Y-2.0992
X-4.8815 Y-2.0984
X-4.8822 Y-2.0973
X-4.8825 Y-2.096
X-4.8822 Y-2.0946
X-4.8815 Y-2.0935
X-4.8803 Y-2.0927
X-4.879 Y-2.0925
X-4.8783
X-4.8776 Z-0.0697
X-4.877 Z-0.0699
X-4.8763 Z-0.07
X-4.3244
X-4.3243 Z-0.1225
Z-0.135 F15
X-3.635 F60
X-3.6225 F15
Z-0.07 F60
X-3.1925
Z-0.1225
Z-0.135 F15
X3.18 F60
X3.1925 F15
Z-0.07 F60
X3.6225
Z-0.1225
Z-0.135 F15
X4.3118 F60
X4.3243 F15
Z-0.07 F60
X4.8763
X4.877 Z-0.0699
X4.8776 Z-0.0697
X4.8783 Z-0.0694
X4.879
X4.8856
X4.8869 Y-2.0922
X4.8881 Y-2.0914
X4.8888 Y-2.0903
X4.8891 Y-2.089
X4.8888 Y-2.0876
X4.8881 Y-2.0865
X4.8869 Y-2.0857
X4.8856 Y-2.0855
X4.8849
X4.8842 Z-0.0697
X4.8836 Z-0.0699
X4.8829 Z-0.07
X4.3415
Z-0.1225
Z-0.135 F15
X3.6299 F60
X3.6174 F15
Z-0.07 F60
X3.1976
Z-0.1225
Z-0.135 F15
X-3.1851 F60
X-3.1976 F15
Z-0.07 F60
X-3.6174
Z-0.1225
Z-0.135 F15
X-4.329 F60
X-4.3415 F15
Z-0.07 F60
X-4.8829
X-4.8836 Z-0.0699
X-4.8842 Z-0.0697
X-4.8849 Z-0.0694
X-4.8856
X-4.8921
X-4.8935 Y-2.0852
X-4.8946 Y-2.0844
X-4.8954 Y-2.0833
X-4.8956 Y-2.082
X-4.8954 Y-2.0806
X-4.8946 Y-2.0795
X-4.8935 Y-2.0787
X-4.8921 Y-2.0785
X-4.8914
X-4.8908 Z-0.0697
X-4.8901 Z-0.0699
X-4.8894 Z-0.07
X-4.3571
Z-0.1225
X-4.357 Z-0.135 F15
X-3.6243 F60
X-3.6118 F15
Z-0.07 F60
X-3.2032
Z-0.1225
Z-0.135 F15
X3.1907 F60
X3.2032 F15
Z-0.07 F60
X3.6118
Z-0.1225
Z-0.135 F15
X4.3444 F60
X4.3569 F15
X4.357 Z-0.07 F60
X4.8894
X4.8901 Z-0.0699
X4.8908 Z-0.0697
X4.8914 Z-0.0694
X4.8921
X4.8986
X4.9 Y-2.0782
X4.9011 Y-2.0774
X4.9019 Y-2.0763
X4.9021 Y-2.075
X4.9019 Y-2.0736
X4.9011 Y-2.0725
X4.9 Y-2.0717
X4.8986 Y-2.0715
X4.8979
X4.8973 Z-0.0697
X4.8966 Z-0.0699
X4.8959 Z-0.07
X4.3726
Z-0.1225
Z-0.135 F15
X3.6186 F60
X3.6061 F15
Z-0.07 F60
X3.2089
Z-0.1225
Z-0.135 F15
X-3.1964 F60
X-3.2089 F15
X-3.209 Z-0.07 F60
X-3.6061
Z-0.1225
Z-0.135 F15
X-4.3601 F60
X-4.3726 F15
Z-0.07 F60
X-4.8959
X-4.8966 Z-0.0699
X-4.8973 Z-0.0697
X-4.8979 Z-0.0694
X-4.8986
X-4.9052
X-4.9065 Y-2.0712
X-4.9076 Y-2.0704
X-4.9084 Y-2.0693
X-4.9087 Y-2.068
X-4.9084 Y-2.0666
X-4.9076 Y-2.0655
X-4.9065 Y-2.0647
X-4.9052 Y-2.0645
X-4.9045
X-4.9038 Z-0.0697
X-4.9031 Z-0.0699
X-4.9024 Z-0.07
X-4.3868
Z-0.1225
Z-0.135 F15
X-3.612 F60
X-3.5995 F15
Z-0.07 F60
X-3.2155
Z-0.1225
Z-0.135 F15
X3.203 F60
X3.2155 F15
Z-0.07 F60
X3.5995
Z-0.1225
Z-0.135 F15
X4.3742 F60
X4.3867 F15
X4.3868 Z-0.07 F60
X4.9024
X4.9031 Z-0.0699
X4.9038 Z-0.0697
X4.9045 Z-0.0694
X4.9052
X4.9116
X4.9129 Y-2.0642
X4.9141 Y-2.0634
X4.9148 Y-2.0623
X4.9151 Y-2.061
X4.9148 Y-2.0596
X4.9141 Y-2.0585
X4.9129 Y-2.0577
X4.9116 Y-2.0575
X4.9109
X4.9102 Z-0.0697
X4.9095 Z-0.0699
X4.9088 Z-0.07
X4.4008
X4.4007 Z-0.1225
X4.4006 Z-0.135 F15
X3.6054 F60
X3.5929 F15
Z-0.07 F60
X3.2221
X3.2219 Z-0.1225
Z-0.135 F15
X-3.2096 F60
X-3.2221 F15
X-3.2222 Z-0.07 F60
X-3.5929
X-3.5931 Z-0.1225
Z-0.135 F15
X-4.3883 F60
X-4.4008 F15
Z-0.07 F60
X-4.9088
X-4.9095 Z-0.0699
X-4.9102 Z-0.0697
X-4.9109 Z-0.0694
X-4.9116
X-4.9177
X-4.919 Y-2.0572
X-4.9202 Y-2.0564
X-4.9209 Y-2.0553
X-4.9212 Y-2.054
X-4.9209 Y-2.0526
X-4.9202 Y-2.0515
X-4.919 Y-2.0507
X-4.9177 Y-2.0505
X-4.917
X-4.9163 Z-0.0697
X-4.9156 Z-0.0699
X-4.9149 Z-0.07
X-4.4143
Z-0.1225
Z-0.135 F15
X-3.5979 F60
X-3.5854 F15
X-3.5853 Z-0.07 F60
X-3.2297
Z-0.1225
Z-0.135 F15
X3.2172 F60
X3.2297 F15
Z-0.07 F60
X3.5853
Z-0.1225
Z-0.135 F15
X4.4018 F60
X4.4143 F15
Z-0.07 F60
X4.9149
X4.9156 Z-0.0699
X4.9163 Z-0.0697
X4.917 Z-0.0694
X4.9177
X4.9238
X4.9251 Y-2.0502
X4.9262 Y-2.0494
X4.927 Y-2.0483
X4.9273 Y-2.047
X4.927 Y-2.0456
X4.9262 Y-2.0445
X4.9251 Y-2.0437
X4.9238 Y-2.0435
X4.9231
X4.9224 Z-0.0697
X4.9217 Z-0.0699
X4.921 Z-0.07
X4.427
Z-0.1225
Z-0.135 F15
X3.5901 F60
X3.5776 F15
X3.5774 Z-0.07 F60
X3.2374
X3.2373 Z-0.1225
Z-0.135 F15
X-3.2249 F60
X-3.2374 F15
Z-0.07 F60
X-3.5776
X-3.5777 Z-0.1225
Z-0.135 F15
X-4.4145 F60
X-4.427 F15
X-4.4271 Z-0.07 F60
X-4.921
X-4.9217 Z-0.0699
X-4.9224 Z-0.0697
X-4.9231 Z-0.0694
X-4.9238
X-4.9299
X-4.9312 Y-2.0432
X-4.9323 Y-2.0424
X-4.9331 Y-2.0413
X-4.9334 Y-2.04
X-4.9331 Y-2.0386
X-4.9323 Y-2.0375
X-4.9312 Y-2.0367
X-4.9299 Y-2.0365
X-4.9291
X-4.9285 Z-0.0697
X-4.9278 Z-0.0699
X-4.9271 Z-0.07
X-4.4398
X-4.4397 Z-0.1225
Z-0.135 F15
X-3.5812 F60
X-3.5687 F15
Z-0.07 F60
X-3.2465
X-3.2464 Z-0.1225
X-3.2463 Z-0.135 F15
X3.2337 F60
X3.2462 F15
X3.2463 Z-0.07 F60
X3.5686
X3.5687 Z-0.1225
Z-0.135 F15
X4.4272 F60
X4.4397 F15
Z-0.07 F60
X4.9271
X4.9278 Z-0.0699
X4.9285 Z-0.0697
X4.9291 Z-0.0694
X4.9299
X4.9359
X4.9373 Y-2.0362
X4.9384 Y-2.0354
X4.9392 Y-2.0343
X4.9394 Y-2.033
X4.9392 Y-2.0316
X4.9384 Y-2.0305
X4.9373 Y-2.0297
X4.9359 Y-2.0295
X4.9352
X4.9346 Z-0.0697
X4.9339 Z-0.0699
X4.9332 Z-0.07
X4.4515
Z-0.1225
Z-0.135 F15
X3.572 F60
X3.5595 F15
Z-0.07 F60
X3.2555
X3.2554 Z-0.1225
Z-0.135 F15
X-3.243 F60
X-3.2555 F15
Z-0.07 F60
X-3.5595
Z-0.1225
Z-0.135 F15
X-4.439 F60
X-4.4515 F15
Z-0.07 F60
X-4.9332
X-4.9339 Z-0.0699
X-4.9346 Z-0.0697
X-4.9352 Z-0.0694
X-4.9359
X-4.9418
X-4.9432 Y-2.0292
X-4.9443 Y-2.0284
X-4.9451 Y-2.0273
X-4.9453 Y-2.026
X-4.9451 Y-2.0246
X-4.9443 Y-2.0235
X-4.9432 Y-2.0227
X-4.9418 Y-2.0225
X-4.9411
X-4.9405 Z-0.0697
X-4.9398 Z-0.0699
X-4.9391 Z-0.07
X-4.4632
X-4.4631 Z-0.1225
Z-0.135 F15
X-3.5612 F60
X-3.5487 F15
Z-0.07 F60
X-3.2663
Z-0.1225
Z-0.135 F15
X3.2538 F60
X3.2663 F15
Z-0.07 F60
X3.5486
X3.5487 Z-0.1225
Z-0.135 F15
X4.4505 F60
X4.463 F15
X4.4631 Z-0.07 F60
X4.9391
X4.9398 Z-0.0699
X4.9405 Z-0.0697
X4.9411 Z-0.0694
X4.9418
X4.9475
X4.9489 Y-2.0222
X4.95 Y-2.0214
X4.9507 Y-2.0203
X4.951 Y-2.019
X4.9507 Y-2.0176
X4.95 Y-2.0165
X4.9489 Y-2.0157
X4.9475 Y-2.0155
X4.9468
X4.9461 Z-0.0697
X4.9455 Z-0.0699
X4.9448 Z-0.07
X4.4747
Z-0.1225
Z-0.135 F15
X3.5498 F60
X3.5373 F15
X3.5372 Z-0.07 F60
X3.2778
Z-0.1225
Z-0.135 F15
X-3.2653 F60
X-3.2778 F15
Z-0.07 F60
X-3.5372
X-3.5373 Z-0.1225
X-3.5374 Z-0.135 F15
X-4.4622 F60
X-4.4747 F15
Z-0.07 F60
X-4.9448
X-4.9455 Z-0.0699
X-4.9461 Z-0.0697
X-4.9468 Z-0.0694
X-4.9475
X-4.9532
X-4.9545 Y-2.0152
X-4.9557 Y-2.0144
X-4.9564 Y-2.0133
X-4.9567 Y-2.012
X-4.9564 Y-2.0106
X-4.9557 Y-2.0095
X-4.9545 Y-2.0087
X-4.9532 Y-2.0085
X-4.9525
X-4.9518 Z-0.0697
X-4.9511 Z-0.0699
X-4.9504 Z-0.07
X-4.4854
X-4.4853 Z-0.1225
Z-0.135 F15
X-4.0462 F60
X-4.0455 Z-0.1349
X-4.0449 Z-0.1347
X-4.0442 Z-0.1344
X-4.0435
X-4.0421 Y-2.0082
X-4.041 Y-2.0074
X-4.0403 Y-2.0063
X-4.04 Y-2.005
X-4.0403 Y-2.0036
X-4.041 Y-2.0025
X-4.0421 Y-2.0017
X-4.0435 Y-2.0015
X-4.0964
X-4.0971
X-4.0977 Z-0.1347
X-4.0984 Z-0.1349
X-4.0991 Z-0.135
X-4.4834
X-4.4959 F15
Z-0.07 F60
X-4.9561
X-4.9568 Z-0.0699
X-4.9575 Z-0.0697
X-4.9581 Z-0.0694
X-4.9589
X-4.9645
X-4.9659 Y-2.0012
X-4.967 Y-2.0004
X-4.9678 Y-1.9993
X-4.968 Y-1.998
X-4.9678 Y-1.9966
X-4.967 Y-1.9955
X-4.9659 Y-1.9947
X-4.9645 Y-1.9945
X-4.9638
X-4.9631 Z-0.0697
X-4.9625 Z-0.0699
X-4.9618 Z-0.07
X-4.5065
Z-0.1225
Z-0.135 F15
X-4.136 F60
X-4.1353 Z-0.1349
X-4.1346 Z-0.1347
X-4.1339 Z-0.1344
X-4.1332
X-4.1319 Y-1.9942
X-4.1307 Y-1.9934
X-4.13 Y-1.9923
X-4.1297 Y-1.991
X-4.13 Y-1.9896
X-4.1307 Y-1.9885
X-4.1319 Y-1.9877
X-4.1332 Y-1.9875
X-4.1627
X-4.1634
X-4.1641 Z-0.1347
X-4.1647 Z-0.1349
X-4.1654 Z-0.135
X-4.5037
X-4.5162 F15
X-4.5163 Z-0.07 F60
X-4.9672
X-4.9679 Z-0.0699
X-4.9686 Z-0.0697
X-4.9693 Z-0.0694
X-4.97
X-4.9752
X-4.9766 Y-1.9872
X-4.9777 Y-1.9864
X-4.9785 Y-1.9853
X-4.9787 Y-1.984
X-4.9785 Y-1.9826
X-4.9777 Y-1.9815
X-4.9766 Y-1.9807
X-4.9752 Y-1.9805
X-4.9745
X-4.9739 Z-0.0697
X-4.9732 Z-0.0699
X-4.9725 Z-0.07
X-4.5261
X-4.526 Z-0.1225
Z-0.135 F15
X-4.1909 F60
X-4.1902 Z-0.1349
X-4.1895 Z-0.1347
X-4.1889 Z-0.1344
X-4.1882
X-4.1868 Y-1.9802
X-4.1857 Y-1.9794
X-4.1849 Y-1.9783
X-4.1847 Y-1.977
X-4.1849 Y-1.9756
X-4.1857 Y-1.9745
X-4.1868 Y-1.9737
X-4.1882 Y-1.9735
X-4.2112
X-4.2119
X-4.2126 Z-0.1347
X-4.2133 Z-0.1349
X-4.214 Z-0.135
X-4.5232
X-4.5357 F15
X-4.5358 Z-0.07 F60
X-4.9778
X-4.9785 Z-0.0699
X-4.9791 Z-0.0697
X-4.9798 Z-0.0694
X-4.9805
X-4.9858
X-4.9871 Y-1.9732
X-4.9883 Y-1.9724
X-4.989 Y-1.9713
X-4.9893 Y-1.97
X-4.989 Y-1.9686
X-4.9883 Y-1.9675
X-4.9871 Y-1.9667
X-4.9858 Y-1.9665
X-4.9851
X-4.9844 Z-0.0697
X-4.9838 Z-0.0699
X-4.983 Z-0.07
X-4.5448
Z-0.1225
Z-0.135 F15
X-4.2346 F60
X-4.2339 Z-0.1349
X-4.2332 Z-0.1347
X-4.2325 Z-0.1344
X-4.2318
X-4.2305 Y-1.9662
X-4.2294 Y-1.9654
X-4.2286 Y-1.9643
X-4.2283 Y-1.963
X-4.2286 Y-1.9616
X-4.2294 Y-1.9605
X-4.2305 Y-1.9597
X-4.2318 Y-1.9595
X-4.2507
X-4.2514
X-4.252 Z-0.1347
X-4.2527 Z-0.1349
X-4.2534 Z-0.135
X-4.5412
X-4.5537 F15
Z-0.07 F60
X-4.9883
X-4.989 Z-0.0699
X-4.9897 Z-0.0697
X-4.9904 Z-0.0694
X-4.9911
X-4.9962
X-4.9975 Y-1.9592
X-4.9986 Y-1.9584
X-4.9994 Y-1.9573
X-4.9997 Y-1.956
X-4.9994 Y-1.9546
X-4.9986 Y-1.9535
X-4.9975 Y-1.9527
X-4.9962 Y-1.9525
X-4.9955
X-4.9948 Z-0.0697
X-4.9941 Z-0.0699
X-4.9934 Z-0.07
X-4.5628
X-4.5627 Z-0.1225
Z-0.135 F15
X-4.2714 F60
X-4.2707 Z-0.1349
X-4.27 Z-0.1347
X-4.2694 Z-0.1344
X-4.2687
X-4.2673 Y-1.9522
X-4.2662 Y-1.9514
X-4.2654 Y-1.9503
X-4.2652 Y-1.949
X-4.2654 Y-1.9476
X-4.2662 Y-1.9465
X-4.2673 Y-1.9457
X-4.2687 Y-1.9455
X-4.2848
X-4.2855
X-4.2862 Z-0.1347
X-4.2869 Z-0.1349
X-4.2876 Z-0.135
X-4.5588
X-4.5713 F15
X-4.5714 Z-0.07 F60
X-4.9983
X-4.999 Z-0.0699
X-4.9997 Z-0.0697
X-5.0004 Z-0.0694
X-5.0011
X-5.006
X-5.0073 Y-1.9452
X-5.0084 Y-1.9444
X-5.0092 Y-1.9433
X-5.0095 Y-1.942
X-5.0092 Y-1.9406
X-5.0084 Y-1.9395
X-5.0073 Y-1.9387
X-5.006 Y-1.9385
X-5.0053
X-5.0046 Z-0.0697
X-5.0039 Z-0.0699
X-5.0032 Z-0.07
X-4.5796
Z-0.1225
Z-0.135 F15
X-4.3035 F60
X-4.3028 Z-0.1349
X-4.3021 Z-0.1347
X-4.3014 Z-0.1344
X-4.3007
X-4.2994 Y-1.9382
X-4.2983 Y-1.9374
X-4.2975 Y-1.9363
X-4.2972 Y-1.935
X-4.2975 Y-1.9336
X-4.2983 Y-1.9325
X-4.2994 Y-1.9317
X-4.3007 Y-1.9315
X-4.3152
X-4.3159
X-4.3165 Z-0.1347
X-4.3172 Z-0.1349
X-4.3179 Z-0.135
X-4.5753
X-4.5878 F15
Z-0.07 F60
X-5.0081
X-5.0088 Z-0.0699
X-5.0095 Z-0.0697
X-5.0101 Z-0.0694
X-5.0109
X-5.0158
X-5.0171 Y-1.9312
X-5.0182 Y-1.9304
X-5.019 Y-1.9293
X-5.0193 Y-1.928
X-5.019 Y-1.9266
X-5.0182 Y-1.9255
X-5.0171 Y-1.9247
X-5.0158 Y-1.9245
X-5.015
X-5.0144 Z-0.0697
X-5.0137 Z-0.0699
X-5.013 Z-0.07
X-4.5961
X-4.596 Z-0.1225
Z-0.135 F15
X-4.3321 F60
X-4.3314 Z-0.1349
X-4.3307 Z-0.1347
X-4.3301 Z-0.1344
X-4.3293
X-4.328 Y-1.9242
X-4.3269 Y-1.9234
X-4.3261 Y-1.9223
X-4.3258 Y-1.921
X-4.3261 Y-1.9196
X-4.3269 Y-1.9185
X-4.328 Y-1.9177
X-4.3293 Y-1.9175
X-4.3426
X-4.3433
X-4.344 Z-0.1347
X-4.3446 Z-0.1349
X-4.3453 Z-0.135
X-4.5912
X-4.6037 F15
X-4.6039 Z-0.07 F60
X-5.0178
X-5.0185 Z-0.0699
X-5.0192 Z-0.0697
X-5.0198 Z-0.0694
X-5.0205
X-5.0251
X-5.0264 Y-1.9172
X-5.0276 Y-1.9164
X-5.0283 Y-1.9153
X-5.0286 Y-1.914
X-5.0283 Y-1.9126
X-5.0276 Y-1.9115
X-5.0264 Y-1.9107
X-5.0251 Y-1.9105
X-5.0244
X-5.0237 Z-0.0697
X-5.023 Z-0.0699
X-5.0223 Z-0.07
X-4.6113
Z-0.1225
Z-0.135 F15
X-4.3581 F60
X-4.3574 Z-0.1349
X-4.3567 Z-0.1347
X-4.3561 Z-0.1344
X-4.3554
X-4.354 Y-1.9102
X-4.3529 Y-1.9094
X-4.3521 Y-1.9083
X-4.3519 Y-1.907
X-4.3521 Y-1.9056
X-4.3529 Y-1.9045
X-4.354 Y-1.9037
X-4.3554 Y-1.9035
X-4.3678
X-4.3685
X-4.3692 Z-0.1347
X-4.3699 Z-0.1349
X-4.3706 Z-0.135
X-4.6064
X-4.6189 F15
Z-0.07 F60
X-5.0269
X-5.0276 Z-0.0699
X-5.0283 Z-0.0697
X-5.0289 Z-0.0694
X-5.0296
X-5.0342
X-5.0355 Y-1.9032
X-5.0366 Y-1.9024
X-5.0374 Y-1.9013
X-5.0377 Y-1.9
X-5.0374 Y-1.8986
X-5.0366 Y-1.8975
X-5.0355 Y-1.8967
X-5.0342 Y-1.8965
X-5.0335
X-5.0328 Z-0.0697
X-5.0321 Z-0.0699
X-5.0314 Z-0.07
X-4.6264
Z-0.1225
Z-0.135 F15
X-4.3821 F60
X-4.3814 Z-0.1349
X-4.3807 Z-0.1347
X-4.38 Z-0.1344
X-4.3793
X-4.378 Y-1.8962
X-4.3769 Y-1.8954
X-4.3761 Y-1.8943
X-4.3758 Y-1.893
X-4.3761 Y-1.8916
X-4.3769 Y-1.8905
X-4.378 Y-1.8897
X-4.3793 Y-1.8895
X-4.3909
X-4.3916
X-4.3922 Z-0.1347
X-4.3929 Z-0.1349
X-4.3936 Z-0.135
X-4.6209
X-4.6334 F15
Z-0.07 F60
X-5.036
X-5.0367 Z-0.0699
X-5.0373 Z-0.0697
X-5.038 Z-0.0694
X-5.0387
X-5.0433
X-5.0446 Y-1.8892
X-5.0457 Y-1.8884
X-5.0465 Y-1.8873
X-5.0468 Y-1.886
X-5.0465 Y-1.8846
X-5.0457 Y-1.8835
X-5.0446 Y-1.8827
X-5.0433 Y-1.8825
X-5.0425
X-5.0419 Z-0.0697
X-5.0412 Z-0.0699
X-5.0405 Z-0.07
X-4.6404
Z-0.1225
Z-0.135 F15
X-4.4044 F60
X-4.4037 Z-0.1349
X-4.403 Z-0.1347
X-4.4024 Z-0.1344
X-4.4017
X-4.4003 Y-1.8822
X-4.3992 Y-1.8814
X-4.3984 Y-1.8803
X-4.3982 Y-1.879
X-4.3984 Y-1.8776
X-4.3992 Y-1.8765
X-4.4003 Y-1.8757
X-4.4017 Y-1.8755
X-4.4122
X-4.4129
X-4.4135 Z-0.1347
X-4.4142 Z-0.1349
X-4.4149 Z-0.135
X-4.6349
X-4.6474 F15
X-4.6475 Z-0.07 F60
X-5.0447
X-5.0454 Z-0.0699
X-5.0461 Z-0.0697
X-5.0468 Z-0.0694
X-5.0475
X-5.0517
X-5.053 Y-1.8752
X-5.0541 Y-1.8744
X-5.0549 Y-1.8733
X-5.0552 Y-1.872
X-5.0549 Y-1.8706
X-5.0541 Y-1.8695
X-5.053 Y-1.8687
X-5.0517 Y-1.8685
X-5.051
X-5.0503 Z-0.0697
X-5.0496 Z-0.0699
X-5.0489 Z-0.07
X-4.6542
Z-0.1225
Z-0.135 F15
X-4.4254 F60
X-4.4247 Z-0.1349
X-4.424 Z-0.1347
X-4.4234 Z-0.1344
X-4.4227
X-4.4213 Y-1.8682
X-4.4202 Y-1.8674
X-4.4194 Y-1.8663
X-4.4192 Y-1.865
X-4.4194 Y-1.8636
X-4.4202 Y-1.8625
X-4.4213 Y-1.8617
X-4.4227 Y-1.8615
X-4.4323
X-4.433
X-4.4337 Z-0.1347
X-4.4343 Z-0.1349
X-4.435 Z-0.135
X-4.6482
X-4.6607 F15
X-4.6608 Z-0.07 F60
X-5.0531
X-5.0538 Z-0.0699
X-5.0545 Z-0.0697
X-5.0552 Z-0.0694
X-5.0559
X-5.0601
X-5.0614 Y-1.8612
X-5.0626 Y-1.8604
X-5.0633 Y-1.8593
X-5.0636 Y-1.858
X-5.0633 Y-1.8566
X-5.0626 Y-1.8555
X-5.0614 Y-1.8547
X-5.0601 Y-1.8545
X-5.0594
X-5.0587 Z-0.0697
X-5.058 Z-0.0699
X-5.0573 Z-0.07
X-4.6672
Z-0.1225
Z-0.135 F15
X-4.4446 F60
X-4.4439 Z-0.1349
X-4.4432 Z-0.1347
X-4.4425 Z-0.1344
X-4.4418
X-4.4405 Y-1.8542
X-4.4394 Y-1.8534
X-4.4386 Y-1.8523
X-4.4383 Y-1.851
X-4.4386 Y-1.8496
X-4.4394 Y-1.8485
X-4.4405 Y-1.8477
X-4.4418 Y-1.8475
X-4.4514
X-4.4521
X-4.4528 Z-0.1347
X-4.4534 Z-0.1349
X-4.4541 Z-0.135
X-4.6611
X-4.6736 F15
X-4.6737 Z-0.07 F60
X-5.0615
X-5.0622 Z-0.0699
X-5.0629 Z-0.0697
X-5.0636 Z-0.0694
X-5.0643
X-5.0683
X-5.0696 Y-1.8472
X-5.0708 Y-1.8464
X-5.0715 Y-1.8453
X-5.0718 Y-1.844
X-5.0715 Y-1.8426
X-5.0708 Y-1.8415
X-5.0696 Y-1.8407
X-5.0683 Y-1.8405
X-5.0676
X-5.0669 Z-0.0697
X-5.0662 Z-0.0699
X-5.0655 Z-0.07
X-4.68
Z-0.1225
X-4.6799 Z-0.135 F15
X-4.4629 F60
X-4.4622 Z-0.1349
X-4.4615 Z-0.1347
X-4.4608 Z-0.1344
X-4.4601
X-4.4588 Y-1.8402
X-4.4577 Y-1.8394
X-4.4569 Y-1.8383
X-4.4566 Y-1.837
X-4.4569 Y-1.8356
X-4.4577 Y-1.8345
X-4.4588 Y-1.8337
X-4.4601 Y-1.8335
X-4.4688
X-4.4696
X-4.4702 Z-0.1347
X-4.4709 Z-0.1349
X-4.4716 Z-0.135
X-4.6734
X-4.6859 F15
X-4.686 Z-0.07 F60
X-5.0694
X-5.0701 Z-0.0699
X-5.0708 Z-0.0697
X-5.0715 Z-0.0694
X-5.0722
X-5.076
X-5.0774 Y-1.8332
X-5.0785 Y-1.8324
X-5.0793 Y-1.8313
X-5.0795 Y-1.83
X-5.0793 Y-1.8286
X-5.0785 Y-1.8275
X-5.0774 Y-1.8267
X-5.076 Y-1.8265
X-5.0753
X-5.0747 Z-0.0697
X-5.074 Z-0.0699
X-5.0733 Z-0.07
X-4.692
X-4.6919 Z-0.1225
Z-0.135 F15
X-4.4803 F60
X-4.4796 Z-0.1349
X-4.4789 Z-0.1347
X-4.4783 Z-0.1344
X-4.4776
X-4.4762 Y-1.8262
X-4.4751 Y-1.8254
X-4.4743 Y-1.8243
X-4.4741 Y-1.823
X-4.4743 Y-1.8216
X-4.4751 Y-1.8205
X-4.4762 Y-1.8197
X-4.4776 Y-1.8195
X-4.4857
X-4.4864
X-4.487 Z-0.1347
X-4.4877 Z-0.1349
X-4.4884 Z-0.135
X-4.6853
X-4.6978 F15
Z-0.07 F60
X-5.0772
X-5.0779 Z-0.0699
X-5.0785 Z-0.0697
X-5.0792 Z-0.0694
X-5.0799
X-5.0838
X-5.0851 Y-1.8192
X-5.0863 Y-1.8184
X-5.087 Y-1.8173
X-5.0873 Y-1.816
X-5.087 Y-1.8146
X-5.0863 Y-1.8135
X-5.0851 Y-1.8127
X-5.0838 Y-1.8125
X-5.0831
X-5.0824 Z-0.0697
X-5.0817 Z-0.0699
X-5.081 Z-0.07
X-4.7037
Z-0.1225
Z-0.135 F15
X-4.4964 F60
X-4.4957 Z-0.1349
X-4.495 Z-0.1347
X-4.4943 Z-0.1344
X-4.4936
X-4.4923 Y-1.8122
X-4.4912 Y-1.8114
X-4.4904 Y-1.8103
X-4.4901 Y-1.809
X-4.4904 Y-1.8076
X-4.4912 Y-1.8065
X-4.4923 Y-1.8057
X-4.4936 Y-1.8055
X-4.5016
X-4.5023
X-4.503 Z-0.1347
X-4.5037 Z-0.1349
X-4.5044 Z-0.135
X-4.6967
X-4.7092 F15
Z-0.07 F60
X-5.0849
X-5.0856 Z-0.0699
X-5.0862 Z-0.0697
X-5.0869 Z-0.0694
X-5.0876
X-5.0912
X-5.0925 Y-1.8052
X-5.0937 Y-1.8044
X-5.0944 Y-1.8033
X-5.0947 Y-1.802
X-5.0944 Y-1.8006
X-5.0937 Y-1.7995
X-5.0925 Y-1.7987
X-5.0912 Y-1.7985
X-5.0905
X-5.0898 Z-0.0697
X-5.0892 Z-0.0699
X-5.0884 Z-0.07
X-4.7148
X-4.7147 Z-0.1225
Z-0.135 F15
X-4.512 F60
X-4.5113 Z-0.1349
X-4.5106 Z-0.1347
X-4.5099 Z-0.1344
X-4.5092
X-4.5079 Y-1.7982
X-4.5068 Y-1.7974
X-4.506 Y-1.7963
X-4.5057 Y-1.795
X-4.506 Y-1.7936
X-4.5068 Y-1.7925
X-4.5079 Y-1.7917
X-4.5092 Y-1.7915
X-4.5165
X-4.5172
X-4.5179 Z-0.1347
X-4.5186 Z-0.1349
X-4.5193 Z-0.135
X-4.7077
X-4.7202 F15
Z-0.07 F60
X-5.092
X-5.0927 Z-0.0699
X-5.0934 Z-0.0697
X-5.0941 Z-0.0694
X-5.0948
X-5.0983
X-5.0997 Y-1.7912
X-5.1008 Y-1.7904
X-5.1016 Y-1.7893
X-5.1018 Y-1.788
X-5.1016 Y-1.7866
X-5.1008 Y-1.7855
X-5.0997 Y-1.7847
X-5.0983 Y-1.7845
X-5.0976
X-5.097 Z-0.0697
X-5.0963 Z-0.0699
X-5.0956 Z-0.07
X-4.7257
X-4.7256 Z-0.1225
Z-0.135 F15
X-4.5266 F60
X-4.5259 Z-0.1349
X-4.5252 Z-0.1347
X-4.5246 Z-0.1344
X-4.5239
X-4.5225 Y-1.7842
X-4.5214 Y-1.7834
X-4.5206 Y-1.7823
X-4.5204 Y-1.781
X-4.5206 Y-1.7796
X-4.5214 Y-1.7785
X-4.5225 Y-1.7777
X-4.5239 Y-1.7775
X-4.5311
X-4.5318
X-4.5325 Z-0.1347
X-4.5332 Z-0.1349
X-4.5339 Z-0.135
X-4.7183
X-4.7308 F15
X-4.7309 Z-0.07 F60
X-5.0992
X-5.0999 Z-0.0699
X-5.1005 Z-0.0697
X-5.1012 Z-0.0694
X-5.1019
X-5.1055
X-5.1068 Y-1.7772
X-5.108 Y-1.7764
X-5.1087 Y-1.7753
X-5.109 Y-1.774
X-5.1087 Y-1.7726
X-5.108 Y-1.7715
X-5.1068 Y-1.7707
X-5.1055 Y-1.7705
X-5.1048
X-5.1041 Z-0.0697
X-5.1034 Z-0.0699
X-5.1027 Z-0.07
X-4.7358
Z-0.1225
Z-0.135 F15
X-4.5406 F60
X-4.5399 Z-0.1349
X-4.5392 Z-0.1347
X-4.5385 Z-0.1344
X-4.5378
X-4.5365 Y-1.7702
X-4.5353 Y-1.7694
X-4.5346 Y-1.7683
X-4.5343 Y-1.767
X-4.5346 Y-1.7656
X-4.5353 Y-1.7645
X-4.5365 Y-1.7637
X-4.5378 Y-1.7635
X-4.5445
X-4.5452
X-4.5459 Z-0.1347
X-4.5466 Z-0.1349
X-4.5473 Z-0.135
X-4.7284
X-4.7409 F15
Z-0.07 F60
X-5.1062
X-5.1069 Z-0.0699
X-5.1075 Z-0.0697
X-5.1082 Z-0.0694
X-5.1089
X-5.1122
X-5.1135 Y-1.7632
X-5.1146 Y-1.7624
X-5.1154 Y-1.7613
X-5.1157 Y-1.76
X-5.1154 Y-1.7586
X-5.1146 Y-1.7575
X-5.1135 Y-1.7567
X-5.1122 Y-1.7565
X-5.1115
X-5.1108 Z-0.0697
X-5.1101 Z-0.0699
X-5.1094 Z-0.07
X-4.7459
Z-0.1225
Z-0.135 F15
X-4.554 F60
X-4.5533 Z-0.1349
X-4.5526 Z-0.1347
X-4.5519 Z-0.1344
X-4.5512
X-4.5499 Y-1.7562
X-4.5487 Y-1.7555
X-4.548 Y-1.7543
X-4.5477 Y-1.753
X-4.548 Y-1.7516
X-4.5487 Y-1.7505
X-4.5499 Y-1.7497
X-4.5512 Y-1.7495
X-4.5576
X-4.5583
X-4.559 Z-0.1347
X-4.5597 Z-0.1349
X-4.5604 Z-0.135
X-4.7383
X-4.7508 F15
X-4.7509 Z-0.07 F60
X-5.1127
X-5.1134 Z-0.0699
X-5.1141 Z-0.0697
X-5.1147 Z-0.0694
X-5.1154
X-5.1187
X-5.12 Y-1.7492
X-5.1212 Y-1.7485
X-5.1219 Y-1.7473
X-5.1222 Y-1.746
X-5.1219 Y-1.7446
X-5.1212 Y-1.7435
X-5.12 Y-1.7427
X-5.1187 Y-1.7425
X-5.118
X-5.1173 Z-0.0697
X-5.1166 Z-0.0699
X-5.1159 Z-0.07
X-4.7554
Z-0.1225
Z-0.135 F15
X-4.5665 F60
X-4.5658 Z-0.1349
X-4.5652 Z-0.1347
X-4.5645 Z-0.1344
X-4.5638
X-4.5624 Y-1.7422
X-4.5613 Y-1.7415
X-4.5606 Y-1.7403
X-4.5603 Y-1.739
X-4.5606 Y-1.7376
X-4.5613 Y-1.7365
X-4.5624 Y-1.7357
X-4.5638 Y-1.7355
X-4.5699
X-4.5706
X-4.5713 Z-0.1347
X-4.572 Z-0.1349
X-4.5727 Z-0.135
X-4.7476
X-4.7601 F15
Z-0.07 F60
X-5.1192
X-5.1199 Z-0.0699
X-5.1206 Z-0.0697
X-5.1213 Z-0.0694
X-5.122
X-5.1252
X-5.1266 Y-1.7352
X-5.1277 Y-1.7345
X-5.1285 Y-1.7333
X-5.1287 Y-1.732
X-5.1285 Y-1.7306
X-5.1277 Y-1.7295
X-5.1266 Y-1.7287
X-5.1252 Y-1.7285
X-5.1245
X-5.1238 Z-0.0697
X-5.1232 Z-0.0699
X-5.1225 Z-0.07
X-4.7649
X-4.7647 Z-0.1225
Z-0.135 F15
X-4.5788 F60
X-4.5781 Z-0.1349
X-4.5774 Z-0.1347
X-4.5768 Z-0.1344
X-4.5761
X-4.5747 Y-1.7282
X-4.5736 Y-1.7275
X-4.5728 Y-1.7263
X-4.5726 Y-1.725
X-4.5728 Y-1.7236
X-4.5736 Y-1.7225
X-4.5747 Y-1.7217
X-4.5761 Y-1.7215
X-4.5818
X-4.5825
X-4.5832 Z-0.1347
X-4.5839 Z-0.1349
X-4.5846 Z-0.135
X-4.7568
X-4.7693 F15
Z-0.07 F60
X-5.1255
X-5.1262 Z-0.0699
X-5.1269 Z-0.0697
X-5.1275 Z-0.0694
X-5.1283
X-5.1312
X-5.1326 Y-1.7212
X-5.1337 Y-1.7205
X-5.1345 Y-1.7193
X-5.1347 Y-1.718
X-5.1345 Y-1.7166
X-5.1337 Y-1.7155
X-5.1326 Y-1.7147
X-5.1312 Y-1.7145
X-5.1305
X-5.1298 Z-0.0697
X-5.1292 Z-0.0699
X-5.1285 Z-0.07
X-4.7736
Z-0.1225
Z-0.135 F15
X-4.5902 F60
X-4.5895 Z-0.1349
X-4.5888 Z-0.1347
X-4.5881 Z-0.1344
X-4.5874
X-4.5861 Y-1.7142
X-4.5849 Y-1.7135
X-4.5842 Y-1.7123
X-4.5839 Y-1.711
X-4.5842 Y-1.7096
X-4.5849 Y-1.7085
X-4.5861 Y-1.7077
X-4.5874 Y-1.7075
X-4.593
X-4.5937
X-4.5944 Z-0.1347
X-4.5951 Z-0.1349
X-4.5958 Z-0.135
X-4.7653
X-4.7778 F15
Z-0.07 F60
X-5.1314
X-5.1321 Z-0.0699
X-5.1328 Z-0.0697
X-5.1335 Z-0.0694
X-5.1342
X-5.1372
X-5.1385 Y-1.7072
X-5.1396 Y-1.7065
X-5.1404 Y-1.7053
X-5.1407 Y-1.704
X-5.1404 Y-1.7026
X-5.1396 Y-1.7015
X-5.1385 Y-1.7007
X-5.1372 Y-1.7005
X-5.1365
X-5.1358 Z-0.0697
X-5.1351 Z-0.0699
X-5.1344 Z-0.07
X-4.7821
Z-0.1225
Z-0.135 F15
X-4.6014 F60
X-4.6007 Z-0.1349
X-4.6 Z-0.1347
X-4.5993 Z-0.1344
X-4.5986
X-4.5973 Y-1.7002
X-4.5962 Y-1.6995
X-4.5954 Y-1.6983
X-4.5951 Y-1.697
X-4.5954 Y-1.6956
X-4.5962 Y-1.6945
X-4.5973 Y-1.6937
X-4.5986 Y-1.6935
X-4.6038
X-4.6046
X-4.6052 Z-0.1347
X-4.6059 Z-0.1349
X-4.6066 Z-0.135
X-4.7738
X-4.7863 F15
X-4.7865 Z-0.07 F60
X-5.1374
X-5.1381 Z-0.0699
X-5.1388 Z-0.0697
X-5.1394 Z-0.0694
X-5.1401
X-5.1431
X-5.1444 Y-1.6932
X-5.1456 Y-1.6925
X-5.1463 Y-1.6913
X-5.1466 Y-1.69
X-5.1463 Y-1.6886
X-5.1456 Y-1.6875
X-5.1444 Y-1.6867
X-5.1431 Y-1.6865
X-5.1424
X-5.1417 Z-0.0697
X-5.1411 Z-0.0699
X-5.1404 Z-0.07
X-4.7906
X-4.7905 Z-0.1225
Z-0.135 F15
X-4.6117 F60
X-4.611 Z-0.1349
X-4.6104 Z-0.1347
X-4.6097 Z-0.1344
X-4.609
X-4.6076 Y-1.6862
X-4.6065 Y-1.6855
X-4.6058 Y-1.6843
X-4.6055 Y-1.683
X-4.6058 Y-1.6816
X-4.6065 Y-1.6805
X-4.6076 Y-1.6797
X-4.609 Y-1.6795
X-4.6141
X-4.6148
X-4.6155 Z-0.1347
X-4.6162 Z-0.1349
X-4.6169 Z-0.135
X-4.7819
X-4.7944 F15
Z-0.07 F60
X-5.143
X-5.1437 Z-0.0699
X-5.1444 Z-0.0697
X-5.1451 Z-0.0694
X-5.1458
X-5.1485
X-5.1498 Y-1.6792
X-5.151 Y-1.6785
X-5.1517 Y-1.6773
X-5.152 Y-1.676
X-5.1517 Y-1.6746
X-5.151 Y-1.6735
X-5.1498 Y-1.6727
X-5.1485 Y-1.6725
X-5.1478
X-5.1471 Z-0.0697
X-5.1464 Z-0.0699
X-5.1457 Z-0.07
X-4.7982
Z-0.1225
Z-0.135 F15
X-4.622 F60
X-4.6213 Z-0.1349
X-4.6206 Z-0.1347
X-4.62 Z-0.1344
X-4.6193
X-4.6179 Y-1.6722
X-4.6168 Y-1.6715
X-4.616 Y-1.6703
X-4.6158 Y-1.669
X-4.616 Y-1.6676
X-4.6168 Y-1.6665
X-4.6179 Y-1.6657
X-4.6193 Y-1.6655
X-4.624
X-4.6247
X-4.6254 Z-0.1347
X-4.6261 Z-0.1349
X-4.6268 Z-0.135
X-4.7896
X-4.8021 F15
X-4.8022 Z-0.07 F60
X-5.1484
X-5.1491 Z-0.0699
X-5.1498 Z-0.0697
X-5.1505 Z-0.0694
X-5.1512
X-5.1539
X-5.1552 Y-1.6652
X-5.1563 Y-1.6645
X-5.1571 Y-1.6633
X-5.1574 Y-1.662
X-5.1571 Y-1.6606
X-5.1563 Y-1.6595
X-5.1552 Y-1.6587
X-5.1539 Y-1.6585
X-5.1532
X-5.1525 Z-0.0697
X-5.1518 Z-0.0699
X-5.1511 Z-0.07
X-4.8059
Z-0.1225
Z-0.135 F15
X-4.6314 F60
X-4.6307 Z-0.1349
X-4.6301 Z-0.1347
X-4.6294 Z-0.1344
X-4.6287
X-4.6273 Y-1.6582
X-4.6262 Y-1.6575
X-4.6255 Y-1.6563
X-4.6252 Y-1.655
X-4.6255 Y-1.6536
X-4.6262 Y-1.6525
X-4.6273 Y-1.6517
X-4.6287 Y-1.6515
X-4.6334
X-4.6341
X-4.6347 Z-0.1347
X-4.6354 Z-0.1349
X-4.6361 Z-0.135
X-4.7971
X-4.8096 F15
X-4.8098 Z-0.07 F60
X-5.1538
X-5.1545 Z-0.0699
X-5.1552 Z-0.0697
X-5.1558 Z-0.0694
X-5.1565
X-5.1592
X-5.1605 Y-1.6512
X-5.1617 Y-1.6505
X-5.1624 Y-1.6493
X-5.1627 Y-1.648
X-5.1624 Y-1.6466
X-5.1617 Y-1.6455
X-5.1605 Y-1.6447
X-5.1592 Y-1.6445
X-5.1585
X-5.1578 Z-0.0697
X-5.1572 Z-0.0699
X-5.1565 Z-0.07
X-4.8131
Z-0.1225
Z-0.135 F15
X-4.6408 F60
X-4.6401 Z-0.1349
X-4.6394 Z-0.1347
X-4.6387 Z-0.1344
X-4.638
X-4.6367 Y-1.6442
X-4.6356 Y-1.6435
X-4.6348 Y-1.6423
X-4.6345 Y-1.641
X-4.6348 Y-1.6396
X-4.6356 Y-1.6385
X-4.6367 Y-1.6377
X-4.638 Y-1.6375
X-4.6424
X-4.6431
X-4.6438 Z-0.1347
X-4.6444 Z-0.1349
X-4.6452 Z-0.135
X-4.8041
X-4.8166 F15
X-4.8168 Z-0.07 F60
X-5.1589
X-5.1596 Z-0.0699
X-5.1602 Z-0.0697
X-5.1609 Z-0.0694
X-5.1616
X-5.164
X-5.1654 Y-1.6372
X-5.1665 Y-1.6365
X-5.1673 Y-1.6353
X-5.1675 Y-1.634
X-5.1673 Y-1.6326
X-5.1665 Y-1.6315
X-5.1654 Y-1.6307
X-5.164 Y-1.6305
X-5.1633
X-5.1626 Z-0.0697
X-5.162 Z-0.0699
X-5.1613 Z-0.07
X-4.8201
Z-0.1225
Z-0.135 F15
X-4.6494 F60
X-4.6487 Z-0.1349
X-4.648 Z-0.1347
X-4.6474 Z-0.1344
X-4.6467
X-4.6453 Y-1.6302
X-4.6442 Y-1.6295
X-4.6434 Y-1.6283
X-4.6432 Y-1.627
X-4.6434 Y-1.6256
X-4.6442 Y-1.6245
X-4.6453 Y-1.6237
X-4.6467 Y-1.6235
X-4.6509
X-4.6516
X-4.6523 Z-0.1347
X-4.6529 Z-0.1349
X-4.6537 Z-0.135
X-4.8111
X-4.8236 F15
Z-0.07 F60
X-5.1637
X-5.1644 Z-0.0699
X-5.1651 Z-0.0697
X-5.1657 Z-0.0694
X-5.1664
X-5.1688
X-5.1702 Y-1.6232
X-5.1713 Y-1.6225
X-5.1721 Y-1.6213
X-5.1723 Y-1.62
X-5.1721 Y-1.6186
X-5.1713 Y-1.6175
X-5.1702 Y-1.6167
X-5.1688 Y-1.6165
X-5.1681
X-5.1675 Z-0.0697
X-5.1668 Z-0.0699
X-5.1661 Z-0.07
X-4.827
Z-0.1225
Z-0.135 F15
X-4.6579 F60
X-4.6572 Z-0.1349
X-4.6565 Z-0.1347
X-4.6559 Z-0.1344
X-4.6552
X-4.6538 Y-1.6162
X-4.6527 Y-1.6155
X-4.6519 Y-1.6143
X-4.6517 Y-1.613
X-4.6519 Y-1.6116
X-4.6527 Y-1.6105
X-4.6538 Y-1.6097
X-4.6552 Y-1.6095
X-4.6592
X-4.6599
X-4.6606 Z-0.1347
X-4.6613 Z-0.1349
X-4.662 Z-0.135
X-4.8176
X-4.8301 F15
X-4.8302 Z-0.07 F60
X-5.1685
X-5.1692 Z-0.0699
X-5.1699 Z-0.0697
X-5.1705 Z-0.0694
X-5.1713
X-5.1736
X-5.175 Y-1.6092
X-5.1761 Y-1.6085
X-5.1769 Y-1.6073
X-5.1771 Y-1.606
X-5.1769 Y-1.6046
X-5.1761 Y-1.6035
X-5.175 Y-1.6027
X-5.1736 Y-1.6025
X-5.1729
X-5.1722 Z-0.0697
X-5.1716 Z-0.0699
X-5.1709 Z-0.07
X-4.8334
X-4.8333 Z-0.1225
Z-0.135 F15
X-4.6658 F60
X-4.6651 Z-0.1349
X-4.6644 Z-0.1347
X-4.6638 Z-0.1344
X-4.6631
X-4.6617 Y-1.6022
X-4.6606 Y-1.6015
X-4.6598 Y-1.6003
X-4.6596 Y-1.599
X-4.6598 Y-1.5976
X-4.6606 Y-1.5965
X-4.6617 Y-1.5957
X-4.6631 Y-1.5955
X-4.6669
X-4.6676
X-4.6683 Z-0.1347
X-4.669 Z-0.1349
X-4.6697 Z-0.135
X-4.8239
X-4.8364 F15
X-4.8366 Z-0.07 F60
X-5.173
X-5.1737 Z-0.0699
X-5.1744 Z-0.0697
X-5.1751 Z-0.0694
X-5.1758
X-5.1779
X-5.1792 Y-1.5952
X-5.1804 Y-1.5945
X-5.1811 Y-1.5933
X-5.1814 Y-1.592
X-5.1811 Y-1.5906
X-5.1804 Y-1.5895
X-5.1792 Y-1.5887
X-5.1779 Y-1.5885
X-5.1772
X-5.1765 Z-0.0697
X-5.1759 Z-0.0699
X-5.1752 Z-0.07
X-4.8397
X-4.8396 Z-0.1225
Z-0.135 F15
X-4.6735 F60
X-4.6728 Z-0.1349
X-4.6721 Z-0.1347
X-4.6715 Z-0.1344
X-4.6708
X-4.6694 Y-1.5882
X-4.6683 Y-1.5875
X-4.6675 Y-1.5863
X-4.6673 Y-1.585
X-4.6675 Y-1.5836
X-4.6683 Y-1.5825
X-4.6694 Y-1.5817
X-4.6708 Y-1.5815
X-4.6746
X-4.6753
X-4.676 Z-0.1347
X-4.6766 Z-0.1349
X-4.6773 Z-0.135
X-4.8301
X-4.8426 F15
Z-0.07 F60
X-5.1773
X-5.178 Z-0.0699
X-5.1787 Z-0.0697
X-5.1793 Z-0.0694
X-5.18
X-5.1822
X-5.1835 Y-1.5812
X-5.1847 Y-1.5805
X-5.1854 Y-1.5793
X-5.1857 Y-1.578
X-5.1854 Y-1.5766
X-5.1847 Y-1.5755
X-5.1835 Y-1.5747
X-5.1822 Y-1.5745
X-5.1815
X-5.1808 Z-0.0697
X-5.1801 Z-0.0699
X-5.1794 Z-0.07
X-4.8454
Z-0.1225
Z-0.135 F15
X-4.6808 F60
X-4.6801 Z-0.1349
X-4.6794 Z-0.1347
X-4.6787 Z-0.1344
X-4.678
X-4.6767 Y-1.5742
X-4.6756 Y-1.5735
X-4.6748 Y-1.5723
X-4.6745 Y-1.571
X-4.6748 Y-1.5696
X-4.6756 Y-1.5685
X-4.6767 Y-1.5677
X-4.678 Y-1.5675
X-4.6815
X-4.6822
X-4.6829 Z-0.1347
X-4.6835 Z-0.1349
X-4.6842 Z-0.135
X-4.8357
X-4.8482 F15
X-4.8484 Z-0.07 F60
X-5.1816
X-5.1823 Z-0.0699
X-5.183 Z-0.0697
X-5.1836 Z-0.0694
X-5.1843
X-5.1864
X-5.1878 Y-1.5672
X-5.1889 Y-1.5665
X-5.1897 Y-1.5653
X-5.1899 Y-1.564
X-5.1897 Y-1.5626
X-5.1889 Y-1.5615
X-5.1878 Y-1.5607
X-5.1864 Y-1.5605
X-5.1857
X-5.1851 Z-0.0697
X-5.1844 Z-0.0699
X-5.1837 Z-0.07
X-4.8512
X-4.851 Z-0.1225
Z-0.135 F15
X-4.6877 F60
X-4.687 Z-0.1349
X-4.6863 Z-0.1347
X-4.6856 Z-0.1344
X-4.6849
X-4.6836 Y-1.5602
X-4.6825 Y-1.5595
X-4.6817 Y-1.5583
X-4.6814 Y-1.557
X-4.6817 Y-1.5556
X-4.6825 Y-1.5545
X-4.6836 Y-1.5537
X-4.6849 Y-1.5535
X-4.6884
X-4.6891
X-4.6898 Z-0.1347
X-4.6904 Z-0.1349
X-4.6911 Z-0.135
X-4.8413
X-4.8538 F15
X-4.8539 Z-0.07 F60
X-5.1856
X-5.1863 Z-0.0699
X-5.1869 Z-0.0697
X-5.1876 Z-0.0694
X-5.1883
X-5.1902
X-5.1915 Y-1.5532
X-5.1927 Y-1.5525
X-5.1934 Y-1.5513
X-5.1937 Y-1.55
X-5.1934 Y-1.5486
X-5.1927 Y-1.5475
X-5.1915 Y-1.5467
X-5.1902 Y-1.5465
X-5.1895
X-5.1888 Z-0.0697
X-5.1881 Z-0.0699
X-5.1874 Z-0.07
X-4.8565
Z-0.1225
Z-0.135 F15
X-4.6944 F60
X-4.6937 Z-0.1349
X-4.693 Z-0.1347
X-4.6923 Z-0.1344
X-4.6916
X-4.6903 Y-1.5462
X-4.6891 Y-1.5455
X-4.6884 Y-1.5443
X-4.6881 Y-1.543
X-4.6884 Y-1.5416
X-4.6891 Y-1.5405
X-4.6903 Y-1.5397
X-4.6916 Y-1.5395
X-4.6947
X-4.6954
X-4.6961 Z-0.1347
X-4.6967 Z-0.1349
X-4.6974 Z-0.135
X-4.8465
X-4.859 F15
X-4.8592 Z-0.07 F60
X-5.1893
X-5.19 Z-0.0699
X-5.1907 Z-0.0697
X-5.1914 Z-0.0694
X-5.1921
X-5.1939
X-5.1953 Y-1.5392
X-5.1964 Y-1.5385
X-5.1972 Y-1.5373
X-5.1974 Y-1.536
X-5.1972 Y-1.5346
X-5.1964 Y-1.5335
X-5.1953 Y-1.5327
X-5.1939 Y-1.5325
X-5.1932
X-5.1926 Z-0.0697
X-5.1919 Z-0.0699
X-5.1912 Z-0.07
X-4.8616
X-4.8615 Z-0.1225
Z-0.135 F15
X-4.7005 F60
X-4.6998 Z-0.1349
X-4.6992 Z-0.1347
X-4.6985 Z-0.1344
X-4.6978
X-4.6964 Y-1.5322
X-4.6953 Y-1.5315
X-4.6945 Y-1.5303
X-4.6943 Y-1.529
X-4.6945 Y-1.5276
X-4.6953 Y-1.5265
X-4.6964 Y-1.5257
X-4.6978 Y-1.5255
X-4.7009
X-4.7016
X-4.7022 Z-0.1347
X-4.7029 Z-0.1349
X-4.7036 Z-0.135
X-4.8515
X-4.864 F15
Z-0.07 F60
X-5.1931
X-5.1938 Z-0.0699
X-5.1944 Z-0.0697
X-5.1951 Z-0.0694
X-5.1958
X-5.1977
X-5.199 Y-1.5252
X-5.2002 Y-1.5245
X-5.2009 Y-1.5233
X-5.2012 Y-1.522
X-5.2009 Y-1.5206
X-5.2002 Y-1.5195
X-5.199 Y-1.5187
X-5.1977 Y-1.5185
X-5.197
X-5.1963 Z-0.0697
X-5.1956 Z-0.0699
X-5.1949 Z-0.07
X-4.8665
Z-0.1225
Z-0.135 F15
X-4.7067 F60
X-4.706 Z-0.1349
X-4.7053 Z-0.1347
X-4.7046 Z-0.1344
X-4.7039
X-4.7026 Y-1.5182
X-4.7015 Y-1.5175
X-4.7007 Y-1.5163
X-4.7004 Y-1.515
X-4.7007 Y-1.5136
X-4.7015 Y-1.5125
X-4.7026 Y-1.5117
X-4.7039 Y-1.5115
X-4.7066
X-4.7074
X-4.708 Z-0.1347
X-4.7087 Z-0.1349
X-4.7094 Z-0.135
X-4.8564
X-4.8689 F15
X-4.8691 Z-0.07 F60
X-5.1965
X-5.1973 Z-0.0699
X-5.1979 Z-0.0697
X-5.1986 Z-0.0694
X-5.1993
X-5.2009
X-5.2023 Y-1.5112
X-5.2034 Y-1.5105
X-5.2041 Y-1.5093
X-5.2044 Y-1.508
X-5.2041 Y-1.5066
X-5.2034 Y-1.5055
X-5.2023 Y-1.5047
X-5.2009 Y-1.5045
X-5.2002
X-5.1995 Z-0.0697
X-5.1989 Z-0.0699
X-5.1982 Z-0.07
X-4.8711
Z-0.1225
Z-0.135 F15
X-4.7121 F60
X-4.7114 Z-0.1349
X-4.7107 Z-0.1347
X-4.7101 Z-0.1344
X-4.7094
X-4.708 Y-1.5042
X-4.7069 Y-1.5035
X-4.7061 Y-1.5023
X-4.7059 Y-1.501
X-4.7061 Y-1.4996
X-4.7069 Y-1.4985
X-4.708 Y-1.4977
X-4.7094 Y-1.4975
X-4.7121
X-4.7128
X-4.7135 Z-0.1347
X-4.7141 Z-0.1349
X-4.7148 Z-0.135
X-4.8608
X-4.8733 F15
Z-0.07 F60
X-5.1998
X-5.2005 Z-0.0699
X-5.2012 Z-0.0697
X-5.2018 Z-0.0694
X-5.2025
X-5.2041
X-5.2055 Y-1.4972
X-5.2066 Y-1.4965
X-5.2074 Y-1.4953
X-5.2076 Y-1.494
X-5.2074 Y-1.4926
X-5.2066 Y-1.4915
X-5.2055 Y-1.4907
X-5.2041 Y-1.4905
X-5.2034
X-5.2028 Z-0.0697
X-5.2021 Z-0.0699
X-5.2014 Z-0.07
X-4.8756
X-4.8755 Z-0.1225
Z-0.135 F15
X-4.7176 F60
X-4.7169 Z-0.1349
X-4.7162 Z-0.1347
X-4.7155 Z-0.1344
X-4.7148
X-4.7135 Y-1.4902
X-4.7123 Y-1.4895
X-4.7116 Y-1.4883
X-4.7113 Y-1.487
X-4.7116 Y-1.4856
X-4.7123 Y-1.4845
X-4.7135 Y-1.4837
X-4.7148 Y-1.4835
X-4.7174
X-4.7181
X-4.7188 Z-0.1347
X-4.7194 Z-0.1349
X-4.7201 Z-0.135
X-4.8651
X-4.8776 F15
X-4.8778 Z-0.07 F60
X-5.203
X-5.2037 Z-0.0699
X-5.2044 Z-0.0697
X-5.205 Z-0.0694
X-5.2058
X-5.2074
X-5.2087 Y-1.4832
X-5.2098 Y-1.4825
X-5.2106 Y-1.4813
X-5.2109 Y-1.48
X-5.2106 Y-1.4786
X-5.2098 Y-1.4775
X-5.2087 Y-1.4767
X-5.2074 Y-1.4765
X-5.2067
X-5.206 Z-0.0697
X-5.2053 Z-0.0699
X-5.2046 Z-0.07
X-4.8798
Z-0.1225
Z-0.135 F15
X-4.7225 F60
X-4.7218 Z-0.1349
X-4.7211 Z-0.1347
X-4.7205 Z-0.1344
X-4.7198
X-4.7184 Y-1.4762
X-4.7173 Y-1.4755
X-4.7165 Y-1.4743
X-4.7163 Y-1.473
X-4.7165 Y-1.4716
X-4.7173 Y-1.4705
X-4.7184 Y-1.4697
X-4.7198 Y-1.4695
X-4.7221
X-4.7229
X-4.7235 Z-0.1347
X-4.7242 Z-0.1349
X-4.7249 Z-0.135
X-4.8692
X-4.8817 F15
X-4.8819 Z-0.07 F60
X-5.206
X-5.2067 Z-0.0699
X-5.2074 Z-0.0697
X-5.2081 Z-0.0694
X-5.2088
X-5.2101
X-5.2115 Y-1.4692
X-5.2126 Y-1.4685
X-5.2134 Y-1.4673
X-5.2136 Y-1.466
X-5.2134 Y-1.4646
X-5.2126 Y-1.4635
X-5.2115 Y-1.4627
X-5.2101 Y-1.4625
X-5.2094
X-5.2088 Z-0.0697
X-5.2081 Z-0.0699
X-5.2074 Z-0.07
X-4.8836
Z-0.1225
Z-0.135 F15
X-4.7273 F60
X-4.7266 Z-0.1349
X-4.7259 Z-0.1347
X-4.7252 Z-0.1344
X-4.7245
X-4.7232 Y-1.4622
X-4.7221 Y-1.4615
X-4.7213 Y-1.4603
X-4.721 Y-1.459
X-4.7213 Y-1.4576
X-4.7221 Y-1.4565
X-4.7232 Y-1.4557
X-4.7245 Y-1.4555
X-4.7269
X-4.7276
X-4.7283 Z-0.1347
X-4.7289 Z-0.1349
X-4.7297 Z-0.135
X-4.8729
X-4.8854 F15
X-4.8856 Z-0.07 F60
X-5.2087
X-5.2094 Z-0.0699
X-5.2101 Z-0.0697
X-5.2108 Z-0.0694
X-5.2115
X-5.2128
X-5.2142 Y-1.4552
X-5.2153 Y-1.4545
X-5.2161 Y-1.4533
X-5.2163 Y-1.452
X-5.2161 Y-1.4506
X-5.2153 Y-1.4495
X-5.2142 Y-1.4487
X-5.2128 Y-1.4485
X-5.2121
X-5.2115 Z-0.0697
X-5.2108 Z-0.0699
X-5.2101 Z-0.07
X-4.8874
X-4.8873 Z-0.1225
Z-0.135 F15
X-4.7318 F60
X-4.7311 Z-0.1349
X-4.7304 Z-0.1347
X-4.7298 Z-0.1344
X-4.7291
X-4.7277 Y-1.4482
X-4.7266 Y-1.4475
X-4.7258 Y-1.4463
X-4.7256 Y-1.445
X-4.7258 Y-1.4436
X-4.7266 Y-1.4425
X-4.7277 Y-1.4417
X-4.7291 Y-1.4415
X-4.7311
X-4.7318
X-4.7325 Z-0.1347
X-4.7331 Z-0.1349
X-4.7338 Z-0.135
X-4.8767
X-4.8892 F15
Z-0.07 F60
X-5.2115
X-5.2122 Z-0.0699
X-5.2128 Z-0.0697
X-5.2135 Z-0.0694
X-5.2142
X-5.2156
X-5.2169 Y-1.4412
X-5.218 Y-1.4405
X-5.2188 Y-1.4393
X-5.2191 Y-1.438
X-5.2188 Y-1.4366
X-5.218 Y-1.4355
X-5.2169 Y-1.4347
X-5.2156 Y-1.4345
X-5.2149
X-5.2142 Z-0.0697
X-5.2135 Z-0.0699
X-5.2128 Z-0.07
X-4.8908
Z-0.1225
Z-0.135 F15
X-4.7359 F60
X-4.7352 Z-0.1349
X-4.7345 Z-0.1347
X-4.7338 Z-0.1344
X-4.7331
X-4.7318 Y-1.4342
X-4.7307 Y-1.4335
X-4.7299 Y-1.4323
X-4.7296 Y-1.431
X-4.7299 Y-1.4296
X-4.7307 Y-1.4285
X-4.7318 Y-1.4277
X-4.7331 Y-1.4275
X-4.7352
X-4.7359
X-4.7366 Z-0.1347
X-4.7372 Z-0.1349
X-4.7379 Z-0.135
X-4.8799
X-4.8924 F15
X-4.8925 Z-0.07 F60
X-5.214
X-5.2147 Z-0.0699
X-5.2154 Z-0.0697
X-5.2161 Z-0.0694
X-5.2168
X-5.2179
X-5.2192 Y-1.4272
X-5.2203 Y-1.4265
X-5.2211 Y-1.4253
X-5.2214 Y-1.424
X-5.2211 Y-1.4226
X-5.2203 Y-1.4215
X-5.2192 Y-1.4207
X-5.2179 Y-1.4205
X-5.2172
X-5.2165 Z-0.0697
X-5.2158 Z-0.0699
X-5.2151 Z-0.07
X-4.894
Z-0.1225
Z-0.135 F15
X-4.74 F60
X-4.7393 Z-0.1349
X-4.7386 Z-0.1347
X-4.7379 Z-0.1344
X-4.7372
X-4.7359 Y-1.4202
X-4.7347 Y-1.4195
X-4.734 Y-1.4183
X-4.7337 Y-1.417
X-4.734 Y-1.4156
X-4.7347 Y-1.4145
X-4.7359 Y-1.4137
X-4.7372 Y-1.4135
X-4.739
X-4.7397
X-4.7403 Z-0.1347
X-4.741 Z-0.1349
X-4.7417 Z-0.135
X-4.8831
X-4.8956 F15
Z-0.07 F60
X-5.2162
X-5.2169 Z-0.0699
X-5.2176 Z-0.0697
X-5.2183 Z-0.0694
X-5.219
X-5.2201
X-5.2214 Y-1.4132
X-5.2226 Y-1.4125
X-5.2233 Y-1.4113
X-5.2236 Y-1.41
X-5.2233 Y-1.4086
X-5.2226 Y-1.4075
X-5.2214 Y-1.4067
X-5.2201 Y-1.4065
X-5.2194
X-5.2187 Z-0.0697
X-5.2181 Z-0.0699
X-5.2173 Z-0.07
X-4.8973
X-4.8972 Z-0.1225
X-4.8971 Z-0.135 F15
X-4.7434 F60
X-4.7427 Z-0.1349
X-4.7421 Z-0.1347
X-4.7414 Z-0.1344
X-4.7407
X-4.7394 Y-1.4062
X-4.7382 Y-1.4055
X-4.7375 Y-1.4043
X-4.7372 Y-1.403
X-4.7375 Y-1.4016
X-4.7382 Y-1.4005
X-4.7394 Y-1.3997
X-4.7407 Y-1.3995
X-4.7424
X-4.7431
X-4.7438 Z-0.1347
X-4.7444 Z-0.1349
X-4.7452 Z-0.135
X-4.8861
X-4.8986 F15
X-4.8987 Z-0.07 F60
X-5.2185
X-5.2192 Z-0.0699
X-5.2198 Z-0.0697
X-5.2205 Z-0.0694
X-5.2212
X-5.2223
X-5.2237 Y-1.3992
X-5.2248 Y-1.3985
X-5.2256 Y-1.3973
X-5.2258 Y-1.396
X-5.2256 Y-1.3946
X-5.2248 Y-1.3935
X-5.2237 Y-1.3927
X-5.2223 Y-1.3925
X-5.2216
X-5.2209 Z-0.0697
X-5.2203 Z-0.0699
X-5.2196 Z-0.07
X-4.8999
Z-0.1225
Z-0.135 F15
X-4.7469 F60
X-4.7462 Z-0.1349
X-4.7455 Z-0.1347
X-4.7448 Z-0.1344
X-4.7441
X-4.7428 Y-1.3922
X-4.7416 Y-1.3915
X-4.7409 Y-1.3903
X-4.7406 Y-1.389
X-4.7409 Y-1.3876
X-4.7416 Y-1.3865
X-4.7428 Y-1.3857
X-4.7441 Y-1.3855
X-4.7458
X-4.7465
X-4.7472 Z-0.1347
X-4.7479 Z-0.1349
X-4.7486 Z-0.135
X-4.8887
X-4.9012 F15
Z-0.07 F60
X-5.2206
X-5.2213 Z-0.0699
X-5.2219 Z-0.0697
X-5.2226 Z-0.0694
X-5.2233
X-5.2242
X-5.2255 Y-1.3852
X-5.2267 Y-1.3845
X-5.2274 Y-1.3833
X-5.2277 Y-1.382
X-5.2274 Y-1.3806
X-5.2267 Y-1.3795
X-5.2255 Y-1.3787
X-5.2242 Y-1.3785
X-5.2235
X-5.2228 Z-0.0697
X-5.2221 Z-0.0699
X-5.2214 Z-0.07
X-4.9025
Z-0.1225
X-4.9024 Z-0.135 F15
X-4.75 F60
X-4.7493 Z-0.1349
X-4.7486 Z-0.1347
X-4.7479 Z-0.1344
X-4.7472
X-4.7459 Y-1.3782
X-4.7447 Y-1.3775
X-4.744 Y-1.3763
X-4.7437 Y-1.375
X-4.744 Y-1.3736
X-4.7447 Y-1.3725
X-4.7459 Y-1.3717
X-4.7472 Y-1.3715
X-4.7486
X-4.7493
X-4.75 Z-0.1347
X-4.7507 Z-0.1349
X-4.7514 Z-0.135
X-4.8912
X-4.9037 F15
X-4.9039 Z-0.07 F60
X-5.2223
X-5.223 Z-0.0699
X-5.2237 Z-0.0697
X-5.2243 Z-0.0694
X-5.225
X-5.2259
X-5.2272 Y-1.3712
X-5.2284 Y-1.3705
X-5.2291 Y-1.3693
X-5.2294 Y-1.368
X-5.2291 Y-1.3666
X-5.2284 Y-1.3655
X-5.2272 Y-1.3647
X-5.2259 Y-1.3645
X-5.2252
X-5.2245 Z-0.0697
X-5.2238 Z-0.0699
X-5.2231 Z-0.07
X-4.905
Z-0.1225
Z-0.135 F15
X-4.7528 F60
X-4.752 Z-0.1349
X-4.7514 Z-0.1347
X-4.7507 Z-0.1344
X-4.75
X-4.7487 Y-1.3642
X-4.7475 Y-1.3635
X-4.7468 Y-1.3623
X-4.7465 Y-1.361
X-4.7468 Y-1.3596
X-4.7475 Y-1.3585
X-4.7487 Y-1.3577
X-4.75 Y-1.3575
X-4.7514
X-4.7521
X-4.7528 Z-0.1347
X-4.7534 Z-0.1349
X-4.7541 Z-0.135
X-4.8935
X-4.906 F15
Z-0.07 F60
X-5.224
X-5.2247 Z-0.0699
X-5.2254 Z-0.0697
X-5.226 Z-0.0694
X-5.2267
X-5.2276
X-5.2289 Y-1.3572
X-5.2301 Y-1.3565
X-5.2308 Y-1.3553
X-5.2311 Y-1.354
X-5.2308 Y-1.3526
X-5.2301 Y-1.3515
X-5.2289 Y-1.3507
X-5.2276 Y-1.3505
X-5.2269
X-5.2262 Z-0.0697
X-5.2256 Z-0.0699
X-5.2248 Z-0.07
X-4.907
Z-0.1225
Z-0.135 F15
X-4.7555 F60
X-4.7548 Z-0.1349
X-4.7541 Z-0.1347
X-4.7535 Z-0.1344
X-4.7527
X-4.7514 Y-1.3502
X-4.7503 Y-1.3495
X-4.7495 Y-1.3483
X-4.7492 Y-1.347
X-4.7495 Y-1.3456
X-4.7503 Y-1.3445
X-4.7514 Y-1.3437
X-4.7527 Y-1.3435
X-4.7538
X-4.7545
X-4.7552 Z-0.1347
X-4.7559 Z-0.1349
X-4.7566 Z-0.135
X-4.8955
X-4.908 F15
X-4.9081 Z-0.07 F60
X-5.2257
X-5.2264 Z-0.0699
X-5.227 Z-0.0697
X-5.2277 Z-0.0694
X-5.2284
X-5.229
X-5.2304 Y-1.3432
X-5.2315 Y-1.3425
X-5.2323 Y-1.3413
X-5.2325 Y-1.34
X-5.2323 Y-1.3386
X-5.2315 Y-1.3375
X-5.2304 Y-1.3367
X-5.229 Y-1.3365
X-5.2283
X-5.2276 Z-0.0697
X-5.227 Z-0.0699
X-5.2263 Z-0.07
X-4.9092
X-4.909 Z-0.1225
Z-0.135 F15
X-4.7577 F60
X-4.7569 Z-0.1349
X-4.7563 Z-0.1347
X-4.7556 Z-0.1344
X-4.7549
X-4.7536 Y-1.3362
X-4.7524 Y-1.3355
X-4.7517 Y-1.3343
X-4.7514 Y-1.333
X-4.7517 Y-1.3316
X-4.7524 Y-1.3305
X-4.7536 Y-1.3297
X-4.7549 Y-1.3295
X-4.756
X-4.7567
X-4.7574 Z-0.1347
X-4.758 Z-0.1349
X-4.7587 Z-0.135
X-4.8975
X-4.91 F15
Z-0.07 F60
X-5.2269
X-5.2276 Z-0.0699
X-5.2283 Z-0.0697
X-5.2289 Z-0.0694
X-5.2296
X-5.2303
X-5.2316 Y-1.3292
X-5.2327 Y-1.3285
X-5.2335 Y-1.3273
X-5.2338 Y-1.326
X-5.2335 Y-1.3246
X-5.2327 Y-1.3235
X-5.2316 Y-1.3227
X-5.2303 Y-1.3225
X-5.2295
X-5.2289 Z-0.0697
X-5.2282 Z-0.0699
X-5.2275 Z-0.07
X-4.9108
Z-0.1225
Z-0.135 F15
X-4.7598 F60
X-4.7591 Z-0.1349
X-4.7584 Z-0.1347
X-4.7578 Z-0.1344
X-4.7571
X-4.7557 Y-1.3222
X-4.7546 Y-1.3215
X-4.7538 Y-1.3203
X-4.7536 Y-1.319
X-4.7538 Y-1.3176
X-4.7546 Y-1.3165
X-4.7557 Y-1.3157
X-4.7571 Y-1.3155
X-4.7581
X-4.7588
X-4.7595 Z-0.1347
X-4.7601 Z-0.1349
X-4.7608 Z-0.135
X-4.899
X-4.9115 F15
X-4.9116 Z-0.07 F60
X-5.2281
X-5.2288 Z-0.0699
X-5.2295 Z-0.0697
X-5.2302 Z-0.0694
X-5.2309
X-5.2315
X-5.2328 Y-1.3152
X-5.234 Y-1.3145
X-5.2347 Y-1.3133
X-5.235 Y-1.312
X-5.2347 Y-1.3106
X-5.234 Y-1.3095
X-5.2328 Y-1.3087
X-5.2315 Y-1.3085
X-5.2308
X-5.2301 Z-0.0697
X-5.2294 Z-0.0699
X-5.2287 Z-0.07
X-4.9122
Z-0.1225
Z-0.135 F15
X-4.7616 F60
X-4.7609 Z-0.1349
X-4.7602 Z-0.1347
X-4.7595 Z-0.1344
X-4.7588
X-4.7575 Y-1.3082
X-4.7564 Y-1.3075
X-4.7556 Y-1.3063
X-4.7553 Y-1.305
X-4.7556 Y-1.3036
X-4.7564 Y-1.3025
X-4.7575 Y-1.3017
X-4.7588 Y-1.3015
X-4.7596
X-4.7603
X-4.761 Z-0.1347
X-4.7616 Z-0.1349
X-4.7624 Z-0.135
X-4.9004
X-4.9129 F15
Z-0.07 F60
X-5.2293
X-5.2301 Z-0.0699
X-5.2307 Z-0.0697
X-5.2314 Z-0.0694
X-5.2321
X-5.2325
X-5.2338 Y-1.3012
X-5.235 Y-1.3005
X-5.2357 Y-1.2993
X-5.236 Y-1.298
X-5.2357 Y-1.2966
X-5.235 Y-1.2955
X-5.2338 Y-1.2947
X-5.2325 Y-1.2945
X-5.2318
X-5.2311 Z-0.0697
X-5.2304 Z-0.0699
X-5.2297 Z-0.07
X-4.9136
Z-0.1225
Z-0.135 F15
X-4.7631 F60
X-4.7624 Z-0.1349
X-4.7617 Z-0.1347
X-4.7611 Z-0.1344
X-4.7604
X-4.759 Y-1.2942
X-4.7579 Y-1.2935
X-4.7571 Y-1.2923
X-4.7569 Y-1.291
X-4.7571 Y-1.2896
X-4.7579 Y-1.2885
X-4.759 Y-1.2877
X-4.7604 Y-1.2875
X-4.7611
X-4.7618
X-4.7625 Z-0.1347
X-4.7632 Z-0.1349
X-4.7639 Z-0.135
X-4.9017
X-4.9142 F15
X-4.9144 Z-0.07 F60
X-5.2301
X-5.2308 Z-0.0699
X-5.2315 Z-0.0697
X-5.2322 Z-0.0694
X-5.2329
X-5.2332
X-5.2346 Y-1.2872
X-5.2357 Y-1.2865
X-5.2365 Y-1.2853
X-5.2367 Y-1.284
X-5.2365 Y-1.2826
X-5.2357 Y-1.2815
X-5.2346 Y-1.2807
X-5.2332 Y-1.2805
X-5.2325
X-5.2319 Z-0.0697
X-5.2312 Z-0.0699
X-5.2305 Z-0.07
X-4.9147
Z-0.1225
Z-0.135 F15
X-4.7646 F60
X-4.7639 Z-0.1349
X-4.7632 Z-0.1347
X-4.7625 Z-0.1344
X-4.7618
X-4.7605 Y-1.2802
X-4.7593 Y-1.2795
X-4.7586 Y-1.2783
X-4.7583 Y-1.277
X-4.7586 Y-1.2756
X-4.7593 Y-1.2745
X-4.7605 Y-1.2737
X-4.7618 Y-1.2735
X-4.7623
X-4.763
X-4.7636 Z-0.1347
X-4.7643 Z-0.1349
X-4.765 Z-0.135
X-4.9026
X-4.9151 F15
X-4.9152 Z-0.07 F60
X-5.2308
X-5.2316 Z-0.0699
X-5.2322 Z-0.0697
X-5.2329 Z-0.0694
X-5.2336
X-5.234
X-5.2353 Y-1.2732
X-5.2364 Y-1.2725
X-5.2372 Y-1.2713
X-5.2375 Y-1.27
X-5.2372 Y-1.2686
X-5.2364 Y-1.2675
X-5.2353 Y-1.2667
X-5.234 Y-1.2665
X-5.2333
X-5.2326 Z-0.0697
X-5.2319 Z-0.0699
X-5.2312 Z-0.07
X-4.9156
X-4.9155 Z-0.1225
Z-0.135 F15
X-4.7655 F60
X-4.7648 Z-0.1349
X-4.7641 Z-0.1347
X-4.7634 Z-0.1344
X-4.7627
X-4.7614 Y-1.2662
X-4.7603 Y-1.2655
X-4.7595 Y-1.2643
X-4.7592 Y-1.263
X-4.7595 Y-1.2616
X-4.7603 Y-1.2605
X-4.7614 Y-1.2597
X-4.7627 Y-1.2595
X-4.7632
X-4.7639
X-4.7646 Z-0.1347
X-4.7652 Z-0.1349
X-4.7659 Z-0.135
X-4.9034
X-4.9159 F15
X-4.9161 Z-0.07 F60
X-5.2316
X-5.2323 Z-0.0699
X-5.233 Z-0.0697
X-5.2336 Z-0.0694
X-5.2343
X-5.2346
X-5.2359 Y-1.2592
X-5.237 Y-1.2585
X-5.2378 Y-1.2573
X-5.2381 Y-1.256
X-5.2378 Y-1.2546
X-5.237 Y-1.2535
X-5.2359 Y-1.2527
X-5.2346 Y-1.2525
X-5.2339
X-5.2332 Z-0.0697
X-5.2325 Z-0.0699
X-5.2318 Z-0.07
X-4.9165
X-4.9164 Z-0.1225
Z-0.135 F15
X-4.7664 F60
X-4.7657 Z-0.1349
X-4.765 Z-0.1347
X-4.7644 Z-0.1344
X-4.7636
X-4.7623 Y-1.2522
X-4.7612 Y-1.2515
X-4.7604 Y-1.2503
X-4.7601 Y-1.249
X-4.7604 Y-1.2476
X-4.7612 Y-1.2465
X-4.7623 Y-1.2457
X-4.7636 Y-1.2455
X-4.764
X-4.7647
X-4.7654 Z-0.1347
X-4.7661 Z-0.1349
X-4.7668 Z-0.135
X-4.9041
X-4.9166 F15
Z-0.07 F60
X-5.2319
X-5.2326 Z-0.0699
X-5.2333 Z-0.0697
X-5.234 Z-0.0694
X-5.2347
X-5.2348
X-5.2361 Y-1.2452
X-5.2373 Y-1.2445
X-5.238 Y-1.2433
X-5.2383 Y-1.242
X-5.238 Y-1.2406
X-5.2373 Y-1.2395
X-5.2361 Y-1.2387
X-5.2348 Y-1.2385
X-5.2341
X-5.2334 Z-0.0697
X-5.2328 Z-0.0699
X-5.2321 Z-0.07
X-4.9167
Z-0.1225
Z-0.135 F15
X-4.7669 F60
X-4.7662 Z-0.1349
X-4.7656 Z-0.1347
X-4.7649 Z-0.1344
X-4.7642
X-4.7628 Y-1.2382
X-4.7617 Y-1.2375
X-4.7609 Y-1.2363
X-4.7607 Y-1.235
X-4.7609 Y-1.2336
X-4.7617 Y-1.2325
X-4.7628 Y-1.2317
X-4.7642 Y-1.2315
X-4.7643
X-4.765
X-4.7657 Z-0.1347
X-4.7664 Z-0.1349
X-4.7671 Z-0.135
X-4.9044
X-4.9169 F15
Z-0.07 F60
X-5.2322
X-5.2329 Z-0.0699
X-5.2336 Z-0.0697
X-5.2342 Z-0.0694
X-5.2349
X-5.2351
X-5.2364 Y-1.2312
X-5.2375 Y-1.2305
X-5.2383 Y-1.2293
X-5.2386 Y-1.228
X-5.2383 Y-1.2266
X-5.2375 Y-1.2255
X-5.2364 Y-1.2247
X-5.2351 Y-1.2245
X-5.2344
X-5.2337 Z-0.0697
X-5.233 Z-0.0699
X-5.2323 Z-0.07
X-4.917
Z-0.1225
Z-0.135 F15
X-4.7672 F60
X-4.7665 Z-0.1349
X-4.7659 Z-0.1347
X-4.7652 Z-0.1344
X-4.7645
X-4.7632 Y-1.2242
X-4.762 Y-1.2235
X-4.7613 Y-1.2223
X-4.761 Y-1.221
X-4.7613 Y-1.2196
X-4.762 Y-1.2185
X-4.7632 Y-1.2177
X-4.7645 Y-1.2175
X-4.7647
X-4.7654
X-4.766 Z-0.1347
X-4.7667 Z-0.1349
X-4.7674 Z-0.135
X-4.9046
X-4.9171 F15
X-4.9172 Z-0.07 F60
X-5.2324
X-5.2331 Z-0.0699
X-5.2338 Z-0.0697
X-5.2345 Z-0.0694
X-5.2352
X-5.2353
X-5.2366 Y-1.2172
X-5.2377 Y-1.2165
X-5.2385 Y-1.2153
X-5.2388 Y-1.214
X-5.2385 Y-1.2126
X-5.2377 Y-1.2115
X-5.2366 Y-1.2107
X-5.2353 Y-1.2105
X-5.2346
X-5.2339 Z-0.0697
X-5.2332 Z-0.0699
X-5.2325 Z-0.07
X-4.9173
Z-0.1225
Z-0.135 F15
X-4.7675 F60
X-4.7668 Z-0.1349
X-4.7661 Z-0.1347
X-4.7655 Z-0.1344
X-4.7648
X-4.7634 Y-1.2102
X-4.7623 Y-1.2095
X-4.7615 Y-1.2083
X-4.7613 Y-1.207
X-4.7615 Y-1.2056
X-4.7623 Y-1.2045
X-4.7634 Y-1.2037
X-4.7648 Y-1.2035
X-4.7655
X-4.7661 Z-0.1347
X-4.7668 Z-0.1349
X-4.7675 Z-0.135
X-4.9048
X-4.9173 F15
Z-0.07 F60
X-5.2325
X-5.2332 Z-0.0699
X-5.2339 Z-0.0697
X-5.2346 Z-0.0694
X-5.2353
X-5.2366 Y-1.2032
X-5.2377 Y-1.2025
X-5.2385 Y-1.2013
X-5.2388 Y-1.2
X-5.2385 Y-1.1986
X-5.2377 Y-1.1975
X-5.2366 Y-1.1967
X-5.2353 Y-1.1965
X-5.2346
X-5.2339 Z-0.0697
X-5.2332 Z-0.0699
X-5.2325 Z-0.07
X-4.9173
Z-0.1225
Z-0.135 F15
X-4.7675 F60
X-4.7668 Z-0.1349
X-4.7661 Z-0.1347
X-4.7655 Z-0.1344
X-4.7648
X-4.7634 Y-1.1962
X-4.7623 Y-1.1955
X-4.7615 Y-1.1943
X-4.7613 Y-1.193
X-4.7615 Y-1.1916
X-4.7623 Y-1.1905
X-4.7634 Y-1.1897
X-4.7648 Y-1.1895
X-4.7655
X-4.7661 Z-0.1347
X-4.7668 Z-0.1349
X-4.7675 Z-0.135
X-4.9048
X-4.9173 F15
Z-0.07 F60
X-5.2325
X-5.2332 Z-0.0699
X-5.2339 Z-0.0697
X-5.2346 Z-0.0694
X-5.2353
X-5.2366 Y-1.1892
X-5.2377 Y-1.1885
X-5.2385 Y-1.1873
X-5.2388 Y-1.186
X-5.2385 Y-1.1846
X-5.2377 Y-1.1835
X-5.2366 Y-1.1827
X-5.2353 Y-1.1825
X-5.2346
X-5.2339 Z-0.0697
X-5.2332 Z-0.0699
X-5.2325 Z-0.07
X-4.9173
Z-0.1225
Z-0.135 F15
X-4.7675 F60
X-4.7668 Z-0.1349
X-4.7661 Z-0.1347
X-4.7655 Z-0.1344
X-4.7648
X-4.7634 Y-1.1822
X-4.7623 Y-1.1815
X-4.7615 Y-1.1803
X-4.7613 Y-1.179
X-4.7615 Y-1.1776
X-4.7623 Y-1.1765
X-4.7634 Y-1.1757
X-4.7648 Y-1.1755
X-4.7655
X-4.7661 Z-0.1347
X-4.7668 Z-0.1349
X-4.7675 Z-0.135
X-4.9048
X-4.9173 F15
Z-0.07 F60
X-5.2325
X-5.2332 Z-0.0699
X-5.2339 Z-0.0697
X-5.2346 Z-0.0694
X-5.2353
X-5.2366 Y-1.1752
X-5.2377 Y-1.1745
X-5.2385 Y-1.1733
X-5.2388 Y-1.172
X-5.2385 Y-1.1706
X-5.2377 Y-1.1695
X-5.2366 Y-1.1687
X-5.2353 Y-1.1685
X-5.2346
X-5.2339 Z-0.0697
X-5.2332 Z-0.0699
X-5.2325 Z-0.07
X-4.9173
Z-0.1225
Z-0.135 F15
X-4.7675 F60
X-4.7668 Z-0.1349
X-4.7661 Z-0.1347
X-4.7655 Z-0.1344
X-4.7648
X-4.7634 Y-1.1682
X-4.7623 Y-1.1675
X-4.7615 Y-1.1663
X-4.7613 Y-1.165
X-4.7615 Y-1.1636
X-4.7623 Y-1.1625
X-4.7634 Y-1.1617
X-4.7648 Y-1.1615
X-4.7655
X-4.7661 Z-0.1347
X-4.7668 Z-0.1349
X-4.7675 Z-0.135
X-4.9048
X-4.9173 F15
Z-0.07 F60
X-5.2325
X-5.2332 Z-0.0699
X-5.2339 Z-0.0697
X-5.2346 Z-0.0694
X-5.2353
X-5.2366 Y-1.1612
X-5.2377 Y-1.1605
X-5.2385 Y-1.1593
X-5.2388 Y-1.158
X-5.2385 Y-1.1566
X-5.2377 Y-1.1555
X-5.2366 Y-1.1548
X-5.2353 Y-1.1545
X-5.2346
X-5.2339 Z-0.0697
X-5.2332 Z-0.0699
X-5.2325 Z-0.07
X-4.9173
Z-0.1225
Z-0.135 F15
X-4.7675 F60
X-4.7668 Z-0.1349
X-4.7661 Z-0.1347
X-4.7655 Z-0.1344
X-4.7648
X-4.7634 Y-1.1542
X-4.7623 Y-1.1535
X-4.7615 Y-1.1523
X-4.7613 Y-1.151
X-4.7615 Y-1.1496
X-4.7623 Y-1.1485
X-4.7634 Y-1.1478
X-4.7648 Y-1.1475
X-4.7655
X-4.7661 Z-0.1347
X-4.7668 Z-0.1349
X-4.7675 Z-0.135
X-4.9048
X-4.9173 F15
Z-0.07 F60
X-5.2325
X-5.2332 Z-0.0699
X-5.2339 Z-0.0697
X-5.2346 Z-0.0694
X-5.2353
X-5.2366 Y-1.1472
X-5.2377 Y-1.1465
X-5.2385 Y-1.1453
X-5.2388 Y-1.144
X-5.2385 Y-1.1426
X-5.2377 Y-1.1415
X-5.2366 Y-1.1408
X-5.2353 Y-1.1405
X-5.2346
X-5.2339 Z-0.0697
X-5.2332 Z-0.0699
X-5.2325 Z-0.07
X-4.9173
Z-0.1225
Z-0.135 F15
X-4.7675 F60
X-4.7668 Z-0.1349
X-4.7661 Z-0.1347
X-4.7655 Z-0.1344
X-4.7648
X-4.7634 Y-1.1402
X-4.7623 Y-1.1395
X-4.7615 Y-1.1383
X-4.7613 Y-1.137
X-4.7615 Y-1.1356
X-4.7623 Y-1.1345
X-4.7634 Y-1.1338
X-4.7648 Y-1.1335
X-4.7655
X-4.7661 Z-0.1347
X-4.7668 Z-0.1349
X-4.7675 Z-0.135
X-4.9048
X-4.9173 F15
Z-0.07 F60
X-5.2325
X-5.2332 Z-0.0699
X-5.2339 Z-0.0697
X-5.2346 Z-0.0694
X-5.2353
X-5.2366 Y-1.1332
X-5.2377 Y-1.1325
X-5.2385 Y-1.1313
X-5.2388 Y-1.13
X-5.2385 Y-1.1286
X-5.2377 Y-1.1275
X-5.2366 Y-1.1268
X-5.2353 Y-1.1265
X-5.2346
X-5.2339 Z-0.0697
X-5.2332 Z-0.0699
X-5.2325 Z-0.07
X-4.9173
Z-0.1225
Z-0.135 F15
X-4.7675 F60
X-4.7668 Z-0.1349
X-4.7661 Z-0.1347
X-4.7655 Z-0.1344
X-4.7648
X-4.7634 Y-1.1262
X-4.7623 Y-1.1255
X-4.7615 Y-1.1243
X-4.7613 Y-1.123
X-4.7615 Y-1.1216
X-4.7623 Y-1.1205
X-4.7634 Y-1.1198
X-4.7648 Y-1.1195
X-4.7655
X-4.7661 Z-0.1347
X-4.7668 Z-0.1349
X-4.7675 Z-0.135
X-4.9048
X-4.9173 F15
Z-0.07 F60
X-5.2325
X-5.2332 Z-0.0699
X-5.2339 Z-0.0697
X-5.2346 Z-0.0694
X-5.2353
X-5.2366 Y-1.1192
X-5.2377 Y-1.1185
X-5.2385 Y-1.1173
X-5.2388 Y-1.116
X-5.2385 Y-1.1146
X-5.2377 Y-1.1135
X-5.2366 Y-1.1128
X-5.2353 Y-1.1125
X-5.2346
X-5.2339 Z-0.0697
X-5.2332 Z-0.0699
X-5.2325 Z-0.07
X-4.9173
Z-0.1225
Z-0.135 F15
X-4.7675 F60
X-4.7668 Z-0.1349
X-4.7661 Z-0.1347
X-4.7655 Z-0.1344
X-4.7648
X-4.7634 Y-1.1122
X-4.7623 Y-1.1115
X-4.7615 Y-1.1103
X-4.7613 Y-1.109
X-4.7615 Y-1.1076
X-4.7623 Y-1.1065
X-4.7634 Y-1.1058
X-4.7648 Y-1.1055
X-4.7655
X-4.7661 Z-0.1347
X-4.7668 Z-0.1349
X-4.7675 Z-0.135
X-4.9048
X-4.9173 F15
Z-0.07 F60
X-5.2325
X-5.2332 Z-0.0699
X-5.2339 Z-0.0697
X-5.2346 Z-0.0694
X-5.2353
X-5.2366 Y-1.1052
X-5.2377 Y-1.1045
X-5.2385 Y-1.1033
X-5.2388 Y-1.102
X-5.2385 Y-1.1006
X-5.2377 Y-1.0995
X-5.2366 Y-1.0988
X-5.2353 Y-1.0985
X-5.2346
X-5.2339 Z-0.0697
X-5.2332 Z-0.0699
X-5.2325 Z-0.07
X-4.9173
Z-0.1225
Z-0.135 F15
X-4.7675 F60
X-4.7668 Z-0.1349
X-4.7661 Z-0.1347
X-4.7655 Z-0.1344
X-4.7648
X-4.7634 Y-1.0982
X-4.7623 Y-1.0975
X-4.7615 Y-1.0963
X-4.7613 Y-1.095
X-4.7615 Y-1.0936
X-4.7623 Y-1.0925
X-4.7634 Y-1.0918
X-4.7648 Y-1.0915
X-4.7655
X-4.7661 Z-0.1347
X-4.7668 Z-0.1349
X-4.7675 Z-0.135
X-4.9048
X-4.9173 F15
Z-0.07 F60
X-5.2325
X-5.2332 Z-0.0699
X-5.2339 Z-0.0697
X-5.2346 Z-0.0694
X-5.2353
X-5.2366 Y-1.0912
X-5.2377 Y-1.0905
X-5.2385 Y-1.0893
X-5.2388 Y-1.088
X-5.2385 Y-1.0866
X-5.2377 Y-1.0855
X-5.2366 Y-1.0848
X-5.2353 Y-1.0845
X-5.2346
X-5.2339 Z-0.0697
X-5.2332 Z-0.0699
X-5.2325 Z-0.07
X-4.9173
Z-0.1225
Z-0.135 F15
X-4.7675 F60
X-4.7668 Z-0.1349
X-4.7661 Z-0.1347
X-4.7655 Z-0.1344
X-4.7648
X-4.7634 Y-1.0842
X-4.7623 Y-1.0835
X-4.7615 Y-1.0823
X-4.7613 Y-1.081
X-4.7615 Y-1.0796
X-4.7623 Y-1.0785
X-4.7634 Y-1.0778
X-4.7648 Y-1.0775
X-4.7655
X-4.7661 Z-0.1347
X-4.7668 Z-0.1349
X-4.7675 Z-0.135
X-4.9048
X-4.9173 F15
Z-0.07 F60
X-5.2325
X-5.2332 Z-0.0699
X-5.2339 Z-0.0697
X-5.2346 Z-0.0694
X-5.2353
X-5.2366 Y-1.0772
X-5.2377 Y-1.0765
X-5.2385 Y-1.0753
X-5.2388 Y-1.074
X-5.2385 Y-1.0726
X-5.2377 Y-1.0715
X-5.2366 Y-1.0708
X-5.2353 Y-1.0705
X-5.2346
X-5.2339 Z-0.0697
X-5.2332 Z-0.0699
X-5.2325 Z-0.07
X-4.9173
Z-0.1225
Z-0.135 F15
X-4.7675 F60
X-4.7668 Z-0.1349
X-4.7661 Z-0.1347
X-4.7655 Z-0.1344
X-4.7648
X-4.7634 Y-1.0702
X-4.7623 Y-1.0695
X-4.7615 Y-1.0683
X-4.7613 Y-1.067
X-4.7615 Y-1.0656
X-4.7623 Y-1.0645
X-4.7634 Y-1.0638
X-4.7648 Y-1.0635
X-4.7655
X-4.7661 Z-0.1347
X-4.7668 Z-0.1349
X-4.7675 Z-0.135
X-4.9048
X-4.9173 F15
Z-0.07 F60
X-5.2325
X-5.2332 Z-0.0699
X-5.2339 Z-0.0697
X-5.2346 Z-0.0694
X-5.2353
X-5.2366 Y-1.0632
X-5.2377 Y-1.0625
X-5.2385 Y-1.0613
X-5.2388 Y-1.06
X-5.2385 Y-1.0586
X-5.2377 Y-1.0575
X-5.2366 Y-1.0568
X-5.2353 Y-1.0565
X-5.2346
X-5.2339 Z-0.0697
X-5.2332 Z-0.0699
X-5.2325 Z-0.07
X-4.9173
Z-0.1225
Z-0.135 F15
X-4.7675 F60
X-4.7668 Z-0.1349
X-4.7661 Z-0.1347
X-4.7655 Z-0.1344
X-4.7648
X-4.7634 Y-1.0562
X-4.7623 Y-1.0555
X-4.7615 Y-1.0543
X-4.7613 Y-1.053
X-4.7615 Y-1.0516
X-4.7623 Y-1.0505
X-4.7634 Y-1.0498
X-4.7648 Y-1.0495
X-4.7655
X-4.7661 Z-0.1347
X-4.7668 Z-0.1349
X-4.7675 Z-0.135
X-4.9048
X-4.9173 F15
Z-0.07 F60
X-5.2325
X-5.2332 Z-0.0699
X-5.2339 Z-0.0697
X-5.2346 Z-0.0694
X-5.2353
X-5.2366 Y-1.0492
X-5.2377 Y-1.0485
X-5.2385 Y-1.0473
X-5.2388 Y-1.046
X-5.2385 Y-1.0446
X-5.2377 Y-1.0435
X-5.2366 Y-1.0428
X-5.2353 Y-1.0425
X-5.2346
X-5.2339 Z-0.0697
X-5.2332 Z-0.0699
X-5.2325 Z-0.07
X-4.9173
Z-0.1225
Z-0.135 F15
X-4.7675 F60
X-4.7668 Z-0.1349
X-4.7661 Z-0.1347
X-4.7655 Z-0.1344
X-4.7648
X-4.7634 Y-1.0422
X-4.7623 Y-1.0415
X-4.7615 Y-1.0403
X-4.7613 Y-1.039
X-4.7615 Y-1.0376
X-4.7623 Y-1.0365
X-4.7634 Y-1.0358
X-4.7648 Y-1.0355
X-4.7655
X-4.7661 Z-0.1347
X-4.7668 Z-0.1349
X-4.7675 Z-0.135
X-4.9048
X-4.9173 F15
Z-0.07 F60
X-5.2325
X-5.2332 Z-0.0699
X-5.2339 Z-0.0697
X-5.2346 Z-0.0694
X-5.2353
X-5.2366 Y-1.0352
X-5.2377 Y-1.0345
X-5.2385 Y-1.0333
X-5.2388 Y-1.032
X-5.2385 Y-1.0306
X-5.2377 Y-1.0295
X-5.2366 Y-1.0288
X-5.2353 Y-1.0285
X-5.2346
X-5.2339 Z-0.0697
X-5.2332 Z-0.0699
X-5.2325 Z-0.07
X-4.9173
Z-0.1225
Z-0.135 F15
X-4.7675 F60
X-4.7668 Z-0.1349
X-4.7661 Z-0.1347
X-4.7655 Z-0.1344
X-4.7648
X-4.7634 Y-1.0282
X-4.7623 Y-1.0275
X-4.7615 Y-1.0263
X-4.7613 Y-1.025
X-4.7615 Y-1.0236
X-4.7623 Y-1.0225
X-4.7634 Y-1.0218
X-4.7648 Y-1.0215
X-4.7655
X-4.7661 Z-0.1347
X-4.7668 Z-0.1349
X-4.7675 Z-0.135
X-4.9048
X-4.9173 F15
Z-0.07 F60
X-5.2325
X-5.2332 Z-0.0699
X-5.2339 Z-0.0697
X-5.2346 Z-0.0694
X-5.2353
X-5.2366 Y-1.0212
X-5.2377 Y-1.0205
X-5.2385 Y-1.0193
X-5.2388 Y-1.018
X-5.2385 Y-1.0166
X-5.2377 Y-1.0155
X-5.2366 Y-1.0148
X-5.2353 Y-1.0145
X-5.2346
X-5.2339 Z-0.0697
X-5.2332 Z-0.0699
X-5.2325 Z-0.07
X-4.9173
Z-0.1225
Z-0.135 F15
X-4.7675 F60
X-4.7668 Z-0.1349
X-4.7661 Z-0.1347
X-4.7655 Z-0.1344
X-4.7648
X-4.7634 Y-1.0142
X-4.7623 Y-1.0135
X-4.7615 Y-1.0123
X-4.7613 Y-1.011
X-4.7615 Y-1.0096
X-4.7623 Y-1.0085
X-4.7634 Y-1.0078
X-4.7648 Y-1.0075
X-4.7655
X-4.7661 Z-0.1347
X-4.7668 Z-0.1349
X-4.7675 Z-0.135
X-4.9048
X-4.9173 F15
Z-0.07 F60
X-5.2325
X-5.2332 Z-0.0699
X-5.2339 Z-0.0697
X-5.2346 Z-0.0694
X-5.2353
X-5.2366 Y-1.0072
X-5.2377 Y-1.0065
X-5.2385 Y-1.0053
X-5.2388 Y-1.004
X-5.2385 Y-1.0026
X-5.2377 Y-1.0015
X-5.2366 Y-1.0008
X-5.2353 Y-1.0005
X-5.2346
X-5.2339 Z-0.0697
X-5.2332 Z-0.0699
X-5.2325 Z-0.07
X-4.9173
Z-0.1225
Z-0.135 F15
X-4.7675 F60
X-4.7668 Z-0.1349
X-4.7661 Z-0.1347
X-4.7655 Z-0.1344
X-4.7648
X-4.7634 Y-1.0002
