%
(004 - Finishing Pass)
(T4 D=0.125 CR=0.0625 - ZMIN=-0.3502 - ball end mill)
G90
G17
G20
(When using Fusion for Personal Use, the feedrate of rapid)
(moves is reduced to match the feedrate of cutting moves,)
(which can increase machining time. Unrestricted rapid moves)
(are available with a Fusion Subscription.)
G28 G91 Z0
G90

(Finishing Pass Cavity)
T4 M6
S14500 M3
G17 G90
G54
G0 X3.9823 Y-2.0125
Z0.33
G1 Z-0.055 F50
Z-0.1225 F10
G18 G3 X3.9698 Z-0.135 I-0.0125 K0 F50
G1 X3.6137
X3.5887 F12.5
G2 X3.566 Z-0.0939 I-0.0474 K0.0006 F50
X3.5175 Z-0.0752 I-0.0651 K-0.0967
G1 X3.4965 Z-0.0722
X3.4723 Z-0.0707
X3.4356 Z-0.07
X3.3562 Z-0.0703
X3.3301 Z-0.0713
G2 X3.269 Z-0.0829 I0.008 K-0.2082
X3.2377 Z-0.1036 I0.0298 K-0.079
X3.2261 Z-0.135 I0.0336 K-0.0302
G1 X-3.2013
X-3.2263 F12.5
G2 X-3.249 Z-0.0939 I-0.0474 K0.0006 F50
X-3.2975 Z-0.0752 I-0.0652 K-0.0968
G1 X-3.3181 Z-0.0723
X-3.3427 Z-0.0707
X-3.3795 Z-0.07
X-3.4569 Z-0.0702
G2 X-3.5355 Z-0.0793 I-0.0045 K-0.3055
X-3.5774 Z-0.1036 I0.0242 K-0.0899
X-3.5888 Z-0.135 I0.0342 K-0.0302
G1 X-3.9698
X-3.9712 Z-0.1348
X-3.9726 Z-0.1344
X-3.9739 Z-0.1339
X-3.9753 Z-0.1337
X-4.0982
G17 G2 Y-2.0025 I0 J0.005
G1 X-4.0968 Z-0.1339
X-4.0955 Z-0.1344
X-4.0941 Z-0.1348
X-4.0928 Z-0.135
X-4.0051 Z-0.1357
X-3.6004 Z-0.1358
X-3.5754 F12.5
G18 G3 X-3.5578 Z-0.0996 I0.0434 K0.0013 F50
X-3.5209 Z-0.0811 I0.0586 K-0.0706
X-3.4379 Z-0.0713 I0.0789 K-0.3127
G1 X-3.3992 Z-0.0708
X-3.3644 Z-0.0716
G3 X-3.2915 Z-0.0816 I-0.0035 K-0.2961
X-3.2571 Z-0.0993 I-0.0292 K-0.0989
X-3.24 Z-0.1277 I-0.0289 K-0.0368
G1 X-3.2396 Z-0.1358 F12.5
X3.2146 F50
X3.2396 F12.5
G3 X3.2601 Z-0.0972 I0.0447 K0.001 F50
X3.2944 Z-0.0809 I0.0562 K-0.074
G1 X3.3127 Z-0.0766
X3.3346 Z-0.0736
G3 X3.485 Z-0.074 I0.0725 K-0.9013
X3.5429 Z-0.0894 I-0.0151 K-0.1728
X3.5742 Z-0.1228 I-0.025 K-0.0548
G1 X3.5752 Z-0.1287
X3.5754 Z-0.1358 F12.5
X3.9611 F50
X4.0928 Z-0.135
X4.0941 Z-0.1348
X4.0955 Z-0.1344
X4.0968 Z-0.1339
X4.0982 Z-0.1337
X4.1505
G17 G3 Y-1.9925 I0 J0.005
G1 X4.1491 Z-0.1339
X4.1478 Z-0.1344
X4.1465 Z-0.1348
X4.1451 Z-0.135
X4.0948 Z-0.1357
X4.0097 Z-0.1379
X3.9439 Z-0.1383
X3.5848
X3.5598 F12.5
G18 G2 X3.5446 Z-0.103 I-0.039 K0.0041 F50
G1 X3.536 Z-0.0964
X3.528 Z-0.0917
X3.516 Z-0.0867
X3.503 Z-0.0825
G2 X3.4109 Z-0.0735 I-0.0821 K-0.3637
X3.3114 Z-0.0825 I-0.0132 K-0.4093
G1 X3.2984 Z-0.0869
G2 X3.2591 Z-0.116 I0.0216 K-0.0702
X3.2551 Z-0.1383 I0.0375 K-0.0183
G1 X-3.2302
X-3.2552 F12.5
G2 X-3.2704 Z-0.1031 I-0.0391 K0.004 F50
G1 X-3.279 Z-0.0964
X-3.287 Z-0.0917
X-3.299 Z-0.0867
X-3.312 Z-0.0825
G2 X-3.4041 Z-0.0735 I-0.0821 K-0.3637
X-3.5035 Z-0.0825 I-0.0132 K-0.4093
G1 X-3.5166 Z-0.0869
G2 X-3.5559 Z-0.116 I0.0216 K-0.0702
X-3.5599 Z-0.1383 I0.0375 K-0.0183
G1 X-3.9863 Z-0.1382
X-4.0366 Z-0.1373
X-4.1254 Z-0.1351
X-4.1451 Z-0.135
X-4.1465 Z-0.1348
X-4.1478 Z-0.1344
X-4.1492 Z-0.1339
X-4.1506 Z-0.1337
X-4.1896
G17 G2 Y-1.9825 I0 J0.005
G1 X-4.1882 Z-0.1339
X-4.1869 Z-0.1344
X-4.1855 Z-0.1348
X-4.1841 Z-0.135
X-4.1796
X-4.1415 Z-0.1359
X-4.0434 Z-0.1407
X-4.0096 Z-0.142
X-3.9788 Z-0.1426
X-3.5667 Z-0.1427
X-3.5417 F12.5
Z-0.1325 F50
G18 G3 X-3.5285 Z-0.1062 I0.0344 K-0.0008
G1 X-3.52 Z-0.0999
X-3.5111 Z-0.0947
X-3.5015 Z-0.0908
X-3.486 Z-0.0858
G3 X-3.3252 Z-0.0867 I0.0784 K-0.3663
G1 X-3.3093 Z-0.0923
G3 X-3.2787 Z-0.1145 I-0.0266 K-0.0688
G1 X-3.2766 Z-0.1186
X-3.2747 Z-0.1235
X-3.2735 Z-0.1293
X-3.2733 Z-0.1427 F12.5
X3.2483 F50
X3.2733 F12.5
Z-0.1325 F50
G3 X3.2865 Z-0.1062 I0.0344 K-0.0008
G1 X3.295 Z-0.0999
X3.3039 Z-0.0947
X3.3135 Z-0.0908
X3.329 Z-0.0858
G3 X3.4898 Z-0.0867 I0.0784 K-0.3663
G1 X3.5057 Z-0.0923
G3 X3.5369 Z-0.1155 I-0.0255 K-0.0669
G1 X3.5396 Z-0.1216
X3.5406 Z-0.1246
X3.5416 Z-0.13
X3.5417 Z-0.1427 F12.5
X3.9442 F50
X3.9945 Z-0.1424
X4.0321 Z-0.1413
X4.088 Z-0.1385
X4.1493 Z-0.1356
X4.1841 Z-0.135
X4.1855 Z-0.1348
X4.1868 Z-0.1344
X4.1881 Z-0.1339
X4.1895 Z-0.1337
X4.2223
G17 G3 Y-1.9725 I0 J0.005
G1 X4.2209 Z-0.1339
X4.2196 Z-0.1344
X4.2183 Z-0.1348
X4.217 Z-0.135
X4.1861 Z-0.1357
X4.1475 Z-0.1379
X4.0573 Z-0.1454
X4.0293 Z-0.1475
X3.998 Z-0.149
X3.9593 Z-0.1495
X3.545
X3.52 F12.5
X3.5199 Z-0.1305 F50
G18 G2 X3.5097 Z-0.1108 I-0.03 K-0.0031
G1 X3.5012 Z-0.1045
X3.4902 Z-0.0984
G2 X3.4142 Z-0.0849 I-0.0726 K-0.1873
X3.3294 Z-0.0964 I-0.012 K-0.2305
X3.3002 Z-0.1165 I0.0267 K-0.0702
G1 X3.2971 Z-0.1223
X3.2958 Z-0.1262
X3.2951 Z-0.1307
X3.295 Z-0.1495 F12.5
X-3.27 F50
X-3.295 F12.5
X-3.2951 Z-0.1306 F50
G2 X-3.3109 Z-0.1066 I-0.0318 K-0.0037
G1 X-3.3202 Z-0.1008
X-3.3286 Z-0.0967
G2 X-3.399 Z-0.0847 I-0.0702 K-0.1994
G1 X-3.4212 Z-0.0849
X-3.4436 Z-0.0867
X-3.4657 Z-0.0904
X-3.4855 Z-0.0964
G2 X-3.5149 Z-0.1164 I0.0249 K-0.0681
G1 X-3.5179 Z-0.1223
X-3.5192 Z-0.1262
X-3.5199 Z-0.1307
X-3.52 Z-0.1495 F12.5
X-3.9729 Z-0.1494 F50
X-4.0039 Z-0.1487
X-4.0376 Z-0.1469
X-4.0781 Z-0.1437
X-4.1517 Z-0.1376
X-4.1898 Z-0.1355
X-4.217 Z-0.135
X-4.2183 Z-0.1348
X-4.2196 Z-0.1344
X-4.2209 Z-0.1339
X-4.2224 Z-0.1337
X-4.2511
G17 G2 Y-1.9625 I0 J0.005
G1 X-4.2497 Z-0.1339
X-4.2484 Z-0.1344
X-4.2471 Z-0.1348
X-4.2457 Z-0.135
X-4.2212 Z-0.1355
X-4.1908 Z-0.1374
X-4.1501 Z-0.1416
X-4.0697 Z-0.1522
X-4.0365 Z-0.1561
X-4.0013 Z-0.159
X-3.9684 Z-0.16
X-3.5173 Z-0.1601
X-3.4923 F12.5
X-3.4922 Z-0.1324 F50
G18 G3 X-3.4789 Z-0.1125 I0.0243 K-0.0018
G1 X-3.4731 Z-0.1085
X-3.4653 Z-0.1045
X-3.4505 Z-0.1002
X-3.4405 Z-0.0978
X-3.4197 Z-0.0954
X-3.3947 Z-0.0955
X-3.3713 Z-0.0984
X-3.3523 Z-0.1037
G3 X-3.3237 Z-0.1256 I-0.0154 K-0.0497
G1 X-3.3229 Z-0.1304
Z-0.1351
X-3.3228 Z-0.1601 F12.5
X3.2977 F50
X3.3227 F12.5
X3.3228 Z-0.1324 F50
G3 X3.3361 Z-0.1125 I0.0243 K-0.0018
G1 X3.3419 Z-0.1085
X3.3497 Z-0.1045
X3.3645 Z-0.1002
X3.3745 Z-0.0978
X3.3953 Z-0.0954
X3.4203 Z-0.0955
X3.4437 Z-0.0984
X3.4627 Z-0.1037
G3 X3.4897 Z-0.1231 I-0.0164 K-0.0514
G1 X3.4915 Z-0.1272
X3.4922 Z-0.1314
Z-0.1351
Z-0.1601 F12.5
X3.9638 F50
X3.9981 Z-0.1592
X4.0295 Z-0.1568
X4.0603 Z-0.1533
X4.1433 Z-0.1424
X4.1847 Z-0.138
X4.2189 Z-0.1356
X4.2457 Z-0.135
X4.2471 Z-0.1348
X4.2484 Z-0.1344
X4.2497 Z-0.1339
X4.2511 Z-0.1337
X4.2768
G17 G3 Y-1.9525 I0 J0.005
G1 X4.2754 Z-0.1339
X4.2741 Z-0.1344
X4.2728 Z-0.1348
X4.2715 Z-0.135
G18 G2 X4.1455 Z-0.1485 I0.0099 K-0.6857
X4.0364 Z-0.1714 I1.1464 K-5.7355
G1 X4.0298 Z-0.1727
X3.9988 Z-0.1779
X3.9658 Z-0.1802
X3.4703
X3.4453 F12.5
Z-0.1324 F50
X3.4449 Z-0.1296
X3.4439 Z-0.1275
X3.4411 Z-0.1247
X3.4342 Z-0.1211
X3.4219 Z-0.1166
X3.417 Z-0.1159
X3.3972
X3.3916 Z-0.1171
X3.3803 Z-0.1213
X3.3734 Z-0.125
X3.3712 Z-0.1273
X3.3698 Z-0.1311
X3.3697 Z-0.1552
X3.3696 Z-0.1802 F12.5
X-3.3447 F50
X-3.3697 F12.5
Z-0.1325 F50
X-3.3699 Z-0.1305
X-3.3719 Z-0.1265
G2 X-3.398 Z-0.1159 I-0.0336 K-0.0453
G1 X-3.4178
X-3.4234 Z-0.1171
X-3.4347 Z-0.1213
X-3.4416 Z-0.125
X-3.4438 Z-0.1273
X-3.4452 Z-0.1311
X-3.4453 Z-0.1552
X-3.4454 Z-0.1802 F12.5
X-3.9679 Z-0.1801 F50
X-4.0003 Z-0.1777
G3 X-4.1246 Z-0.1524 I0.444 K2.4947
G2 X-4.2715 Z-0.1348 I-0.1679 K-0.7801
G1 X-4.2728 Z-0.1347
X-4.2741 Z-0.1344
X-4.2754 Z-0.1339
X-4.2768 Z-0.1337
X-4.2998
G17 G2 Y-1.9425 I0 J0.005
G1 X-4.2984 Z-0.1339
X-4.2971 Z-0.1344
X-4.2958 Z-0.1348
X-4.2944 Z-0.135
G18 G3 X-4.1073 Z-0.171 I-0.0095 K-0.5534
G1 X-4.0877 Z-0.1803
G3 X-4.0728 Z-0.1932 I-0.0111 K-0.0279
G1 X-4.072 Z-0.1951
X-4.0717 Z-0.1975
Z-0.2835
Z-0.3006 F12.5
X-4.0688 Z-0.3079
X-4.0629 Z-0.3128 F50
X-4.0558 Z-0.3158
X-4.042 Z-0.3202
X-4.0278 Z-0.3233
X-3.9992 Z-0.3267
X-3.9694 Z-0.328
X3.9625 Z-0.3281
X3.9973 Z-0.3268
X4.0191 Z-0.3245
X4.034 Z-0.3221
X4.0478 Z-0.3185
X4.0615 Z-0.3137
G2 X4.0717 Z-0.3005 I-0.0098 K0.0181
G1 Z-0.1975
G3 X4.0808 Z-0.1844 I0.0185 K-0.0032
G1 X4.0871 Z-0.1805
G3 X4.1636 Z-0.1533 I0.1458 K-0.2888
X4.2944 Z-0.1349 I0.1379 K-0.5061
G1 X4.2958 Z-0.1348
X4.297 Z-0.1344
X4.2984 Z-0.1339
X4.2998 Z-0.1337
X4.3212
G17 G3 Y-1.9325 I0 J0.005
G1 X4.3198 Z-0.1339
X4.3185 Z-0.1344
X4.3172 Z-0.1348
X4.3159 Z-0.135
G18 G2 X4.169 Z-0.1631 I0.0037 K-0.4175
G1 X4.1497 Z-0.1723
X4.1407 Z-0.1778
G2 X4.1284 Z-0.1918 I0.0176 K-0.0278
G1 X4.1275 Z-0.1951
X4.1273 Z-0.1974
Z-0.3006
X4.1244 Z-0.3089
X4.1192 Z-0.3142
X4.1127 Z-0.3182
X4.0994 Z-0.3244
G3 X4.0191 Z-0.3374 I-0.0922 K0.316
G1 X3.9886 Z-0.3388
X3.9499 Z-0.3393
X-3.9743 Z-0.3392
G3 X-4.0806 Z-0.3296 I-0.0027 K0.5656
X-4.1202 Z-0.3135 I0.0185 K0.1022
G1 X-4.1248 Z-0.3085
X-4.1273 Z-0.3006
X-4.1274 Z-0.1965
X-4.1287 Z-0.1912
G2 X-4.1446 Z-0.1753 I-0.0332 K-0.0172
X-4.2096 Z-0.1498 I-0.1267 K-0.2273
X-4.3159 Z-0.135 I-0.111 K-0.4085
G1 X-4.3172 Z-0.1348
X-4.3185 Z-0.1344
X-4.3198 Z-0.1339
X-4.3212 Z-0.1337
X-4.3417
G17 G2 Y-1.9225 I0 J0.005
G1 X-4.3402 Z-0.1339
X-4.3389 Z-0.1344
X-4.3376 Z-0.1348
X-4.3362 Z-0.135
G18 G3 X-4.2018 Z-0.163 I-0.0006 K-0.3394
G1 X-4.1895 Z-0.17
X-4.1802 Z-0.176
G3 X-4.1671 Z-0.1934 I-0.0172 K-0.0266
G1 X-4.1666 Z-0.1969
Z-0.3006
X-4.1643 Z-0.3092
X-4.1618 Z-0.3131
X-4.1592 Z-0.3157
G2 X-4.1266 Z-0.3312 I0.0548 K0.0734
G1 X-4.1125 Z-0.3346
X-4.0909 Z-0.3386
X-4.063 Z-0.3418
X-4.0271 Z-0.3442
X-3.9807 Z-0.3454
X3.9668 Z-0.3456
X4.021 Z-0.3444
X4.0619 Z-0.3419
G2 X4.1338 Z-0.329 I-0.0252 K0.3475
G1 X4.1476 Z-0.3231
X4.1543 Z-0.3196
G2 X4.1667 Z-0.3004 I-0.0124 K0.0216
G1 X4.1666 Z-0.1974
G3 X4.1818 Z-0.1751 I0.0294 K-0.0037
X4.236 Z-0.1502 I0.1005 K-0.1476
X4.3362 Z-0.135 I0.1021 K-0.3343
G1 X4.3375 Z-0.1348
X4.3388 Z-0.1344
X4.3401 Z-0.1339
X4.3415 Z-0.1337
X4.3598
G17 G3 Y-1.9125 I0 J0.005
G1 X4.3584 Z-0.1339
X4.357 Z-0.1344
X4.3558 Z-0.1348
X4.3545 Z-0.135
G18 G2 X4.2327 Z-0.1617 I-0.0002 K-0.2907
X4.2041 Z-0.1835 I0.0416 K-0.0842
X4.1994 Z-0.1973 I0.0203 K-0.0147
G1 X4.1992 Z-0.301
G3 X4.1815 Z-0.3243 I-0.0292 K0.0038
G1 X4.1682 Z-0.3303
X4.1546 Z-0.3348
X4.1398 Z-0.3383
X4.1182 Z-0.342
X4.0888 Z-0.3452
X4.0547 Z-0.3472
X4.0043 Z-0.3486
X3.9114 Z-0.3489
X-3.9895 Z-0.3487
X-4.0434 Z-0.3476
G3 X-4.1412 Z-0.3381 I0.0076 K0.5876
X-4.1874 Z-0.3207 I0.0245 K0.1353
X-4.1992 Z-0.3006 I0.0147 K0.0222
G1 X-4.1993 Z-0.1975
G2 X-4.2126 Z-0.1749 I-0.0309 K-0.0029
X-4.2717 Z-0.1471 I-0.0991 K-0.1339
X-4.3545 Z-0.1351 I-0.0839 K-0.2872
G1 X-4.3559 Z-0.1348
X-4.3572 Z-0.1344
X-4.3585 Z-0.1339
X-4.3599 Z-0.1337
X-4.3775
G17 G2 Y-1.9025 I0 J0.005
G1 X-4.3761 Z-0.1339
X-4.3748 Z-0.1344
X-4.3735 Z-0.1348
X-4.3722 Z-0.135
G18 G3 X-4.2621 Z-0.1594 I0.0007 K-0.2579
G1 X-4.2499 Z-0.1668
X-4.2412 Z-0.1732
G3 X-4.2279 Z-0.194 I-0.0223 K-0.029
G1 X-4.2276 Z-0.1973
Z-0.3006
X-4.2258 Z-0.3093
G2 X-4.2083 Z-0.3263 I0.0312 K0.0146
G1 X-4.2012 Z-0.3299
G2 X-4.125 Z-0.3462 I0.087 K0.2202
G1 X-4.0955 Z-0.3484
X-4.0684 Z-0.3492
X-4.0142 Z-0.3498
X3.8829 Z-0.35
X4.0416 Z-0.3496
X4.0842 Z-0.3488
G2 X4.1775 Z-0.3382 I-0.0058 K0.4659
X4.218 Z-0.3201 I-0.0272 K0.1152
X4.2276 Z-0.3004 I-0.0157 K0.0199
G1 X4.2277 Z-0.195
G3 X4.2453 Z-0.17 I0.0367 K-0.0072
G1 X4.2576 Z-0.162
G3 X4.3722 Z-0.1352 I0.1112 K-0.2168
G1 X4.3735 Z-0.1349
X4.3747 Z-0.1344
X4.3761 Z-0.1339
X4.3775 Z-0.1337
X4.394
G17 G3 Y-1.8925 I0 J0.005
G1 X4.3926 Z-0.1339
X4.3912 Z-0.1344
X4.39 Z-0.1348
X4.3887 Z-0.135
G18 G2 X4.2818 Z-0.1609 I-0.0016 K-0.2271
X4.2574 Z-0.1825 I0.0329 K-0.0616
G1 X4.2554 Z-0.1863
X4.254 Z-0.1901
X4.2529 Z-0.196
Z-0.3006
G3 X4.2375 Z-0.3247 I-0.0287 K0.0014
X4.196 Z-0.341 I-0.0624 K0.0979
X4.1073 Z-0.3495 I-0.0847 K0.4154
G1 X4.0337 Z-0.35
X-4.0918 Z-0.3498
G3 X-4.1937 Z-0.3418 I-0.0088 K0.5394
X-4.2405 Z-0.3227 I0.0229 K0.123
G1 X-4.2457 Z-0.3179
X-4.2501 Z-0.3117
X-4.2516 Z-0.3086
X-4.2529 Z-0.3006
X-4.253 Z-0.1956
G2 X-4.2674 Z-0.1712 I-0.0374 K-0.0056
X-4.3308 Z-0.1423 I-0.0954 K-0.1252
X-4.3887 Z-0.1351 I-0.0578 K-0.2279
G1 X-4.39 Z-0.1348
X-4.3913 Z-0.1344
X-4.3927 Z-0.1339
X-4.3941 Z-0.1337
X-4.4099
G17 G2 Y-1.8825 I0 J0.005
G1 X-4.4085 Z-0.1339
X-4.4071 Z-0.1344
X-4.4058 Z-0.1348
X-4.4045 Z-0.135
G18 G3 X-4.3033 Z-0.1604 I0.0017 K-0.2079
X-4.2806 Z-0.1817 I-0.0326 K-0.0575
G1 X-4.2777 Z-0.1873
X-4.2762 Z-0.1923
X-4.2757 Z-0.1962
X-4.2756 Z-0.3006
G2 X-4.2574 Z-0.3275 I0.034 K0.0034
X-4.2031 Z-0.3451 I0.0687 K0.1195
G1 X-4.182 Z-0.3478
X-4.1607 Z-0.3492
X-4.1375 Z-0.3498
X4.0886 Z-0.35
X4.1467 Z-0.3497
G2 X4.2346 Z-0.3382 I0.0025 K0.3226
G1 X4.2477 Z-0.3329
G2 X4.2711 Z-0.3149 I-0.0228 K0.0539
G1 X4.2742 Z-0.3088
X4.2756 Z-0.3006
Z-0.1974
G3 X4.2926 Z-0.1683 I0.0393 K-0.0035
X4.3392 Z-0.1448 I0.0818 K-0.1046
X4.4045 Z-0.1349 I0.0655 K-0.2114
G1 X4.4058 Z-0.1348
X4.407 Z-0.1344
X4.4083 Z-0.1339
X4.4097 Z-0.1337
X4.4247
G17 G3 Y-1.8725 I0 J0.005
G1 X4.4233 Z-0.1339
X4.422 Z-0.1344
X4.4207 Z-0.1348
X4.4194 Z-0.135
G18 G2 X4.3261 Z-0.1582 I-0.0013 K-0.1942
X4.2997 Z-0.1835 I0.0381 K-0.0662
G1 X4.2975 Z-0.1894
X4.2967 Z-0.1928
X4.2963 Z-0.1972
X4.2961 Z-0.3019
G3 X4.2819 Z-0.3258 I-0.0315 K0.0026
G1 X4.2758 Z-0.3301
G3 X4.2035 Z-0.3483 I-0.0777 K0.1557
G1 X4.1808 Z-0.3497
X4.1343 Z-0.35
X-4.1731 Z-0.3498
G3 X-4.2589 Z-0.338 I-0.0051 K0.2815
X-4.2886 Z-0.3197 I0.0211 K0.0676
X-4.2963 Z-0.3004 I0.02 K0.0191
G1 Z-0.1975
G2 X-4.3068 Z-0.174 I-0.0345 K-0.0013
X-4.3568 Z-0.1449 I-0.082 K-0.0834
X-4.4194 Z-0.1351 I-0.0629 K-0.1963
G1 X-4.4208 Z-0.1348
X-4.4221 Z-0.1344
X-4.4235 Z-0.1339
X-4.4249 Z-0.1337
X-4.4391
G17 G2 Y-1.8625 I0 J0.005
G1 X-4.4377 Z-0.1339
X-4.4364 Z-0.1344
X-4.4351 Z-0.1348
X-4.4337 Z-0.135
G18 G3 X-4.3399 Z-0.1608 I0.0023 K-0.1748
X-4.3188 Z-0.1839 I-0.0332 K-0.0516
X-4.3157 Z-0.1977 I-0.0286 K-0.0137
G1 Z-0.3006
G2 X-4.2987 Z-0.3282 I0.0331 K0.0013
X-4.2496 Z-0.3458 I0.063 K0.0985
G1 X-4.2361 Z-0.3479
X-4.2217 Z-0.3491
X-4.2023 Z-0.3498
X4.2019
G2 X4.2759 Z-0.3396 I0.0034 K0.2495
X4.3074 Z-0.3211 I-0.0245 K0.0779
G1 X4.3115 Z-0.3156
X4.3142 Z-0.3097
X4.3155 Z-0.3021
X4.3157 Z-0.1975
G3 X4.335 Z-0.165 I0.0416 K-0.0027
X4.3919 Z-0.1397 I0.0818 K-0.1074
G1 X4.4053 Z-0.1371
X4.4189 Z-0.1356
X4.4337 Z-0.135
X4.435 Z-0.1348
X4.4362 Z-0.1344
X4.4375 Z-0.1339
X4.4389 Z-0.1337
X4.4526
G17 G3 Y-1.8525 I0 J0.005
G1 X4.4512 Z-0.1339
X4.4498 Z-0.1344
X4.4486 Z-0.1348
X4.4473 Z-0.135
G18 G2 X4.3582 Z-0.1598 I-0.0018 K-0.166
X4.337 Z-0.184 I0.033 K-0.0503
G1 X4.3352 Z-0.1887
X4.3341 Z-0.1946
X4.3338 Z-0.3016
X4.3328 Z-0.3086
G3 X4.3148 Z-0.3302 I-0.0384 K0.0137
G1 X4.3084 Z-0.3342
G3 X4.2512 Z-0.3487 I-0.0662 K0.1412
G1 X4.2291 Z-0.3498
X-4.2255 Z-0.3499
G3 X-4.3034 Z-0.3368 I-0.0055 K0.2061
X-4.3271 Z-0.3196 I0.0302 K0.0663
X-4.334 Z-0.3004 I0.0271 K0.0205
G1 X-4.3339 Z-0.1973
G2 X-4.3575 Z-0.1608 I-0.0475 K-0.0048
X-4.4473 Z-0.1352 I-0.086 K-0.1312
G1 X-4.4487 Z-0.1349
X-4.45 Z-0.1344
X-4.4513 Z-0.1339
X-4.4528 Z-0.1337
X-4.4656
G17 G2 Y-1.8425 I0 J0.005
G1 X-4.4642 Z-0.1339
X-4.4629 Z-0.1344
X-4.4617 Z-0.1348
X-4.4604 Z-0.135
G18 G3 X-4.3754 Z-0.1589 I0.0018 K-0.1564
X-4.3543 Z-0.182 I-0.038 K-0.0558
X-4.3506 Z-0.1961 I-0.0305 K-0.0156
G1 Z-0.3006
G2 X-4.3366 Z-0.3273 I0.0342 K0.0009
X-4.298 Z-0.3446 I0.057 K0.0752
G1 X-4.2838 Z-0.3473
X-4.2664 Z-0.3492
X-4.251 Z-0.3498
X4.1842 Z-0.35
X4.2539 Z-0.3498
G2 X4.3258 Z-0.3348 I0.0024 K0.1688
X4.3467 Z-0.3157 I-0.0254 K0.0487
X4.3506 Z-0.3004 I-0.0324 K0.0165
G1 X4.3508 Z-0.1941
G3 X4.3669 Z-0.1663 I0.0432 K-0.0064
X4.4188 Z-0.1402 I0.0781 K-0.0908
G1 X4.4322 Z-0.1374
X4.4457 Z-0.1357
X4.4604 Z-0.135
X4.4617 Z-0.1348
X4.4629 Z-0.1344
X4.4642 Z-0.1339
X4.4656 Z-0.1337
X4.4781
G17 G3 Y-1.8325 I0 J0.005
G1 X4.4767 Z-0.1339
X4.4753 Z-0.1344
X4.4741 Z-0.1348
X4.4729 Z-0.135
G18 G2 X4.3878 Z-0.1609 I-0.0022 K-0.1457
X4.3695 Z-0.1839 I0.0326 K-0.0447
G1 X4.3676 Z-0.1901
X4.3669 Z-0.1942
X4.3668 Z-0.3006
X4.3655 Z-0.3097
G3 X4.3486 Z-0.3307 I-0.0371 K0.0125
X4.2927 Z-0.3485 I-0.0613 K0.0957
G1 X4.2776 Z-0.3497
X4.2466 Z-0.35
X-4.2699 Z-0.3499
G3 X-4.3393 Z-0.3366 I-0.0045 K0.1645
X-4.3615 Z-0.3182 I0.0273 K0.0557
X-4.3667 Z-0.3004 I0.0299 K0.0184
G1 X-4.3668 Z-0.1972
G2 X-4.3883 Z-0.1607 I-0.0483 K-0.0039
X-4.4729 Z-0.1351 I-0.0812 K-0.116
G1 X-4.4742 Z-0.1349
X-4.4755 Z-0.1344
X-4.4768 Z-0.1339
X-4.4782 Z-0.1337
X-4.4904
G17 G2 Y-1.8225 I0 J0.005
G1 X-4.489 Z-0.1339
X-4.4877 Z-0.1344
X-4.4864 Z-0.1348
X-4.485 Z-0.135
G18 G3 X-4.4059 Z-0.1581 I0.0016 K-0.1416
X-4.3844 Z-0.184 I-0.0365 K-0.0521
X-4.3818 Z-0.1975 I-0.0337 K-0.0136
G1 Z-0.3006
G2 X-4.3615 Z-0.3326 I0.038 K0.0016
X-4.3048 Z-0.349 I0.0596 K0.0997
G1 X-4.2893 Z-0.3499
X3.9988 Z-0.35
X4.293 Z-0.3498
G2 X4.358 Z-0.3353 I0.0021 K0.1438
X4.3781 Z-0.3155 I-0.0266 K0.0472
G1 X4.3805 Z-0.3095
X4.3817 Z-0.301
X4.3818 Z-0.1972
X4.3822 Z-0.1922
G3 X4.3982 Z-0.165 I0.0469 K-0.0092
X4.4436 Z-0.1408 I0.0726 K-0.0816
G1 X4.4569 Z-0.1376
X4.4704 Z-0.1357
X4.485 Z-0.135
X4.4863 Z-0.1348
X4.4875 Z-0.1344
X4.4888 Z-0.1339
X4.4902 Z-0.1337
X4.5017
G17 G3 Y-1.8125 I0 J0.005
G1 X4.5003 Z-0.1339
X4.4989 Z-0.1344
X4.4977 Z-0.1348
X4.4964 Z-0.135
G18 G2 X4.4209 Z-0.1572 I-0.0016 K-0.1342
X4.3995 Z-0.1819 I0.0356 K-0.0525
G1 X4.3982 Z-0.1855
X4.3965 Z-0.1927
X4.3962 Z-0.1975
Z-0.3006
G3 X4.3789 Z-0.3312 I-0.037 K0.0008
X4.3374 Z-0.3474 I-0.054 K0.0769
G1 X4.3299 Z-0.3486
X4.3155 Z-0.3497
X4.2884 Z-0.35
X-4.3093 Z-0.3499
G3 X-4.3723 Z-0.3357 I-0.003 K0.1339
X-4.3908 Z-0.3192 I0.0277 K0.0498
X-4.3962 Z-0.3004 I0.0293 K0.0185
G1 Z-0.1973
G2 X-4.4156 Z-0.1616 I-0.047 K-0.0024
X-4.4964 Z-0.1352 I-0.077 K-0.0989
G1 X-4.4977 Z-0.1349
X-4.499 Z-0.1344
X-4.5003 Z-0.1339
X-4.5017 Z-0.1337
X-4.5132
G17 G2 Y-1.8025 I0 J0.005
G1 X-4.5118 Z-0.1339
X-4.5105 Z-0.1344
X-4.5092 Z-0.1348
X-4.5078 Z-0.135
G18 G3 X-4.4301 Z-0.1599 I0.002 K-0.1274
X-4.4113 Z-0.1869 I-0.0368 K-0.0456
G1 X-4.4103 Z-0.1916
X-4.4098 Z-0.1972
Z-0.3006
X-4.4092 Z-0.307
G2 X-4.3813 Z-0.3383 I0.0447 K0.0117
X-4.3257 Z-0.3498 I0.053 K0.1156
G1 X4.2875 Z-0.35
X4.3301 Z-0.3497
G2 X4.3872 Z-0.3355 I0.0001 K0.1213
X4.4067 Z-0.3149 I-0.0268 K0.0449
G1 X4.409 Z-0.3084
X4.4097 Z-0.302
X4.4098 Z-0.1972
G3 X4.4273 Z-0.1629 I0.0478 K-0.0028
X4.4831 Z-0.1373 I0.0707 K-0.0806
G1 X4.4966 Z-0.1354
X4.5078 Z-0.135
X4.5091 Z-0.1348
X4.5103 Z-0.1344
X4.5116 Z-0.1339
X4.5131 Z-0.1337
X4.5235
G17 G3 Y-1.7925 I0 J0.005
G1 X4.5221 Z-0.1339
X4.5208 Z-0.1344
X4.5195 Z-0.1348
X4.5183 Z-0.135
G18 G2 X4.4381 Z-0.1639 I-0.0024 K-0.1191
X4.4234 Z-0.1911 I0.0344 K-0.0362
G1 X4.4228 Z-0.1974
Z-0.3006
X4.4218 Z-0.3092
G3 X4.3938 Z-0.3389 I-0.0441 K0.0136
X4.3463 Z-0.3496 I-0.0464 K0.095
G1 X4.3114 Z-0.35
X-4.3405 Z-0.3499
G3 X-4.3988 Z-0.3366 I-0.0034 K0.1197
X-4.4203 Z-0.314 I0.0209 K0.0415
G1 X-4.4219 Z-0.309
X-4.4228 Z-0.3006
X-4.4229 Z-0.1969
X-4.4233 Z-0.1914
G2 X-4.4496 Z-0.155 I-0.054 K-0.0114
X-4.5183 Z-0.1349 I-0.0678 K-0.1042
G1 X-4.5196 Z-0.1348
X-4.5209 Z-0.1344
X-4.5222 Z-0.1339
X-4.5236 Z-0.1337
X-4.5341
G17 G2 Y-1.7825 I0 J0.005
G1 X-4.5326 Z-0.1339
X-4.5313 Z-0.1344
X-4.53 Z-0.1348
X-4.5287 Z-0.135
G18 G3 X-4.4506 Z-0.1636 I0.0023 K-0.1149
X-4.4364 Z-0.1885 I-0.0401 K-0.0394
G1 X-4.4354 Z-0.195
X-4.4353 Z-0.3006
X-4.4344 Z-0.3087
G2 X-4.4094 Z-0.3379 I0.0441 K0.0125
X-4.3541 Z-0.3499 I0.0513 K0.1026
G1 X4.3559
G2 X4.413 Z-0.3361 I0.0031 K0.1121
X4.4319 Z-0.3158 I-0.027 K0.0442
G1 X4.4341 Z-0.3099
X4.4347 Z-0.3066
X4.4353 Z-0.3006
Z-0.1975
G3 X4.4518 Z-0.1629 I0.0486 K-0.002
X4.5287 Z-0.1352 I0.0728 K-0.0814
G1 X4.53 Z-0.1349
X4.5312 Z-0.1344
X4.5325 Z-0.1339
X4.534 Z-0.1337
X4.5438
G17 G3 Y-1.7725 I0 J0.005
G1 X4.5424 Z-0.1339
X4.5411 Z-0.1344
X4.5399 Z-0.1348
X4.5387 Z-0.135
G18 G2 X4.462 Z-0.1637 I-0.0022 K-0.111
X4.4473 Z-0.1974 I0.0344 K-0.0351
G1 X4.4471 Z-0.3018
G3 X4.4253 Z-0.3358 I-0.0403 K0.0019
X4.3753 Z-0.3497 I-0.0495 K0.0815
G1 X4.3482 Z-0.35
X-4.3696 Z-0.3499
G3 X-4.4219 Z-0.3382 I-0.0025 K0.1112
X-4.4416 Z-0.3205 I0.024 K0.0465
X-4.4472 Z-0.3004 I0.033 K0.0201
G1 X-4.4473 Z-0.1958
G2 X-4.4755 Z-0.1533 I-0.0541 K-0.0053
X-4.5387 Z-0.1351 I-0.0608 K-0.0925
G1 X-4.54 Z-0.1349
X-4.5411 Z-0.1344
X-4.5412
X-4.5425 Z-0.1339
X-4.5439 Z-0.1337
X-4.5537
G17 G2 Y-1.7625 I0 J0.005
G1 X-4.5523 Z-0.1339
X-4.5509 Z-0.1344
X-4.5496 Z-0.1348
X-4.5482 Z-0.135
G18 G3 X-4.4715 Z-0.1655 I0.0025 K-0.1055
X-4.4586 Z-0.1977 I-0.0369 K-0.0334
G1 Z-0.3006
G2 X-4.4391 Z-0.3346 I0.0404 K0.0006
X-4.3843 Z-0.3499 I0.0523 K0.0818
G1 X4.3722 Z-0.35
X4.3944 Z-0.3494
G2 X4.448 Z-0.3274 I-0.0037 K0.0853
X4.4586 Z-0.3011 I-0.0306 K0.0277
G1 Z-0.1972
G3 X4.4799 Z-0.1576 I0.0539 K-0.0035
X4.5482 Z-0.1349 I0.0675 K-0.0889
G1 X4.5495 Z-0.1348
X4.5507 Z-0.1344
X4.552 Z-0.1339
X4.5535 Z-0.1337
X4.563
G17 G3 Y-1.7525 I0 J0.005
G1 X4.5616 Z-0.1339
X4.5602 Z-0.1344
X4.559 Z-0.1348
X4.5578 Z-0.135
G18 G2 X4.4845 Z-0.1629 I-0.002 K-0.105
X4.4698 Z-0.1939 I0.0366 K-0.0363
G1 X4.4695 Z-0.3022
G3 X4.4486 Z-0.3358 I-0.0405 K0.0019
X4.4063 Z-0.3494 I-0.0465 K0.0721
G1 X4.3841 Z-0.35
X-4.3956 Z-0.3499
G3 X-4.4503 Z-0.3351 I-0.0031 K0.0968
X-4.4674 Z-0.314 I0.0242 K0.0372
G1 X-4.469 Z-0.3083
X-4.4697 Z-0.3006
Z-0.1973
X-4.4703 Z-0.1902
G2 X-4.5021 Z-0.1496 I-0.0599 K-0.0141
X-4.5578 Z-0.1351 I-0.0546 K-0.0954
G1 X-4.5592 Z-0.1348
X-4.5605 Z-0.1344
X-4.5618 Z-0.1339
X-4.5632 Z-0.1337
X-4.572
G17 G2 Y-1.7425 I0 J0.005
G1 X-4.5706 Z-0.1339
X-4.5692 Z-0.1344
X-4.5679 Z-0.1348
X-4.5666 Z-0.135
G18 G3 X-4.494 Z-0.1638 I0.0021 K-0.1004
X-4.4803 Z-0.1939 I-0.0379 K-0.0355
G1 X-4.4801 Z-0.3006
G2 X-4.4564 Z-0.3379 I0.043 K0.0011
X-4.4092 Z-0.3498 I0.0453 K0.0801
G1 X4.3821 Z-0.35
X4.4131 Z-0.3497
G2 X4.4701 Z-0.3273 I0.0007 K0.082
X4.48 Z-0.3017 I-0.0299 K0.0262
G1 X4.4801 Z-0.1975
G3 X4.5073 Z-0.1529 I0.055 K-0.0029
X4.5665 Z-0.1351 I0.0571 K-0.0825
G1 X4.5678 Z-0.1349
X4.569 Z-0.1344
X4.5703 Z-0.1339
X4.5717 Z-0.1337
X4.5805
G17 G3 Y-1.7325 I0 J0.005
G1 X4.5791 Z-0.1339
X4.5778 Z-0.1344
X4.5766 Z-0.1348
X4.5753 Z-0.135
G18 G2 X4.5028 Z-0.1649 I-0.0019 K-0.0982
X4.4904 Z-0.1975 I0.0399 K-0.0338
G1 X4.4903 Z-0.3021
G3 X4.4696 Z-0.3362 I-0.0414 K0.0018
X4.4237 Z-0.3497 I-0.0451 K0.0688
G1 X4.3463 Z-0.35
X-4.4218 Z-0.3499
G3 X-4.4747 Z-0.3329 I-0.0016 K0.0857
X-4.488 Z-0.3152 I0.0313 K0.0372
G1 X-4.4899 Z-0.3076
X-4.4904 Z-0.3006
X-4.4905 Z-0.1946
G2 X-4.5259 Z-0.1474 I-0.0589 K-0.0073
X-4.5753 Z-0.135 I-0.0488 K-0.0896
G1 X-4.5766 Z-0.1348
X-4.5779 Z-0.1344
X-4.5792 Z-0.1339
X-4.5806 Z-0.1337
X-4.589
G17 G2 Y-1.7225 I0 J0.005
G1 X-4.5876 Z-0.1339
X-4.5863 Z-0.1344
X-4.5862
X-4.585 Z-0.1348
X-4.5838 Z-0.135
G18 G3 X-4.5118 Z-0.1657 I0.0022 K-0.0947
X-4.5001 Z-0.1947 I-0.0401 K-0.033
G1 X-4.5 Z-0.3006
G2 X-4.4756 Z-0.3388 I0.0433 K0.0007
X-4.4311 Z-0.3498 I0.0422 K0.0752
G1 X4.4338
G2 X4.4903 Z-0.3275 I0.0017 K0.0784
X4.4999 Z-0.3015 I-0.0318 K0.0265
G1 X4.5 Z-0.1975
G3 X4.5248 Z-0.1539 I0.0542 K-0.002
X4.5838 Z-0.1351 I0.0567 K-0.076
G1 X4.585 Z-0.1349
X4.5862 Z-0.1344
X4.5875 Z-0.1339
X4.5889 Z-0.1337
X4.597
G17 G3 Y-1.7125 I0 J0.005
G1 X4.5955 Z-0.1339
X4.5942 Z-0.1344
X4.593 Z-0.1348
X4.5918 Z-0.135
G18 G2 X4.5224 Z-0.1639 I-0.0017 K-0.0937
X4.5096 Z-0.1975 I0.0407 K-0.0348
G1 X4.5094 Z-0.3029
X4.5088 Z-0.3087
G3 X4.4767 Z-0.3434 I-0.0495 K0.0136
X4.4399 Z-0.35 I-0.0347 K0.0879
G1 X-4.4405
G3 X-4.4877 Z-0.3379 I-0.0027 K0.0875
X-4.5089 Z-0.3086 I0.0238 K0.0395
G1 X-4.5096 Z-0.3006
X-4.5097 Z-0.1944
X-4.5105 Z-0.1883
G2 X-4.5464 Z-0.1459 I-0.0612 K-0.0154
X-4.5918 Z-0.135 I-0.0452 K-0.0881
G1 X-4.5932 Z-0.1348
X-4.5944 Z-0.1344
X-4.5958 Z-0.1339
X-4.5972 Z-0.1337
X-4.6052
G17 G2 Y-1.7025 I0 J0.005
G1 X-4.6038 Z-0.1339
X-4.6024 Z-0.1344
X-4.6012 Z-0.1348
X-4.5998 Z-0.135
G18 G3 X-4.5282 Z-0.1677 I0.0021 K-0.0902
X-4.5186 Z-0.1949 I-0.0434 K-0.0307
G1 X-4.5185 Z-0.3006
G2 X-4.4888 Z-0.342 I0.045 K0.0009
X-4.4542 Z-0.3498 I0.0341 K0.0706
G1 X4.4494 Z-0.35
G2 X4.4929 Z-0.3403 I0.003 K0.0891
X4.5179 Z-0.3085 I-0.0214 K0.0425
G1 X4.5184 Z-0.3022
X4.5185 Z-0.1972
X4.5188 Z-0.1921
G3 X4.5499 Z-0.1488 I0.0583 K-0.0091
X4.5998 Z-0.135 I0.0491 K-0.0802
G1 X4.601 Z-0.1348
X4.6022 Z-0.1344
X4.6036 Z-0.1339
X4.605 Z-0.1337
X4.6125
G17 G3 Y-1.6925 I0 J0.005
G1 X4.6111 Z-0.1339
X4.6097 Z-0.1344
X4.6086 Z-0.1348
X4.6073 Z-0.135
G18 G2 X4.5387 Z-0.1654 I-0.0019 K-0.0883
X4.5273 Z-0.1945 I0.0426 K-0.0334
G1 Z-0.3006
G3 X4.5016 Z-0.3406 I-0.0463 K0.0015
X4.4735 Z-0.3492 I-0.0355 K0.0654
G1 X4.4582 Z-0.35
X-4.4609
G3 X-4.507 Z-0.3374 I-0.0024 K0.0815
X-4.5264 Z-0.3096 I0.0251 K0.0382
G1 X-4.5273 Z-0.3006
Z-0.1972
X-4.5276 Z-0.1917
G2 X-4.5663 Z-0.1443 I-0.0621 K-0.0112
X-4.6073 Z-0.1349 I-0.0405 K-0.0829
G1 X-4.6086 Z-0.1348
X-4.6098 Z-0.1344
X-4.6111 Z-0.1339
X-4.6126 Z-0.1337
X-4.6198
G17 G2 Y-1.6825 I0 J0.005
G1 X-4.6184 Z-0.1339
X-4.6171 Z-0.1344
X-4.6159 Z-0.1348
X-4.6147 Z-0.135
G18 G3 X-4.5466 Z-0.1658 I0.0016 K-0.0873
X-4.5359 Z-0.1937 I-0.0471 K-0.034
G1 X-4.5357 Z-0.3006
G2 X-4.5092 Z-0.3409 I0.0445 K0.0004
X-4.4715 Z-0.3499 I0.0363 K0.0685
G1 X4.4669 Z-0.35
G2 X4.5037 Z-0.3438 I0.004 K0.0885
X4.5332 Z-0.3157 I-0.0189 K0.0494
G1 X4.5348 Z-0.3096
X4.5355 Z-0.3031
X4.5357 Z-0.1975
G3 X4.5649 Z-0.1495 I0.0572 K-0.0019
X4.6147 Z-0.135 I0.0492 K-0.076
G1 X4.6159 Z-0.1348
X4.6171 Z-0.1344
X4.6184 Z-0.1339
X4.6198 Z-0.1337
X4.6272
G17 G3 Y-1.6725 I0 J0.005
G1 X4.6258 Z-0.1339
X4.6244 Z-0.1344
X4.6233 Z-0.1348
X4.622 Z-0.135
G18 G2 X4.554 Z-0.1666 I-0.0018 K-0.0851
X4.5437 Z-0.1975 I0.0435 K-0.0316
G1 X4.5436 Z-0.302
G3 X4.5119 Z-0.3437 I-0.0465 K0.0025
G1 X4.5051 Z-0.3464
X4.4979 Z-0.3482
X4.4905 Z-0.3494
X4.4752 Z-0.35
X-4.4825 Z-0.3498
G3 X-4.5347 Z-0.3274 I-0.0018 K0.0677
X-4.5437 Z-0.3006 I0.0347 K0.0266
G1 X-4.5438 Z-0.1972
G2 X-4.5748 Z-0.1483 I-0.0585 K-0.0028
X-4.622 Z-0.135 I-0.0466 K-0.0753
G1 X-4.6234 Z-0.1348
X-4.6246 Z-0.1344
X-4.626 Z-0.1339
X-4.6274 Z-0.1337
X-4.634
G17 G2 Y-1.6625 I0 J0.005
G1 X-4.6326 Z-0.1339
X-4.6313 Z-0.1344
X-4.63 Z-0.1348
X-4.6288 Z-0.135
G18 G3 X-4.5633 Z-0.1644 I0.0015 K-0.0842
X-4.5518 Z-0.1971 I-0.0448 K-0.0342
G1 Z-0.3006
G2 X-4.5181 Z-0.3446 I0.0472 K0.0013
X-4.4901 Z-0.35 I0.0267 K0.063
G1 X4.4832
G2 X4.5199 Z-0.3441 I0.0052 K0.0852
X4.549 Z-0.3162 I-0.0196 K0.0496
G1 X4.5512 Z-0.3081
X4.5518 Z-0.3009
Z-0.1971
X4.5521 Z-0.1923
G3 X4.5882 Z-0.1448 I0.061 K-0.0089
X4.6288 Z-0.135 I0.0402 K-0.0778
G1 X4.63 Z-0.1348
X4.6311 Z-0.1344
X4.6325 Z-0.1339
X4.6339 Z-0.1337
X4.6406
G17 G3 Y-1.6525 I0 J0.005
G1 X4.6392 Z-0.1339
X4.6378 Z-0.1344
X4.6367 Z-0.1348
X4.6355 Z-0.135
G18 G2 X4.5662 Z-0.1709 I-0.0019 K-0.0812
X4.5594 Z-0.1936 I0.0503 K-0.0275
G1 X4.5591 Z-0.3014
G3 X4.5277 Z-0.3439 I-0.0464 K0.0014
G1 X4.521 Z-0.3466
X4.5138 Z-0.3484
X4.5064 Z-0.3495
X4.4873 Z-0.35
X-4.4976 Z-0.3499
G3 X-4.5448 Z-0.3335 I-0.0019 K0.0706
X-4.5591 Z-0.3004 I0.029 K0.0322
G1 X-4.5592 Z-0.1973
G2 X-4.59 Z-0.1479 I-0.0584 K-0.0021
X-4.6355 Z-0.135 I-0.0451 K-0.0724
G1 X-4.6368 Z-0.1348
X-4.6381 Z-0.1344
X-4.6394 Z-0.1339
X-4.6408 Z-0.1337
X-4.6475
G17 G2 Y-1.6425 I0 J0.005
G1 X-4.6461 Z-0.1339
X-4.6448 Z-0.1344
X-4.6435 Z-0.1348
X-4.6421 Z-0.135
G18 G3 X-4.5786 Z-0.1637 I0.0016 K-0.0809
X-4.5666 Z-0.1935 I-0.0436 K-0.0348
G1 X-4.5665 Z-0.3006
G2 X-4.5359 Z-0.3437 I0.0469 K0.0009
X-4.5054 Z-0.3499 I0.0288 K0.0634
G1 X4.4833 Z-0.35
X4.5104 Z-0.3497
G2 X4.5614 Z-0.3219 I0 K0.0606
G1 X4.5639 Z-0.3158
X4.5656 Z-0.3098
X4.5664 Z-0.302
X4.5665 Z-0.1975
G3 X4.5928 Z-0.1506 I0.0581 K-0.0017
X4.6421 Z-0.135 I0.0486 K-0.068
G1 X4.6433 Z-0.1348
X4.6445 Z-0.1344
X4.6458 Z-0.1339
X4.6472 Z-0.1337
X4.6533
G17 G3 Y-1.6325 I0 J0.005
G1 X4.6519 Z-0.1339
X4.6505 Z-0.1344
X4.6494 Z-0.1348
X4.6482 Z-0.135
G18 G2 X4.5837 Z-0.1659 I-0.0013 K-0.08
X4.5736 Z-0.1976 I0.0464 K-0.0322
G1 Z-0.3006
G3 X4.5427 Z-0.3439 I-0.0465 K0.0005
G1 X4.536 Z-0.3467
X4.5288 Z-0.3485
X4.5177 Z-0.3498
X4.479 Z-0.35
X-4.5136 Z-0.3499
G3 X-4.5671 Z-0.3247 I-0.0024 K0.0643
X-4.5736 Z-0.3004 I0.0406 K0.0239
G1 X-4.5737 Z-0.1954
G2 X-4.6121 Z-0.1433 I-0.0609 K-0.0047
X-4.6482 Z-0.135 I-0.0358 K-0.0731
G1 X-4.6495 Z-0.1348
X-4.6508 Z-0.1344
X-4.6522 Z-0.1339
X-4.6536 Z-0.1337
X-4.6595
G17 G2 Y-1.6225 I0 J0.005
G1 X-4.6581 Z-0.1339
X-4.6567 Z-0.1344
X-4.6555 Z-0.1348
X-4.6543 Z-0.135
G18 G3 X-4.5878 Z-0.1698 I0.0015 K-0.078
X-4.5803 Z-0.1977 I-0.0479 K-0.0279
G1 Z-0.3006
G2 X-4.5532 Z-0.3425 I0.0461 K0.0001
X-4.5227 Z-0.3498 I0.0305 K0.0597
G1 X4.5163 Z-0.35
X4.5315 Z-0.3492
G2 X4.5714 Z-0.3277 I-0.0055 K0.058
X4.5802 Z-0.3011 I-0.0342 K0.0261
G1 X4.5803 Z-0.1972
G3 X4.6139 Z-0.1457 I0.0598 K-0.0023
X4.6543 Z-0.1351 I0.0392 K-0.0668
G1 X4.6555 Z-0.1348
X4.6566 Z-0.1344
X4.658 Z-0.1339
X4.6594 Z-0.1337
X4.6654
G17 G3 Y-1.6125 I0 J0.005
G1 X4.664 Z-0.1339
X4.6627 Z-0.1344
X4.6615 Z-0.1348
X4.6603 Z-0.135
G18 G2 X4.5953 Z-0.1685 I-0.0017 K-0.0765
X4.587 Z-0.1974 I0.0484 K-0.0295
G1 X4.5869 Z-0.3023
G3 X4.5566 Z-0.3442 I-0.0468 K0.002
G1 X4.5499 Z-0.3469
X4.539 Z-0.3492
X4.5315 Z-0.3498
X-4.5308
G3 X-4.5836 Z-0.3188 I-0.0012 K0.0585
X-4.587 Z-0.3004 I0.0544 K0.0195
G1 Z-0.1973
G2 X-4.6287 Z-0.1416 I-0.062 K-0.0029
X-4.6603 Z-0.1351 I-0.031 K-0.0704
G1 X-4.6617 Z-0.1348
X-4.663 Z-0.1344
X-4.6643 Z-0.1339
X-4.6657 Z-0.1337
X-4.671
G17 G2 Y-1.6025 I0 J0.005
G1 X-4.6696 Z-0.1339
X-4.6682 Z-0.1344
X-4.667 Z-0.1348
X-4.6658 Z-0.135
G18 G3 X-4.5997 Z-0.1715 I0.0014 K-0.0756
X-4.5934 Z-0.197 I-0.0519 K-0.0264
G1 X-4.5933 Z-0.3006
G2 X-4.5637 Z-0.344 I0.0464 K-0.0001
X-4.5357 Z-0.35 I0.0271 K0.0582
G1 X4.5381 Z-0.3498
G2 X4.585 Z-0.3273 I0.0003 K0.0595
X4.5933 Z-0.3004 I-0.0382 K0.0265
G1 X4.5934 Z-0.1936
G3 X4.6286 Z-0.1442 I0.0608 K-0.0061
X4.6658 Z-0.135 I0.0367 K-0.0683
G1 X4.6671 Z-0.1348
X4.6683 Z-0.1344
X4.6696 Z-0.1339
X4.671 Z-0.1337
X4.6765
G17 G3 Y-1.5925 I0 J0.005
G1 X4.6751 Z-0.1339
X4.6738 Z-0.1344
X4.6726 Z-0.1348
X4.6713 Z-0.135
G18 G2 X4.6059 Z-0.1713 I-0.0013 K-0.0748
X4.5994 Z-0.1971 I0.0513 K-0.0266
G1 X4.5992 Z-0.3026
G3 X4.5588 Z-0.3477 I-0.0484 K0.0027
G1 X4.5515 Z-0.3493
X4.5363 Z-0.35
X-4.5415
G3 X-4.5896 Z-0.3294 I-0.0022 K0.0613
X-4.5994 Z-0.3004 I0.0369 K0.0286
G1 X-4.5995 Z-0.1935
G2 X-4.641 Z-0.1412 I-0.0625 K-0.007
X-4.6713 Z-0.135 I-0.0295 K-0.0671
G1 X-4.6726 Z-0.1348
X-4.6737 Z-0.1344
X-4.6751 Z-0.1339
X-4.6765 Z-0.1337
X-4.682
G17 G2 Y-1.5825 I0 J0.005
G1 X-4.6806 Z-0.1339
X-4.6793 Z-0.1344
X-4.6781 Z-0.1348
X-4.6768 Z-0.135
G18 G3 X-4.6085 Z-0.1786 I0.002 K-0.0722
G1 X-4.6063 Z-0.1878
X-4.6057 Z-0.1927
X-4.6055 Z-0.1963
X-4.6054 Z-0.3006
G2 X-4.5682 Z-0.3468 I0.0482 K0.0007
G1 X-4.5616 Z-0.3488
X-4.5508 Z-0.3498
X4.5424 Z-0.35
X4.5576 Z-0.3494
G2 X4.597 Z-0.3275 I-0.0056 K0.0564
X4.6054 Z-0.3028 I-0.0358 K0.0259
G1 X4.6056 Z-0.1932
G3 X4.659 Z-0.1373 I0.0641 K-0.0078
G1 X4.6691 Z-0.1354
X4.6768 Z-0.135
X4.6781 Z-0.1348
X4.6793 Z-0.1344
X4.6806 Z-0.1339
X4.682 Z-0.1337
X4.687
G17 G3 Y-1.5725 I0 J0.005
G1 X4.6856 Z-0.1339
X4.6842 Z-0.1344
X4.683 Z-0.1348
X4.6818 Z-0.135
G18 G2 X4.6188 Z-0.1687 I-0.0011 K-0.0736
X4.611 Z-0.1974 I0.0502 K-0.0291
G1 Z-0.3006
G3 X4.5709 Z-0.3478 I-0.0483 K0.0004
G1 X4.5636 Z-0.3494
X4.5485 Z-0.35
X-4.5564 Z-0.3499
G3 X-4.6095 Z-0.3142 I-0.0018 K0.0547
G1 X-4.6104 Z-0.3088
X-4.611 Z-0.3006
X-4.6111 Z-0.1951
X-4.6117 Z-0.1885
G2 X-4.6698 Z-0.1362 I-0.0647 K-0.0135
G1 X-4.6773 Z-0.1351
X-4.6818 Z-0.135
X-4.6831 Z-0.1348
X-4.6844 Z-0.1344
X-4.6857 Z-0.1339
X-4.6871 Z-0.1337
X-4.6921
G17 G2 Y-1.5625 I0 J0.005
G1 X-4.6907 Z-0.1339
X-4.6893 Z-0.1344
X-4.6881 Z-0.1348
X-4.6867 Z-0.135
G18 G3 X-4.6202 Z-0.1767 I0.0013 K-0.0717
G1 X-4.6179 Z-0.1853
X-4.6166 Z-0.1933
X-4.6165 Z-0.3006
X-4.6162 Z-0.3051
G2 X-4.5702 Z-0.349 I0.049 K0.0053
G1 X-4.5634 Z-0.3498
X4.5493 Z-0.35
X4.5685 Z-0.3496
G2 X4.6117 Z-0.3219 I-0.0042 K0.0541
X4.6165 Z-0.3004 I-0.0441 K0.0212
G1 X4.6166 Z-0.1935
G3 X4.6496 Z-0.1447 I0.0612 K-0.0058
X4.6867 Z-0.1349 I0.0364 K-0.063
G1 X4.688 Z-0.1348
X4.6891 Z-0.1344
X4.6905 Z-0.1339
X4.6919 Z-0.1337
X4.6968
G17 G3 Y-1.5525 I0 J0.005
G1 X4.6954 Z-0.1339
X4.6941 Z-0.1344
X4.6929 Z-0.1348
X4.6916 Z-0.135
G18 G2 X4.6258 Z-0.1764 I-0.0016 K-0.0704
X4.622 Z-0.1975 I0.0588 K-0.0216
G1 X4.6219 Z-0.3006
G3 X4.5883 Z-0.3461 I-0.0477 K0.0001
G1 X4.5813 Z-0.3484
X4.574 Z-0.3496
X4.5548 Z-0.35
X-4.5656
G3 X-4.6201 Z-0.3154 I-0.0031 K0.0554
G1 X-4.6215 Z-0.3077
X-4.6219 Z-0.3007
X-4.622 Z-0.1942
G2 X-4.6787 Z-0.1364 I-0.064 K-0.0061
G1 X-4.6889 Z-0.135
X-4.6916
X-4.693 Z-0.1348
X-4.6943 Z-0.1344
X-4.6956 Z-0.1339
X-4.697 Z-0.1337
X-4.7015
G17 G2 Y-1.5425 I0 J0.005
G1 X-4.7001 Z-0.1339
X-4.6988 Z-0.1344
X-4.6975 Z-0.1348
X-4.6961 Z-0.135
G18 G3 X-4.6288 Z-0.1816 I0.0014 K-0.0698
G1 X-4.6273 Z-0.1904
X-4.6269 Z-0.1972
Z-0.3007
X-4.6264 Z-0.3082
G2 X-4.5824 Z-0.3489 I0.0486 K0.0084
G1 X-4.5717 Z-0.35
X4.5602
X4.5794 Z-0.3496
G2 X4.6263 Z-0.31 I-0.0032 K0.0514
G1 X4.6269 Z-0.3006
Z-0.1974
X4.6273 Z-0.1902
G3 X4.6783 Z-0.1374 I0.0635 K-0.0103
G1 X4.6884 Z-0.1354
X4.6961 Z-0.135
X4.6974 Z-0.1348
X4.6986 Z-0.1344
X4.6999 Z-0.1339
X4.7013 Z-0.1337
X4.7057
G17 G3 Y-1.5325 I0 J0.005
G1 X4.7043 Z-0.1339
X4.703 Z-0.1344
X4.7018 Z-0.1348
X4.7005 Z-0.135
G18 G2 X4.6354 Z-0.1773 I-0.0011 K-0.0696
X4.6319 Z-0.1973 I0.0571 K-0.0204
G1 X4.6318 Z-0.3009
G3 X4.5987 Z-0.3462 I-0.0478 K0.0002
G1 X4.5917 Z-0.3485
X4.5844 Z-0.3496
X4.5656 Z-0.35
X-4.578 Z-0.3499
G3 X-4.6302 Z-0.3144 I-0.002 K0.0532
G1 X-4.631 Z-0.3097
X-4.6318 Z-0.3006
Z-0.1971
X-4.6323 Z-0.1897
G2 X-4.7005 Z-0.1353 I-0.0654 K-0.012
G1 X-4.7019 Z-0.135
X-4.7031 Z-0.1344
X-4.7044 Z-0.1339
X-4.7058 Z-0.1337
X-4.71
G17 G2 Y-1.5225 I0 J0.005
G1 X-4.7086 Z-0.1339
X-4.7073 Z-0.1344
X-4.7072
X-4.7061 Z-0.1348
X-4.7049 Z-0.135
G18 G3 X-4.6375 Z-0.1858 I0.0017 K-0.0679
G1 X-4.6368 Z-0.1937
X-4.6366 Z-0.3006
X-4.636 Z-0.3089
G2 X-4.5885 Z-0.3494 I0.0489 K0.0093
G1 X-4.5847 Z-0.3498
X4.5705 Z-0.35
X4.5893 Z-0.3496
G2 X4.6319 Z-0.322 I-0.0039 K0.0527
X4.6366 Z-0.3011 I-0.0444 K0.0209
G1 X4.6368 Z-0.1933
G3 X4.6871 Z-0.1374 I0.0632 K-0.0063
G1 X4.6972 Z-0.1354
X4.7049 Z-0.135
X4.7062 Z-0.1348
X4.7074 Z-0.1344
X4.7087 Z-0.1339
X4.7101 Z-0.1337
X4.7142
G17 G3 Y-1.5125 I0 J0.005
G1 X4.7128 Z-0.1339
X4.7114 Z-0.1344
X4.7103 Z-0.1348
X4.709 Z-0.135
G18 G2 X4.6442 Z-0.178 I-0.0011 K-0.0686
G1 X4.6422 Z-0.1861
X4.6413 Z-0.1922
X4.641 Z-0.1975
X4.6408 Z-0.3035
G3 X4.6084 Z-0.3462 I-0.0473 K0.0022
G1 X4.6014 Z-0.3485
X4.5941 Z-0.3496
X4.5755 Z-0.35
X-4.5875
G3 X-4.6351 Z-0.3246 I-0.0017 K0.0541
X-4.6411 Z-0.3004 I0.0448 K0.0239
G1 Z-0.1952
G2 X-4.6992 Z-0.136 I-0.0638 K-0.0045
G1 X-4.709 Z-0.135
X-4.7102 Z-0.1348
X-4.7113 Z-0.1344
X-4.7114
X-4.7127 Z-0.1339
X-4.7141 Z-0.1337
X-4.7182
G17 G2 Y-1.5025 I0 J0.005
G1 X-4.7168 Z-0.1339
X-4.7155 Z-0.1344
X-4.7142 Z-0.1348
X-4.7129 Z-0.135
G18 G3 X-4.6456 Z-0.1899 I0.0013 K-0.0671
G1 X-4.6454 Z-0.1975
Z-0.3006
G2 X-4.6013 Z-0.349 I0.0486 K0
G1 X-4.5945 Z-0.3498
X4.5801 Z-0.35
X4.5992 Z-0.3496
G2 X4.6433 Z-0.3158 I-0.004 K0.0509
G1 X4.6446 Z-0.3097
X4.6453 Z-0.3032
X4.6454 Z-0.1975
X4.646 Z-0.1893
G3 X4.7129 Z-0.1352 I0.0647 K-0.0116
G1 X4.7142 Z-0.1349
X4.7153 Z-0.1344
X4.7167 Z-0.1339
X4.7181 Z-0.1337
X4.7219
G17 G3 Y-1.4925 I0 J0.005
G1 X4.7205 Z-0.1339
X4.7192 Z-0.1344
X4.718 Z-0.1348
X4.7168 Z-0.135
G18 G2 X4.6513 Z-0.1831 I-0.0013 K-0.0669
G1 X4.6503 Z-0.1897
X4.6497 Z-0.1975
X4.6496 Z-0.303
X4.6489 Z-0.3098
G3 X4.6172 Z-0.3463 I-0.0469 K0.0087
G1 X4.6102 Z-0.3485
X4.6062 Z-0.3492
X4.5987 Z-0.3499
X-4.599 Z-0.3498
G3 X-4.6492 Z-0.3096 I-0.0005 K0.0508
G1 X-4.6497 Z-0.3006
X-4.6499 Z-0.1929
X-4.6511 Z-0.1848
G2 X-4.7168 Z-0.1352 I-0.0635 K-0.0158
G1 X-4.718 Z-0.1349
X-4.7192 Z-0.1344
X-4.7205 Z-0.1339
X-4.7219 Z-0.1337
X-4.7258
G17 G2 Y-1.4825 I0 J0.005
G1 X-4.7244 Z-0.1339
X-4.7231 Z-0.1344
X-4.7218 Z-0.1348
X-4.7205 Z-0.135
G18 G3 X-4.6537 Z-0.1906 I0.0014 K-0.0662
G1 Z-0.1947
X-4.6536 Z-0.3006
G2 X-4.6091 Z-0.3492 I0.0485 K-0.0003
G1 X-4.6023 Z-0.3499
X4.6031 Z-0.3498
G2 X4.6529 Z-0.3096 I0.0007 K0.0501
G1 X4.6535 Z-0.3028
X4.6536 Z-0.1975
X4.6541 Z-0.19
G3 X4.7128 Z-0.1356 I0.0636 K-0.0098
G1 X4.7205 Z-0.135
X4.7217 Z-0.1348
X4.7229 Z-0.1344
X4.7242 Z-0.1339
X4.7256 Z-0.1337
X4.729
G17 G3 Y-1.4725 I0 J0.005
G1 X4.7276 Z-0.1339
X4.7263 Z-0.1344
X4.7251 Z-0.1348
X4.7239 Z-0.135
G18 G2 X4.6572 Z-0.1966 I-0.0014 K-0.0654
G1 X4.6573 Z-0.3031
G3 X4.6183 Z-0.3484 I-0.0479 K0.0018
G1 X4.6145 Z-0.3492
X4.607 Z-0.3499
X-4.6061
G3 X-4.6576 Z-0.3004 I-0.0017 K0.0498
G1 X-4.6575 Z-0.1975
G2 X-4.7239 Z-0.1353 I-0.0641 K-0.0019
G1 X-4.7251 Z-0.135
X-4.7263 Z-0.1344
X-4.7276 Z-0.1339
X-4.729 Z-0.1337
X-4.7325
G17 G2 Y-1.4625 I0 J0.005
G1 X-4.731 Z-0.1339
X-4.7297 Z-0.1344
X-4.7285 Z-0.1348
X-4.7273 Z-0.135
G18 G3 X-4.6611 Z-0.1974 I0.0015 K-0.0647
G1 X-4.6613 Z-0.3006
G2 X-4.6168 Z-0.3493 I0.0483 K-0.0005
G1 X-4.61 Z-0.3499
X4.6109
G2 X4.659 Z-0.3164 I0.0005 K0.0506
G1 X4.6608 Z-0.3079
X4.6612 Z-0.3011
X4.6613 Z-0.1975
X4.6615 Z-0.193
G3 X4.7273 Z-0.1353 I0.0637 K-0.0063
G1 X4.7285 Z-0.1349
X4.7297 Z-0.1344
X4.731 Z-0.1339
X4.7324 Z-0.1337
X4.7358
G17 G3 Y-1.4525 I0 J0.005
G1 X4.7344 Z-0.1339
X4.733 Z-0.1344
X4.7319 Z-0.1348
X4.7306 Z-0.135
G18 G2 X4.6644 Z-0.1973 I-0.0014 K-0.0648
G1 X4.6646 Z-0.3012
G3 X4.6222 Z-0.3492 I-0.0482 K-0.0001
G1 X4.6147 Z-0.3499
X-4.6139
G3 X-4.6647 Z-0.3004 I-0.0015 K0.0493
G1 Z-0.1971
G2 X-4.7306 Z-0.1353 I-0.0638 K-0.002
G1 X-4.732 Z-0.1349
X-4.7333 Z-0.1344
X-4.7346 Z-0.1339
X-4.736 Z-0.1337
X-4.7387
G17 G2 Y-1.4425 I0 J0.005
G1 X-4.7373 Z-0.1339
X-4.7359 Z-0.1344
X-4.7348 Z-0.1348
X-4.7336 Z-0.135
G18 G3 X-4.668 Z-0.1933 I0.001 K-0.0649
G1 X-4.6681 Z-0.3006
G2 X-4.6259 Z-0.3491 I0.0482 K-0.0007
G1 X-4.6168 Z-0.35
X4.6003
X4.6227 Z-0.3496
G2 X4.6681 Z-0.3022 I-0.0034 K0.0487
G1 X4.6682 Z-0.1936
G3 X4.7336 Z-0.1353 I0.0638 K-0.0057
G1 X4.7348 Z-0.1349
X4.736 Z-0.1344
X4.7373 Z-0.1339
X4.7387 Z-0.1337
X4.7416
G17 G3 Y-1.4325 I0 J0.005
G1 X4.7402 Z-0.1339
X4.7389 Z-0.1344
X4.7377 Z-0.1348
X4.7365 Z-0.135
G18 G2 X4.6714 Z-0.1936 I-0.001 K-0.0643
G1 X4.6712 Z-0.3027
G3 X4.6215 Z-0.3498 I-0.0487 K0.0016
G1 X-4.6226
G3 X-4.6715 Z-0.3007 I0.0001 K0.049
G1 X-4.6714 Z-0.1971
G2 X-4.7365 Z-0.1352 I-0.0635 K-0.0016
G1 X-4.7378 Z-0.1349
X-4.7391 Z-0.1344
X-4.7404 Z-0.1339
X-4.7418 Z-0.1337
X-4.7445
G17 G2 Y-1.4225 I0 J0.005
G1 X-4.7431 Z-0.1339
X-4.7417 Z-0.1344
X-4.7406 Z-0.1348
X-4.7394 Z-0.135
G18 G3 X-4.6742 Z-0.1943 I0.0011 K-0.0643
G1 X-4.6743 Z-0.3006
G2 X-4.6338 Z-0.3489 I0.0481 K-0.0008
G1 X-4.6231 Z-0.35
X4.6249 Z-0.3499
G2 X4.6743 Z-0.3025 I0.0006 K0.0488
G1 X4.6744 Z-0.1934
G3 X4.7394 Z-0.1352 I0.0634 K-0.0054
G1 X4.7406 Z-0.1349
X4.7418 Z-0.1344
X4.7431 Z-0.1339
X4.7445 Z-0.1337
X4.7471
G17 G3 Y-1.4125 I0 J0.005
G1 X4.7457 Z-0.1339
X4.7444 Z-0.1344
X4.7432 Z-0.1348
X4.742 Z-0.135
G18 G2 X4.677 Z-0.1977 I-0.0009 K-0.0641
G1 Z-0.3033
G3 X4.6285 Z-0.3498 I-0.0484 K0.0019
G1 X-4.6272 Z-0.3499
G3 X-4.6772 Z-0.3004 I-0.0011 K0.0489
G1 Z-0.1972
G2 X-4.742 Z-0.1352 I-0.0635 K-0.0015
G1 X-4.7433 Z-0.1349
X-4.7446 Z-0.1344
X-4.7459 Z-0.1339
X-4.7473 Z-0.1337
X-4.7498
G17 G2 Y-1.4025 I0 J0.005
G1 X-4.7484 Z-0.1339
X-4.747 Z-0.1344
X-4.7458 Z-0.1348
X-4.7444 Z-0.135
G18 G3 X-4.6799 Z-0.1973 I0.0008 K-0.0637
G1 X-4.6801 Z-0.3008
G2 X-4.6383 Z-0.3492 I0.048 K-0.0008
G1 X-4.6289 Z-0.35
X4.6307 Z-0.3499
G2 X4.6802 Z-0.3006 I0.0006 K0.0489
G1 X4.6801 Z-0.1971
G3 X4.7444 Z-0.1352 I0.0631 K-0.0012
G1 X4.7457 Z-0.1349
X4.7468 Z-0.1344
X4.7481 Z-0.1339
X4.7496 Z-0.1337
X4.752
G17 G3 Y-1.3925 I0 J0.005
G1 X4.7506 Z-0.1339
X4.7493 Z-0.1344
X4.7481 Z-0.1348
X4.7469 Z-0.135
G18 G2 X4.6824 Z-0.1973 I-0.0008 K-0.0637
G1 X4.6825 Z-0.3006
G3 X4.6335 Z-0.3499 I-0.0485 K-0.0008
G1 X-4.6338
G3 X-4.6826 Z-0.3006 I-0.0003 K0.0485
G1 X-4.6825 Z-0.197
G2 X-4.7469 Z-0.1351 I-0.0632 K-0.0013
G1 X-4.7481 Z-0.1349
X-4.7492 Z-0.1344
X-4.7506 Z-0.1339
X-4.752 Z-0.1337
X-4.7543
G17 G2 Y-1.3825 I0 J0.005
G1 X-4.7529 Z-0.1339
X-4.7516 Z-0.1344
X-4.7504 Z-0.1348
X-4.7492 Z-0.135
G18 G3 X-4.685 Z-0.1937 I0.0006 K-0.0638
G1 Z-0.3006
G2 X-4.6452 Z-0.349 I0.0481 K-0.001
G1 X-4.6345 Z-0.35
X4.6367 Z-0.3499
G2 X4.6851 Z-0.3006 I-0.0001 K0.0485
G1 X4.685 Z-0.1971
G3 X4.7492 Z-0.1352 I0.0631 K-0.0012
G1 X4.7504 Z-0.1349
X4.7516 Z-0.1344
X4.7529 Z-0.1339
X4.7543 Z-0.1337
X4.7563
G17 G3 Y-1.3725 I0 J0.005
G1 X4.7549 Z-0.1339
X4.7535 Z-0.1344
X4.7524 Z-0.1348
X4.7512 Z-0.135
G18 G2 X4.6874 Z-0.1975 I-0.0005 K-0.0633
G1 X4.6873 Z-0.3027
G3 X4.6384 Z-0.3499 I-0.0483 K0.0011
G1 X-4.6367 Z-0.35
G3 X-4.6874 Z-0.3004 I-0.0019 K0.0488
G1 X-4.6875 Z-0.1938
G2 X-4.7512 Z-0.1351 I-0.0629 K-0.0043
G1 X-4.7524 Z-0.1348
X-4.7535 Z-0.1344
X-4.7549 Z-0.1339
X-4.7563 Z-0.1337
X-4.7582
G17 G2 Y-1.3625 I0 J0.005
G1 X-4.7568 Z-0.1339
X-4.7555 Z-0.1344
X-4.7543 Z-0.1348
X-4.7532 Z-0.135
G18 G3 X-4.6893 Z-0.1973 I0.0006 K-0.0633
G1 X-4.6894 Z-0.3006
G2 X-4.6421 Z-0.3498 I0.0481 K-0.0011
G1 X4.6407 Z-0.3499
G2 X4.6893 Z-0.3025 I0.0005 K0.0481
G1 X4.6896 Z-0.193
G3 X4.7532 Z-0.1351 I0.0628 K-0.0051
G1 X4.7544 Z-0.1349
X4.7555 Z-0.1344
X4.7569 Z-0.1339
X4.7583 Z-0.1337
X4.7603
G17 G3 Y-1.3525 I0 J0.005
G1 X4.7589 Z-0.1339
X4.7575 Z-0.1344
X4.7564 Z-0.1348
X4.7551 Z-0.135
G18 G2 X4.6915 Z-0.1932 I-0.0004 K-0.0634
G1 X4.6914 Z-0.3006
G3 X4.6427 Z-0.3499 I-0.0483 K-0.001
G1 X-4.6439 Z-0.3498
G3 X-4.6914 Z-0.3004 I0.0006 K0.0481
G1 X-4.6915 Z-0.1935
G2 X-4.7551 Z-0.135 I-0.0629 K-0.0046
G1 X-4.7565 Z-0.1349
X-4.7577 Z-0.1344
X-4.759 Z-0.1339
X-4.7604 Z-0.1337
X-4.7621
G17 G2 Y-1.3425 I0 J0.005
G1 X-4.7607 Z-0.1339
X-4.7594 Z-0.1344
X-4.7581 Z-0.1348
X-4.7567 Z-0.135
G18 G3 X-4.6934 Z-0.1973 I0.0002 K-0.0631
G1 Z-0.3006
G2 X-4.6458 Z-0.3498 I0.0481 K-0.0011
G1 X4.6447 Z-0.3499
G2 X4.6934 Z-0.3004 I0.0004 K0.0483
G1 Z-0.1972
G3 X4.7567 Z-0.135 I0.0629 K-0.0007
G1 X4.758 Z-0.1348
X4.7591 Z-0.1344
X4.7604 Z-0.1339
X4.7619 Z-0.1337
X4.7634
G17 G3 Y-1.3325 I0 J0.005
G1 X4.762 Z-0.1339
X4.7606 Z-0.1344
X4.7595 Z-0.1348
X4.7583 Z-0.135
G18 G2 X4.6951 Z-0.1937 I-0.0003 K-0.063
G1 X4.6949 Z-0.303
G3 X4.6466 Z-0.3499 I-0.0478 K0.0009
G1 X-4.6478 Z-0.3498
G3 X-4.695 Z-0.3004 I0.0007 K0.0479
G1 X-4.6952 Z-0.1934
G2 X-4.7583 Z-0.1351 I-0.0626 K-0.0045
G1 X-4.7595 Z-0.1348
X-4.7607 Z-0.1344
X-4.7621 Z-0.1339
X-4.7635 Z-0.1337
X-4.7649
G17 G2 Y-1.3225 I0 J0.005
G1 X-4.7635 Z-0.1339
X-4.7622 Z-0.1344
X-4.761 Z-0.1348
X-4.7598 Z-0.135
G18 G3 X-4.6965 Z-0.1973 I0.0003 K-0.063
G1 X-4.6966 Z-0.3006
G2 X-4.6494 Z-0.3499 I0.048 K-0.0013
G1 X4.6489
G2 X4.6965 Z-0.3028 I-0.0002 K0.0478
G1 X4.6967 Z-0.1935
G3 X4.7598 Z-0.1351 I0.0626 K-0.0044
G1 X4.761 Z-0.1348
X4.7622 Z-0.1344
X4.7635 Z-0.1339
X4.7649 Z-0.1337
X4.7663
G17 G3 Y-1.3125 I0 J0.005
G1 X4.7649 Z-0.1339
X4.7635 Z-0.1344
X4.7624 Z-0.1348
X4.7612 Z-0.135
G18 G2 X4.6981 Z-0.1977 I-0.0002 K-0.0629
G1 X4.698 Z-0.3031
G3 X4.6497 Z-0.35 I-0.0479 K0.001
G1 X-4.6486
G3 X-4.6981 Z-0.3004 I-0.0012 K0.0483
G1 X-4.6982 Z-0.194
G2 X-4.7612 Z-0.1351 I-0.0627 K-0.0039
G1 X-4.7625 Z-0.1348
X-4.7637 Z-0.1344
X-4.7651 Z-0.1339
X-4.7665 Z-0.1337
X-4.7677
G17 G2 Y-1.3025 I0 J0.005
G1 X-4.7663 Z-0.1339
X-4.765 Z-0.1344
X-4.7637 Z-0.1348
X-4.7622 Z-0.135
G18 G3 X-4.6994 Z-0.1952 I0.0001 K-0.0627
G1 Z-0.3006
G2 X-4.651 Z-0.3499 I0.048 K-0.0013
G1 X4.6511
G2 X4.6992 Z-0.303 I0.0004 K0.0477
G1 X4.6994 Z-0.1975
G3 X4.7622 Z-0.1351 I0.0626 K-0.0002
G1 X4.7635 Z-0.1348
X4.7646 Z-0.1344
X4.7659 Z-0.1339
X4.7674 Z-0.1337
X4.7685
G17 G3 Y-1.2925 I0 J0.005
G1 X4.767 Z-0.1339
X4.7657 Z-0.1344
X4.7645 Z-0.1348
X4.7633 Z-0.135
G18 G2 X4.7004 Z-0.1972 I-0.0001 K-0.0628
G1 X4.7005 Z-0.3006
G3 X4.6522 Z-0.3499 I-0.048 K-0.0013
G1 X-4.6538 Z-0.3498
G3 X-4.7004 Z-0.3004 I0.0011 K0.0477
G1 X-4.7006 Z-0.1931
G2 X-4.7633 Z-0.135 I-0.0625 K-0.0046
G1 X-4.7647 Z-0.1348
X-4.7659 Z-0.1344
X-4.7673 Z-0.1339
X-4.7687 Z-0.1337
X-4.7697
G17 G2 Y-1.2825 I0 J0.005
G1 X-4.7683 Z-0.1339
X-4.767 Z-0.1344
X-4.7657 Z-0.1348
X-4.7644 Z-0.135
G18 G3 X-4.7016 Z-0.1972 I0.0001 K-0.0627
G1 Z-0.3006
G2 X-4.6527 Z-0.35 I0.0481 K-0.0013
G1 X4.6533 Z-0.3499
G2 X4.7014 Z-0.3031 I0.0004 K0.0477
G1 X4.7016 Z-0.1972
G3 X4.7644 Z-0.1351 I0.0626 K-0.0005
G1 X4.7656 Z-0.1348
X4.7668 Z-0.1344
X4.7681 Z-0.1339
X4.7695 Z-0.1337
X4.7702
G17 G3 Y-1.2725 I0 J0.005
G1 X4.7688 Z-0.1339
X4.7675 Z-0.1344
X4.7663 Z-0.1348
X4.7651 Z-0.135
G18 G2 X4.7024 Z-0.1974 I-0.0001 K-0.0626
G1 X4.7025 Z-0.3006
G3 X4.6544 Z-0.3499 I-0.0479 K-0.0014
G1 X-4.6555 Z-0.3498
G3 X-4.7024 Z-0.3004 I0.0007 K0.0476
G1 X-4.7025 Z-0.1958
G2 X-4.7651 Z-0.1351 I-0.0625 K-0.0018
G1 X-4.7663 Z-0.1348
X-4.7675 Z-0.1344
X-4.7688 Z-0.1339
X-4.7702 Z-0.1337
X-4.771
G17 G2 Y-1.2625 I0 J0.005
G1 X-4.7696 Z-0.1339
X-4.7683 Z-0.1344
X-4.767 Z-0.1348
X-4.7657 Z-0.135
G18 G3 X-4.7031 Z-0.1977 I0 K-0.0626
G1 X-4.703 Z-0.3022
G2 X-4.6549 Z-0.3499 I0.0477 K0
G1 X4.655
G2 X4.7031 Z-0.3004 I0.0003 K0.0478
G1 Z-0.1972
G3 X4.7657 Z-0.135 I0.0626 K-0.0004
G1 X4.767 Z-0.1348
X4.7681 Z-0.1344
X4.7694 Z-0.1339
X4.7709 Z-0.1337
X4.7715
G17 G3 Y-1.2525 I0 J0.005
G1 X4.7701 Z-0.1339
X4.7688 Z-0.1344
X4.7676 Z-0.1348
X4.7664 Z-0.135
G18 G2 X4.7037 Z-0.1974 I-0.0001 K-0.0626
G1 X4.7038 Z-0.3006
G3 X4.6557 Z-0.3499 I-0.0479 K-0.0014
G1 X-4.6542 Z-0.35
G3 X-4.7037 Z-0.3004 I-0.0015 K0.048
G1 X-4.7039 Z-0.1931
G2 X-4.7664 Z-0.135 I-0.0624 K-0.0045
G1 X-4.7677 Z-0.1348
X-4.769 Z-0.1344
X-4.7703 Z-0.1339
X-4.7718 Z-0.1337
X-4.7719
G17 G2 Y-1.2425 I0 J0.005
G1 X-4.7705 Z-0.1339
X-4.7692 Z-0.1344
X-4.768 Z-0.1348
X-4.7668 Z-0.135
G18 G3 X-4.7044 Z-0.1949 I0 K-0.0625
G1 X-4.7043 Z-0.301
G2 X-4.6558 Z-0.35 I0.0479 K-0.0011
G1 X4.6427
X4.6622 Z-0.3496
G2 X4.7043 Z-0.3009 I-0.0055 K0.0473
G1 Z-0.1972
G3 X4.7668 Z-0.135 I0.0625 K-0.0003
G1 X4.768 Z-0.1348
X4.7692 Z-0.1344
X4.7705 Z-0.1339
X4.772 Z-0.1337
X4.7722
G17 G3 Y-1.2325 I0 J0.005
G1 X4.7708 Z-0.1339
X4.7694 Z-0.1344
X4.7683 Z-0.1348
X4.7671 Z-0.135
G18 G2 X4.7046 Z-0.1974 I0 K-0.0625
G1 X4.7045 Z-0.3016
G3 X4.6625 Z-0.3496 I-0.0477 K-0.0006
G1 X4.639 Z-0.35
X-4.6594 Z-0.3498
G3 X-4.7045 Z-0.3016 I0.0023 K0.0474
G1 X-4.7046 Z-0.1971
G2 X-4.7671 Z-0.135 I-0.0625 K-0.0004
G1 X-4.7683 Z-0.1348
X-4.7694 Z-0.1344
X-4.7695
X-4.7708 Z-0.1339
X-4.7722 Z-0.1337
X-4.7725
G17 G2 Y-1.2225 I0 J0.005
G1 X-4.7711 Z-0.1339
X-4.7698 Z-0.1344
X-4.7686 Z-0.1348
X-4.7673 Z-0.135
G18 G3 X-4.7048 Z-0.1974 I0 K-0.0625
G1 Z-0.3016
G2 X-4.6599 Z-0.3499 I0.0476 K-0.0008
G1 X4.6192 Z-0.35
X4.6616 Z-0.3498
G2 X4.7048 Z-0.3014 I-0.0044 K0.0474
G1 Z-0.1972
G3 X4.7673 Z-0.135 I0.0625 K-0.0003
G1 X4.7685 Z-0.1348
X4.7696 Z-0.1344
X4.771 Z-0.1339
X4.7724 Z-0.1337
X4.7726
G17 G3 Y-1.2125 I0 J0.005
G1 X4.7712 Z-0.1339
X4.7698 Z-0.1344
X4.7687 Z-0.1348
X4.7675 Z-0.135
G18 G2 X4.705 Z-0.1977 I0 K-0.0625
G1 X4.7048 Z-0.3059
G3 X4.6605 Z-0.3498 I-0.0473 K0.0034
G1 X-4.661
G3 X-4.705 Z-0.3014 I0.0035 K0.0474
G1 Z-0.1971
G2 X-4.7675 Z-0.135 I-0.0625 K-0.0004
G1 X-4.7687 Z-0.1348
X-4.7698 Z-0.1344
X-4.7712 Z-0.1339
X-4.7726 Z-0.1337
X-4.7729
G17 G2 Y-1.2025 I0 J0.005
G1 X-4.7715 Z-0.1339
X-4.7702 Z-0.1344
X-4.7689 Z-0.1348
X-4.7675 Z-0.135
G18 G3 X-4.7052 Z-0.1929 I0 K-0.0625
G1 X-4.7049 Z-0.3053
G2 X-4.661 Z-0.3499 I0.0474 K0.0028
G1 X4.6605
G2 X4.705 Z-0.3014 I-0.0031 K0.0475
G1 Z-0.1972
G3 X4.7675 Z-0.135 I0.0625 K-0.0003
G1 X4.7687 Z-0.1348
X4.7698 Z-0.1344
X4.7712 Z-0.1339
X4.7726 Z-0.1337
G17 G3 Y-1.1925 I0 J0.005
G1 X4.7712 Z-0.1339
X4.7698 Z-0.1344
X4.7687 Z-0.1348
X4.7675 Z-0.135
G18 G2 X4.705 Z-0.1974 I0 K-0.0625
G1 Z-0.3016
G3 X4.6605 Z-0.3499 I-0.0476 K-0.0008
G1 X-4.661 Z-0.3498
G3 X-4.7048 Z-0.3053 I0.0035 K0.0473
G1 X-4.7052 Z-0.1929
G2 X-4.7675 Z-0.135 I-0.0623 K-0.0046
G1 X-4.7689 Z-0.1348
X-4.7702 Z-0.1344
X-4.7715 Z-0.1339
X-4.7729 Z-0.1337
G17 G2 Y-1.1825 I0 J0.005
G1 X-4.7715 Z-0.1339
X-4.7702 Z-0.1344
X-4.7689 Z-0.1348
X-4.7675 Z-0.135
G18 G3 X-4.7052 Z-0.1929 I0 K-0.0625
G1 X-4.7049 Z-0.3053
G2 X-4.661 Z-0.3499 I0.0474 K0.0028
G1 X4.6605
G2 X4.705 Z-0.3014 I-0.0031 K0.0475
G1 Z-0.1972
G3 X4.7675 Z-0.135 I0.0625 K-0.0003
G1 X4.7687 Z-0.1348
X4.7698 Z-0.1344
X4.7712 Z-0.1339
X4.7726 Z-0.1337
G17 G3 Y-1.1725 I0 J0.005
G1 X4.7712 Z-0.1339
X4.7698 Z-0.1344
X4.7687 Z-0.1348
X4.7675 Z-0.135
G18 G2 X4.705 Z-0.1974 I0 K-0.0625
G1 Z-0.3016
G3 X4.6605 Z-0.3499 I-0.0476 K-0.0008
G1 X-4.661 Z-0.3498
G3 X-4.7048 Z-0.3053 I0.0035 K0.0473
G1 X-4.7052 Z-0.1929
G2 X-4.7675 Z-0.135 I-0.0623 K-0.0046
G1 X-4.7689 Z-0.1348
X-4.7702 Z-0.1344
X-4.7715 Z-0.1339
X-4.7729 Z-0.1337
G17 G2 Y-1.1625 I0 J0.005
G1 X-4.7715 Z-0.1339
X-4.7702 Z-0.1344
X-4.7689 Z-0.1348
X-4.7675 Z-0.135
G18 G3 X-4.7052 Z-0.1929 I0 K-0.0625
G1 X-4.7049 Z-0.3053
G2 X-4.661 Z-0.3499 I0.0474 K0.0028
G1 X4.6605
G2 X4.705 Z-0.3014 I-0.0031 K0.0475
G1 Z-0.1972
G3 X4.7675 Z-0.135 I0.0625 K-0.0003
G1 X4.7687 Z-0.1348
X4.7698 Z-0.1344
X4.7712 Z-0.1339
X4.7726 Z-0.1337
G17 G3 Y-1.1525 I0 J0.005
G1 X4.7712 Z-0.1339
X4.7698 Z-0.1344
X4.7687 Z-0.1348
X4.7675 Z-0.135
G18 G2 X4.705 Z-0.1974 I0 K-0.0625
G1 Z-0.3016
G3 X4.6605 Z-0.3499 I-0.0476 K-0.0008
G1 X-4.661 Z-0.3498
G3 X-4.7048 Z-0.3053 I0.0035 K0.0473
G1 X-4.7052 Z-0.1929
G2 X-4.7675 Z-0.135 I-0.0623 K-0.0046
G1 X-4.7689 Z-0.1348
X-4.7702 Z-0.1344
X-4.7715 Z-0.1339
X-4.7729 Z-0.1337
G17 G2 Y-1.1425 I0 J0.005
G1 X-4.7715 Z-0.1339
X-4.7702 Z-0.1344
X-4.7689 Z-0.1348
X-4.7675 Z-0.135
G18 G3 X-4.7052 Z-0.1929 I0 K-0.0625
G1 X-4.7049 Z-0.3053
G2 X-4.661 Z-0.3499 I0.0474 K0.0028
G1 X4.6605
G2 X4.705 Z-0.3014 I-0.0031 K0.0475
G1 Z-0.1972
G3 X4.7675 Z-0.135 I0.0625 K-0.0003
G1 X4.7687 Z-0.1348
X4.7698 Z-0.1344
X4.7712 Z-0.1339
X4.7726 Z-0.1337
G17 G3 Y-1.1325 I0 J0.005
G1 X4.7712 Z-0.1339
X4.7698 Z-0.1344
X4.7687 Z-0.1348
X4.7675 Z-0.135
G18 G2 X4.705 Z-0.1974 I0 K-0.0625
G1 Z-0.3016
G3 X4.6605 Z-0.3499 I-0.0476 K-0.0008
G1 X-4.661 Z-0.3498
G3 X-4.7048 Z-0.3053 I0.0035 K0.0473
G1 X-4.7052 Z-0.1929
G2 X-4.7675 Z-0.135 I-0.0623 K-0.0046
G1 X-4.7689 Z-0.1348
X-4.7702 Z-0.1344
X-4.7715 Z-0.1339
X-4.7729 Z-0.1337
G17 G2 Y-1.1225 I0 J0.005
G1 X-4.7715 Z-0.1339
X-4.7702 Z-0.1344
X-4.7689 Z-0.1348
X-4.7675 Z-0.135
G18 G3 X-4.7052 Z-0.1929 I0 K-0.0625
G1 X-4.7049 Z-0.3053
G2 X-4.661 Z-0.3499 I0.0474 K0.0028
G1 X4.6605
G2 X4.705 Z-0.3014 I-0.0031 K0.0475
G1 Z-0.1972
G3 X4.7675 Z-0.135 I0.0625 K-0.0003
G1 X4.7687 Z-0.1348
X4.7698 Z-0.1344
X4.7712 Z-0.1339
X4.7726 Z-0.1337
G17 G3 Y-1.1125 I0 J0.005
G1 X4.7712 Z-0.1339
X4.7698 Z-0.1344
X4.7687 Z-0.1348
X4.7675 Z-0.135
G18 G2 X4.705 Z-0.1974 I0 K-0.0625
G1 Z-0.3016
G3 X4.6605 Z-0.3499 I-0.0476 K-0.0008
G1 X-4.661 Z-0.3498
G3 X-4.7048 Z-0.3053 I0.0035 K0.0473
G1 X-4.7052 Z-0.1929
G2 X-4.7675 Z-0.135 I-0.0623 K-0.0046
G1 X-4.7689 Z-0.1348
X-4.7702 Z-0.1344
X-4.7715 Z-0.1339
X-4.7729 Z-0.1337
G17 G2 Y-1.1025 I0 J0.005
G1 X-4.7715 Z-0.1339
X-4.7702 Z-0.1344
X-4.7689 Z-0.1348
X-4.7675 Z-0.135
G18 G3 X-4.7052 Z-0.1929 I0 K-0.0625
G1 X-4.7049 Z-0.3053
G2 X-4.661 Z-0.3499 I0.0474 K0.0028
G1 X4.6605
G2 X4.705 Z-0.3014 I-0.0031 K0.0475
G1 Z-0.1972
G3 X4.7675 Z-0.135 I0.0625 K-0.0003
G1 X4.7687 Z-0.1348
X4.7698 Z-0.1344
X4.7712 Z-0.1339
X4.7726 Z-0.1337
G17 G3 Y-1.0925 I0 J0.005
G1 X4.7712 Z-0.1339
X4.7698 Z-0.1344
X4.7687 Z-0.1348
X4.7675 Z-0.135
G18 G2 X4.705 Z-0.1974 I0 K-0.0625
G1 Z-0.3016
G3 X4.6605 Z-0.3499 I-0.0476 K-0.0008
G1 X-4.661 Z-0.3498
G3 X-4.7048 Z-0.3053 I0.0035 K0.0473
G1 X-4.7052 Z-0.1929
G2 X-4.7675 Z-0.135 I-0.0623 K-0.0046
G1 X-4.7689 Z-0.1348
X-4.7702 Z-0.1344
X-4.7715 Z-0.1339
X-4.7729 Z-0.1337
G17 G2 Y-1.0825 I0 J0.005
G1 X-4.7715 Z-0.1339
X-4.7702 Z-0.1344
X-4.7689 Z-0.1348
X-4.7675 Z-0.135
G18 G3 X-4.7052 Z-0.1929 I0 K-0.0625
G1 X-4.7049 Z-0.3053
G2 X-4.661 Z-0.3499 I0.0474 K0.0028
G1 X4.6605
G2 X4.705 Z-0.3014 I-0.0031 K0.0475
G1 Z-0.1972
G3 X4.7675 Z-0.135 I0.0625 K-0.0003
G1 X4.7687 Z-0.1348
X4.7698 Z-0.1344
X4.7712 Z-0.1339
X4.7726 Z-0.1337
G17 G3 Y-1.0725 I0 J0.005
G1 X4.7712 Z-0.1339
X4.7698 Z-0.1344
X4.7687 Z-0.1348
X4.7675 Z-0.135
G18 G2 X4.705 Z-0.1974 I0 K-0.0625
G1 Z-0.3016
G3 X4.6605 Z-0.3499 I-0.0476 K-0.0008
G1 X-4.661 Z-0.3498
G3 X-4.7048 Z-0.3053 I0.0035 K0.0473
G1 X-4.7052 Z-0.1929
G2 X-4.7675 Z-0.135 I-0.0623 K-0.0046
G1 X-4.7689 Z-0.1348
X-4.7702 Z-0.1344
X-4.7715 Z-0.1339
X-4.7729 Z-0.1337
G17 G2 Y-1.0625 I0 J0.005
G1 X-4.7715 Z-0.1339
X-4.7702 Z-0.1344
X-4.7689 Z-0.1348
X-4.7675 Z-0.135
G18 G3 X-4.7052 Z-0.1929 I0 K-0.0625
G1 X-4.7049 Z-0.3053
G2 X-4.661 Z-0.3499 I0.0474 K0.0028
G1 X4.6605
G2 X4.705 Z-0.3014 I-0.0031 K0.0475
G1 Z-0.1972
G3 X4.7675 Z-0.135 I0.0625 K-0.0003
G1 X4.7687 Z-0.1348
X4.7698 Z-0.1344
X4.7712 Z-0.1339
X4.7726 Z-0.1337
G17 G3 Y-1.0525 I0 J0.005
G1 X4.7712 Z-0.1339
X4.7698 Z-0.1344
X4.7687 Z-0.1348
X4.7675 Z-0.135
G18 G2 X4.705 Z-0.1974 I0 K-0.0625
G1 Z-0.3016
G3 X4.6605 Z-0.3499 I-0.0476 K-0.0008
G1 X-4.661 Z-0.3498
G3 X-4.7049 Z-0.3051 I0.0035 K0.0473
G1 X-4.705 Z-0.1975
G2 X-4.7675 Z-0.135 I-0.0625 K0
G1 X-4.7689 Z-0.1348
X-4.7702 Z-0.1344
X-4.7715 Z-0.1339
X-4.7729 Z-0.1337
G17 G2 Y-1.0425 I0 J0.005
G1 X-4.7715 Z-0.1339
X-4.7702 Z-0.1344
X-4.7689 Z-0.1348
X-4.7675 Z-0.135
G18 G3 X-4.705 Z-0.1977 I0 K-0.0625
G1 X-4.7049 Z-0.3053
G2 X-4.661 Z-0.3499 I0.0474 K0.0028
G1 X4.6605
G2 X4.705 Z-0.3014 I-0.0031 K0.0475
G1 Z-0.1972
G3 X4.7675 Z-0.135 I0.0625 K-0.0003
G1 X4.7687 Z-0.1348
X4.7698 Z-0.1344
X4.7712 Z-0.1339
X4.7726 Z-0.1337
G17 G3 Y-1.0325 I0 J0.005
G1 X4.7712 Z-0.1339
X4.7698 Z-0.1344
X4.7687 Z-0.1348
X4.7675 Z-0.135
G18 G2 X4.705 Z-0.1974 I0 K-0.0625
G1 Z-0.3016
G3 X4.6605 Z-0.3499 I-0.0476 K-0.0008
G1 X-4.661 Z-0.3498
G3 X-4.7049 Z-0.3051 I0.0035 K0.0473
G1 X-4.705 Z-0.1975
G2 X-4.7675 Z-0.135 I-0.0625 K0
G1 X-4.7689 Z-0.1348
X-4.7702 Z-0.1344
X-4.7715 Z-0.1339
X-4.7729 Z-0.1337
G17 G2 Y-1.0225 I0 J0.005
G1 X-4.7715 Z-0.1339
X-4.7702 Z-0.1344
X-4.7689 Z-0.1348
X-4.7675 Z-0.135
G18 G3 X-4.7052 Z-0.1929 I0 K-0.0625
G1 X-4.7049 Z-0.3053
G2 X-4.661 Z-0.3499 I0.0474 K0.0028
G1 X4.6605
G2 X4.705 Z-0.3014 I-0.0031 K0.0475
G1 Z-0.1972
G3 X4.7675 Z-0.135 I0.0625 K-0.0003
G1 X4.7687 Z-0.1348
X4.7698 Z-0.1344
X4.7712 Z-0.1339
X4.7726 Z-0.1337
G17 G3 Y-1.0125 I0 J0.005
G1 X4.7712 Z-0.1339
X4.7698 Z-0.1344
X4.7687 Z-0.1348
X4.7675 Z-0.135
G18 G2 X4.705 Z-0.1974 I0 K-0.0625
G1 Z-0.3016
G3 X4.6605 Z-0.3499 I-0.0476 K-0.0008
G1 X-4.661 Z-0.3498
G3 X-4.7048 Z-0.3053 I0.0035 K0.0473
G1 X-4.7052 Z-0.1929
G2 X-4.7675 Z-0.135 I-0.0623 K-0.0046
G1 X-4.7689 Z-0.1348
X-4.7702 Z-0.1344
X-4.7715 Z-0.1339
X-4.7729 Z-0.1337
G17 G2 Y-1.0025 I0 J0.005
G1 X-4.7715 Z-0.1339
X-4.7702 Z-0.1344
X-4.7689 Z-0.1348
X-4.7675 Z-0.135
G18 G3 X-4.7052 Z-0.1929 I0 K-0.0625
G1 X-4.7049 Z-0.3053
G2 X-4.661 Z-0.3499 I0.0474 K0.0028
G1 X4.6605
G2 X4.705 Z-0.3014 I-0.0031 K0.0475
G1 Z-0.1972
G3 X4.7675 Z-0.135 I0.0625 K-0.0003
G1 X4.7687 Z-0.1348
X4.7698 Z-0.1344
X4.7712 Z-0.1339
X4.7726 Z-0.1337
G17 G3 Y-0.9925 I0 J0.005
G1 X4.7712 Z-0.1339
X4.7698 Z-0.1344
X4.7687 Z-0.1348
X4.7675 Z-0.135
G18 G2 X4.705 Z-0.1974 I0 K-0.0625
G1 Z-0.3016
G3 X4.6605 Z-0.3499 I-0.0476 K-0.0008
G1 X-4.661 Z-0.3498
G3 X-4.7048 Z-0.3053 I0.0035 K0.0473
G1 X-4.7052 Z-0.1929
G2 X-4.7675 Z-0.135 I-0.0623 K-0.0046
G1 X-4.7689 Z-0.1348
X-4.7702 Z-0.1344
X-4.7715 Z-0.1339
X-4.7729 Z-0.1337
G17 G2 Y-0.9825 I0 J0.005
G1 X-4.7715 Z-0.1339
X-4.7702 Z-0.1344
X-4.7689 Z-0.1348
X-4.7675 Z-0.135
G18 G3 X-4.7052 Z-0.1929 I0 K-0.0625
G1 X-4.7049 Z-0.3053
G2 X-4.661 Z-0.3499 I0.0474 K0.0028
G1 X4.6605
G2 X4.705 Z-0.3014 I-0.0031 K0.0475
G1 Z-0.1972
G3 X4.7675 Z-0.135 I0.0625 K-0.0003
G1 X4.7687 Z-0.1348
X4.7698 Z-0.1344
X4.7712 Z-0.1339
X4.7726 Z-0.1337
G17 G3 Y-0.9725 I0 J0.005
G1 X4.7712 Z-0.1339
X4.7698 Z-0.1344
X4.7687 Z-0.1348
X4.7675 Z-0.135
G18 G2 X4.705 Z-0.1974 I0 K-0.0625
G1 Z-0.3016
G3 X4.6605 Z-0.3499 I-0.0476 K-0.0008
G1 X-4.661 Z-0.3498
G3 X-4.7048 Z-0.3053 I0.0035 K0.0473
G1 X-4.7052 Z-0.1929
G2 X-4.7675 Z-0.135 I-0.0623 K-0.0046
G1 X-4.7689 Z-0.1348
X-4.7702 Z-0.1344
X-4.7715 Z-0.1339
X-4.7729 Z-0.1337
G17 G2 Y-0.9625 I0 J0.005
G1 X-4.7715 Z-0.1339
X-4.7702 Z-0.1344
X-4.7689 Z-0.1348
X-4.7675 Z-0.135
G18 G3 X-4.7052 Z-0.1929 I0 K-0.0625
G1 X-4.7049 Z-0.3053
G2 X-4.661 Z-0.3499 I0.0474 K0.0028
G1 X4.6605
G2 X4.705 Z-0.3014 I-0.0031 K0.0475
G1 Z-0.1972
G3 X4.7675 Z-0.135 I0.0625 K-0.0003
G1 X4.7687 Z-0.1348
X4.7698 Z-0.1344
X4.7712 Z-0.1339
X4.7726 Z-0.1337
G17 G3 Y-0.9525 I0 J0.005
G1 X4.7712 Z-0.1339
X4.7698 Z-0.1344
X4.7687 Z-0.1348
X4.7675 Z-0.135
G18 G2 X4.705 Z-0.1974 I0 K-0.0625
G1 Z-0.3016
G3 X4.6605 Z-0.3499 I-0.0476 K-0.0008
G1 X-4.661 Z-0.3498
G3 X-4.7048 Z-0.3053 I0.0035 K0.0473
G1 X-4.7052 Z-0.1929
G2 X-4.7675 Z-0.135 I-0.0623 K-0.0046
G1 X-4.7689 Z-0.1348
X-4.7702 Z-0.1344
X-4.7715 Z-0.1339
X-4.7729 Z-0.1337
G17 G2 Y-0.9425 I0 J0.005
G1 X-4.7715 Z-0.1339
X-4.7702 Z-0.1344
X-4.7689 Z-0.1348
X-4.7675 Z-0.135
G18 G3 X-4.7052 Z-0.1929 I0 K-0.0625
G1 X-4.7049 Z-0.3053
G2 X-4.661 Z-0.3499 I0.0474 K0.0028
G1 X4.6605
G2 X4.705 Z-0.3014 I-0.0031 K0.0475
G1 Z-0.1972
G3 X4.7675 Z-0.135 I0.0625 K-0.0003
G1 X4.7687 Z-0.1348
X4.7698 Z-0.1344
X4.7712 Z-0.1339
X4.7726 Z-0.1337
G17 G3 Y-0.9325 I0 J0.005
G1 X4.7712 Z-0.1339
X4.7698 Z-0.1344
X4.7687 Z-0.1348
X4.7675 Z-0.135
G18 G2 X4.705 Z-0.1974 I0 K-0.0625
G1 Z-0.3016
G3 X4.6605 Z-0.3499 I-0.0476 K-0.0008
G1 X-4.661 Z-0.3498
G3 X-4.7048 Z-0.3053 I0.0035 K0.0473
G1 X-4.7052 Z-0.1929
G2 X-4.7675 Z-0.135 I-0.0623 K-0.0046
G1 X-4.7689 Z-0.1348
X-4.7702 Z-0.1344
X-4.7715 Z-0.1339
X-4.7729 Z-0.1337
G17 G2 Y-0.9225 I0 J0.005
G1 X-4.7715 Z-0.1339
X-4.7702 Z-0.1344
X-4.7689 Z-0.1348
X-4.7675 Z-0.135
G18 G3 X-4.7052 Z-0.1929 I0 K-0.0625
G1 X-4.7049 Z-0.3053
G2 X-4.661 Z-0.3499 I0.0474 K0.0028
G1 X4.6605
G2 X4.705 Z-0.3014 I-0.0031 K0.0475
G1 Z-0.1972
G3 X4.7675 Z-0.135 I0.0625 K-0.0003
G1 X4.7687 Z-0.1348
X4.7698 Z-0.1344
X4.7712 Z-0.1339
X4.7726 Z-0.1337
G17 G3 Y-0.9125 I0 J0.005
G1 X4.7712 Z-0.1339
X4.7698 Z-0.1344
X4.7687 Z-0.1348
X4.7675 Z-0.135
G18 G2 X4.705 Z-0.1974 I0 K-0.0625
G1 Z-0.3016
G3 X4.6605 Z-0.3499 I-0.0476 K-0.0008
G1 X-4.661 Z-0.3498
G3 X-4.7048 Z-0.3053 I0.0035 K0.0473
G1 X-4.7052 Z-0.1929
G2 X-4.7675 Z-0.135 I-0.0623 K-0.0046
G1 X-4.7689 Z-0.1348
X-4.7702 Z-0.1344
X-4.7715 Z-0.1339
X-4.7729 Z-0.1337
G17 G2 Y-0.9025 I0 J0.005
G1 X-4.7715 Z-0.1339
X-4.7702 Z-0.1344
X-4.7689 Z-0.1348
X-4.7675 Z-0.135
G18 G3 X-4.7052 Z-0.1929 I0 K-0.0625
G1 X-4.7049 Z-0.3053
G2 X-4.661 Z-0.3499 I0.0474 K0.0028
G1 X4.6605
G2 X4.705 Z-0.3014 I-0.0031 K0.0475
G1 Z-0.1972
G3 X4.7675 Z-0.135 I0.0625 K-0.0003
G1 X4.7687 Z-0.1348
X4.7698 Z-0.1344
X4.7712 Z-0.1339
X4.7726 Z-0.1337
G17 G3 Y-0.8925 I0 J0.005
G1 X4.7712 Z-0.1339
X4.7698 Z-0.1344
X4.7687 Z-0.1348
X4.7675 Z-0.135
G18 G2 X4.705 Z-0.1974 I0 K-0.0625
G1 Z-0.3016
G3 X4.6605 Z-0.3499 I-0.0476 K-0.0008
G1 X-4.661 Z-0.3498
G3 X-4.7048 Z-0.3053 I0.0035 K0.0473
G1 X-4.7052 Z-0.1929
G2 X-4.7675 Z-0.135 I-0.0623 K-0.0046
G1 X-4.7689 Z-0.1348
X-4.7702 Z-0.1344
X-4.7715 Z-0.1339
X-4.7729 Z-0.1337
G17 G2 Y-0.8825 I0 J0.005
G1 X-4.7715 Z-0.1339
X-4.7702 Z-0.1344
X-4.7689 Z-0.1348
X-4.7675 Z-0.135
G18 G3 X-4.7052 Z-0.1929 I0 K-0.0625
G1 X-4.7049 Z-0.3053
G2 X-4.661 Z-0.3499 I0.0474 K0.0028
G1 X4.6605
G2 X4.705 Z-0.3014 I-0.0031 K0.0475
G1 Z-0.1972
G3 X4.7675 Z-0.135 I0.0625 K-0.0003
G1 X4.7687 Z-0.1348
X4.7698 Z-0.1344
X4.7712 Z-0.1339
X4.7726 Z-0.1337
G17 G3 Y-0.8725 I0 J0.005
G1 X4.7712 Z-0.1339
X4.7698 Z-0.1344
X4.7687 Z-0.1348
X4.7675 Z-0.135
G18 G2 X4.705 Z-0.1974 I0 K-0.0625
G1 Z-0.3016
G3 X4.6605 Z-0.3499 I-0.0476 K-0.0008
G1 X-4.661 Z-0.3498
G3 X-4.7048 Z-0.3053 I0.0035 K0.0473
G1 X-4.7052 Z-0.1929
G2 X-4.7675 Z-0.135 I-0.0623 K-0.0046
G1 X-4.7689 Z-0.1348
X-4.7702 Z-0.1344
X-4.7715 Z-0.1339
X-4.7729 Z-0.1337
G17 G2 Y-0.8625 I0 J0.005
G1 X-4.7715 Z-0.1339
X-4.7702 Z-0.1344
X-4.7689 Z-0.1348
X-4.7675 Z-0.135
G18 G3 X-4.7052 Z-0.1929 I0 K-0.0625
G1 X-4.7049 Z-0.3053
G2 X-4.661 Z-0.3499 I0.0474 K0.0028
G1 X4.6605
G2 X4.705 Z-0.3014 I-0.0031 K0.0475
G1 Z-0.1972
G3 X4.7675 Z-0.135 I0.0625 K-0.0003
G1 X4.7687 Z-0.1348
X4.7698 Z-0.1344
X4.7712 Z-0.1339
X4.7726 Z-0.1337
G17 G3 Y-0.8525 I0 J0.005
G1 X4.7712 Z-0.1339
X4.7698 Z-0.1344
X4.7687 Z-0.1348
X4.7675 Z-0.135
G18 G2 X4.705 Z-0.1974 I0 K-0.0625
G1 Z-0.3016
G3 X4.6605 Z-0.3499 I-0.0476 K-0.0008
G1 X-4.661 Z-0.3498
G3 X-4.7048 Z-0.3053 I0.0035 K0.0473
G1 X-4.7052 Z-0.1929
G2 X-4.7675 Z-0.135 I-0.0623 K-0.0046
G1 X-4.7689 Z-0.1348
X-4.7702 Z-0.1344
X-4.7715 Z-0.1339
X-4.7729 Z-0.1337
G17 G2 Y-0.8425 I0 J0.005
G1 X-4.7715 Z-0.1339
X-4.7702 Z-0.1344
X-4.7689 Z-0.1348
X-4.7675 Z-0.135
G18 G3 X-4.7052 Z-0.1929 I0 K-0.0625
G1 X-4.7049 Z-0.3053
G2 X-4.661 Z-0.3499 I0.0474 K0.0028
G1 X4.6605
G2 X4.705 Z-0.3014 I-0.0031 K0.0475
G1 Z-0.1972
G3 X4.7675 Z-0.135 I0.0625 K-0.0003
G1 X4.7687 Z-0.1348
X4.7698 Z-0.1344
X4.7712 Z-0.1339
X4.7726 Z-0.1337
G17 G3 Y-0.8325 I0 J0.005
G1 X4.7712 Z-0.1339
X4.7698 Z-0.1344
X4.7687 Z-0.1348
X4.7675 Z-0.135
G18 G2 X4.705 Z-0.1974 I0 K-0.0625
G1 Z-0.3016
G3 X4.6605 Z-0.3499 I-0.0476 K-0.0008
G1 X-4.661 Z-0.3498
G3 X-4.7048 Z-0.3053 I0.0035 K0.0473
G1 X-4.7052 Z-0.1929
G2 X-4.7675 Z-0.135 I-0.0623 K-0.0046
G1 X-4.7689 Z-0.1348
X-4.7702 Z-0.1344
X-4.7715 Z-0.1339
X-4.7729 Z-0.1337
G17 G2 Y-0.8225 I0 J0.005
G1 X-4.7715 Z-0.1339
X-4.7702 Z-0.1344
X-4.7689 Z-0.1348
X-4.7675 Z-0.135
G18 G3 X-4.7052 Z-0.1929 I0 K-0.0625
G1 X-4.7049 Z-0.3053
G2 X-4.661 Z-0.3499 I0.0474 K0.0028
G1 X4.6605
G2 X4.705 Z-0.3014 I-0.0031 K0.0475
G1 Z-0.1972
G3 X4.7675 Z-0.135 I0.0625 K-0.0003
G1 X4.7687 Z-0.1348
X4.7698 Z-0.1344
X4.7712 Z-0.1339
X4.7726 Z-0.1337
G17 G3 Y-0.8125 I0 J0.005
G1 X4.7712 Z-0.1339
X4.7698 Z-0.1344
X4.7687 Z-0.1348
X4.7675 Z-0.135
G18 G2 X4.705 Z-0.1974 I0 K-0.0625
G1 Z-0.3016
G3 X4.6605 Z-0.3499 I-0.0476 K-0.0008
G1 X-4.661 Z-0.3498
G3 X-4.7048 Z-0.3053 I0.0035 K0.0473
G1 X-4.7052 Z-0.1929
G2 X-4.7675 Z-0.135 I-0.0623 K-0.0046
G1 X-4.7689 Z-0.1348
X-4.7702 Z-0.1344
X-4.7715 Z-0.1339
X-4.7729 Z-0.1337
G17 G2 Y-0.8025 I0 J0.005
G1 X-4.7715 Z-0.1339
X-4.7702 Z-0.1344
X-4.7689 Z-0.1348
X-4.7675 Z-0.135
G18 G3 X-4.7052 Z-0.1929 I0 K-0.0625
G1 X-4.7049 Z-0.3053
G2 X-4.661 Z-0.3499 I0.0474 K0.0028
G1 X4.6605
G2 X4.705 Z-0.3014 I-0.0031 K0.0475
G1 Z-0.1972
G3 X4.7675 Z-0.135 I0.0625 K-0.0003
G1 X4.7687 Z-0.1348
X4.7698 Z-0.1344
X4.7712 Z-0.1339
X4.7726 Z-0.1337
G17 G3 Y-0.7925 I0 J0.005
G1 X4.7712 Z-0.1339
X4.7698 Z-0.1344
X4.7687 Z-0.1348
X4.7675 Z-0.135
G18 G2 X4.705 Z-0.1974 I0 K-0.0625
G1 Z-0.3016
G3 X4.6605 Z-0.3499 I-0.0476 K-0.0008
G1 X-4.661 Z-0.3498
G3 X-4.7048 Z-0.3053 I0.0035 K0.0473
G1 X-4.7052 Z-0.1929
G2 X-4.7675 Z-0.135 I-0.0623 K-0.0046
G1 X-4.7689 Z-0.1348
X-4.7702 Z-0.1344
X-4.7715 Z-0.1339
X-4.7729 Z-0.1337
G17 G2 Y-0.7825 I0 J0.005
G1 X-4.7715 Z-0.1339
X-4.7702 Z-0.1344
X-4.7689 Z-0.1348
X-4.7675 Z-0.135
G18 G3 X-4.7052 Z-0.1929 I0 K-0.0625
G1 X-4.7049 Z-0.3053
G2 X-4.661 Z-0.3499 I0.0474 K0.0028
G1 X4.6605
G2 X4.705 Z-0.3014 I-0.0031 K0.0475
G1 Z-0.1972
G3 X4.7675 Z-0.135 I0.0625 K-0.0003
G1 X4.7687 Z-0.1348
X4.7698 Z-0.1344
X4.7712 Z-0.1339
X4.7726 Z-0.1337
G17 G3 Y-0.7725 I0 J0.005
G1 X4.7712 Z-0.1339
X4.7698 Z-0.1344
X4.7687 Z-0.1348
X4.7675 Z-0.135
G18 G2 X4.705 Z-0.1974 I0 K-0.0625
G1 Z-0.3016
G3 X4.6605 Z-0.3499 I-0.0476 K-0.0008
G1 X-4.661 Z-0.3498
G3 X-4.7048 Z-0.3053 I0.0035 K0.0473
G1 X-4.7052 Z-0.1929
G2 X-4.7675 Z-0.135 I-0.0623 K-0.0046
G1 X-4.7689 Z-0.1348
X-4.7702 Z-0.1344
X-4.7715 Z-0.1339
X-4.7729 Z-0.1337
G17 G2 Y-0.7625 I0 J0.005
G1 X-4.7715 Z-0.1339
X-4.7702 Z-0.1344
X-4.7689 Z-0.1348
X-4.7675 Z-0.135
G18 G3 X-4.7052 Z-0.1929 I0 K-0.0625
G1 X-4.7049 Z-0.3053
G2 X-4.661 Z-0.3499 I0.0474 K0.0028
G1 X4.6605
G2 X4.705 Z-0.3014 I-0.0031 K0.0475
G1 Z-0.1972
G3 X4.7675 Z-0.135 I0.0625 K-0.0003
G1 X4.7687 Z-0.1348
X4.7698 Z-0.1344
X4.7712 Z-0.1339
X4.7726 Z-0.1337
G17 G3 Y-0.7525 I0 J0.005
G1 X4.7712 Z-0.1339
X4.7698 Z-0.1344
X4.7687 Z-0.1348
X4.7675 Z-0.135
G18 G2 X4.705 Z-0.1974 I0 K-0.0625
G1 Z-0.3016
G3 X4.6605 Z-0.3499 I-0.0476 K-0.0008
G1 X-4.661 Z-0.3498
G3 X-4.7049 Z-0.3051 I0.0035 K0.0473
G1 X-4.705 Z-0.1975
G2 X-4.7675 Z-0.135 I-0.0625 K0
G1 X-4.7689 Z-0.1348
X-4.7702 Z-0.1344
X-4.7715 Z-0.1339
X-4.7729 Z-0.1337
G17 G2 Y-0.7425 I0 J0.005
G1 X-4.7715 Z-0.1339
X-4.7702 Z-0.1344
X-4.7689 Z-0.1348
X-4.7675 Z-0.135
G18 G3 X-4.705 Z-0.1977 I0 K-0.0625
G1 X-4.7049 Z-0.3053
G2 X-4.661 Z-0.3499 I0.0474 K0.0028
G1 X4.6605
G2 X4.705 Z-0.3014 I-0.0031 K0.0475
G1 Z-0.1972
G3 X4.7675 Z-0.135 I0.0625 K-0.0003
G1 X4.7687 Z-0.1348
X4.7698 Z-0.1344
X4.7712 Z-0.1339
X4.7726 Z-0.1337
G17 G3 Y-0.7325 I0 J0.005
G1 X4.7712 Z-0.1339
X4.7698 Z-0.1344
X4.7687 Z-0.1348
X4.7675 Z-0.135
G18 G2 X4.705 Z-0.1974 I0 K-0.0625
G1 Z-0.3016
G3 X4.6605 Z-0.3499 I-0.0476 K-0.0008
G1 X-4.661 Z-0.3498
G3 X-4.7048 Z-0.3053 I0.0035 K0.0473
G1 X-4.7052 Z-0.1929
G2 X-4.7675 Z-0.135 I-0.0623 K-0.0046
G1 X-4.7689 Z-0.1348
X-4.7702 Z-0.1344
X-4.7715 Z-0.1339
X-4.7729 Z-0.1337
G17 G2 Y-0.7225 I0 J0.005
G1 X-4.7715 Z-0.1339
X-4.7702 Z-0.1344
X-4.7689 Z-0.1348
X-4.7675 Z-0.135
G18 G3 X-4.7052 Z-0.1929 I0 K-0.0625
G1 X-4.7049 Z-0.3053
G2 X-4.661 Z-0.3499 I0.0474 K0.0028
G1 X4.6605
G2 X4.705 Z-0.3014 I-0.0031 K0.0475
G1 Z-0.1972
G3 X4.7675 Z-0.135 I0.0625 K-0.0003
G1 X4.7687 Z-0.1348
X4.7698 Z-0.1344
X4.7712 Z-0.1339
X4.7726 Z-0.1337
G17 G3 Y-0.7125 I0 J0.005
G1 X4.7712 Z-0.1339
X4.7698 Z-0.1344
X4.7687 Z-0.1348
X4.7675 Z-0.135
G18 G2 X4.705 Z-0.1974 I0 K-0.0625
G1 Z-0.3016
G3 X4.6605 Z-0.3499 I-0.0476 K-0.0008
G1 X-4.661 Z-0.3498
G3 X-4.7048 Z-0.3053 I0.0035 K0.0473
G1 X-4.7052 Z-0.1929
G2 X-4.7675 Z-0.135 I-0.0623 K-0.0046
G1 X-4.7689 Z-0.1348
X-4.7702 Z-0.1344
X-4.7715 Z-0.1339
X-4.7729 Z-0.1337
G17 G2 Y-0.7025 I0 J0.005
G1 X-4.7715 Z-0.1339
X-4.7702 Z-0.1344
X-4.7689 Z-0.1348
X-4.7675 Z-0.135
G18 G3 X-4.7052 Z-0.1929 I0 K-0.0625
G1 X-4.7049 Z-0.3053
G2 X-4.661 Z-0.3499 I0.0474 K0.0028
G1 X4.6605
G2 X4.705 Z-0.3014 I-0.0031 K0.0475
G1 Z-0.1972
G3 X4.7675 Z-0.135 I0.0625 K-0.0003
G1 X4.7687 Z-0.1348
X4.7698 Z-0.1344
X4.7712 Z-0.1339
X4.7726 Z-0.1337
G17 G3 Y-0.6925 I0 J0.005
G1 X4.7712 Z-0.1339
X4.7698 Z-0.1344
X4.7687 Z-0.1348
X4.7675 Z-0.135
G18 G2 X4.705 Z-0.1974 I0 K-0.0625
G1 Z-0.3016
G3 X4.6605 Z-0.3499 I-0.0476 K-0.0008
G1 X-4.661 Z-0.3498
G3 X-4.7048 Z-0.3053 I0.0035 K0.0473
G1 X-4.7052 Z-0.1929
G2 X-4.7675 Z-0.135 I-0.0623 K-0.0046
G1 X-4.7689 Z-0.1348
X-4.7702 Z-0.1344
X-4.7715 Z-0.1339
X-4.7729 Z-0.1337
G17 G2 Y-0.6825 I0 J0.005
G1 X-4.7715 Z-0.1339
X-4.7702 Z-0.1344
X-4.7689 Z-0.1348
X-4.7675 Z-0.135
G18 G3 X-4.7052 Z-0.1929 I0 K-0.0625
G1 X-4.7049 Z-0.3053
G2 X-4.661 Z-0.3499 I0.0474 K0.0028
G1 X4.6605
G2 X4.705 Z-0.3014 I-0.0031 K0.0475
G1 Z-0.1972
G3 X4.7675 Z-0.135 I0.0625 K-0.0003
G1 X4.7687 Z-0.1348
X4.7698 Z-0.1344
X4.7712 Z-0.1339
X4.7726 Z-0.1337
G17 G3 Y-0.6725 I0 J0.005
G1 X4.7712 Z-0.1339
X4.7698 Z-0.1344
X4.7687 Z-0.1348
X4.7675 Z-0.135
G18 G2 X4.705 Z-0.1974 I0 K-0.0625
G1 Z-0.3016
G3 X4.6605 Z-0.3499 I-0.0476 K-0.0008
G1 X-4.661 Z-0.3498
G3 X-4.7048 Z-0.3053 I0.0035 K0.0473
G1 X-4.7052 Z-0.1929
G2 X-4.7675 Z-0.135 I-0.0623 K-0.0046
G1 X-4.7689 Z-0.1348
X-4.7702 Z-0.1344
X-4.7715 Z-0.1339
X-4.7729 Z-0.1337
G17 G2 Y-0.6625 I0 J0.005
G1 X-4.7715 Z-0.1339
X-4.7702 Z-0.1344
X-4.7689 Z-0.1348
X-4.7675 Z-0.135
G18 G3 X-4.7052 Z-0.1929 I0 K-0.0625
G1 X-4.7049 Z-0.3053
G2 X-4.661 Z-0.3499 I0.0474 K0.0028
G1 X4.6605
G2 X4.705 Z-0.3014 I-0.0031 K0.0475
G1 Z-0.1972
G3 X4.7675 Z-0.135 I0.0625 K-0.0003
G1 X4.7687 Z-0.1348
X4.7698 Z-0.1344
X4.7712 Z-0.1339
X4.7726 Z-0.1337
G17 G3 Y-0.6525 I0 J0.005
G1 X4.7712 Z-0.1339
X4.7698 Z-0.1344
X4.7687 Z-0.1348
X4.7675 Z-0.135
G18 G2 X4.705 Z-0.1974 I0 K-0.0625
G1 Z-0.3016
G3 X4.6605 Z-0.3499 I-0.0476 K-0.0008
G1 X-4.661 Z-0.3498
G3 X-4.7048 Z-0.3053 I0.0035 K0.0473
G1 X-4.7052 Z-0.1929
G2 X-4.7675 Z-0.135 I-0.0623 K-0.0046
G1 X-4.7689 Z-0.1348
X-4.7702 Z-0.1344
X-4.7715 Z-0.1339
X-4.7729 Z-0.1337
G17 G2 Y-0.6425 I0 J0.005
G1 X-4.7715 Z-0.1339
X-4.7702 Z-0.1344
X-4.7689 Z-0.1348
X-4.7675 Z-0.135
G18 G3 X-4.7052 Z-0.1929 I0 K-0.0625
G1 X-4.7049 Z-0.3053
G2 X-4.661 Z-0.3499 I0.0474 K0.0028
G1 X4.6605
G2 X4.705 Z-0.3014 I-0.0031 K0.0475
G1 Z-0.1972
G3 X4.7675 Z-0.135 I0.0625 K-0.0003
G1 X4.7687 Z-0.1348
X4.7698 Z-0.1344
X4.7712 Z-0.1339
X4.7726 Z-0.1337
G17 G3 Y-0.6325 I0 J0.005
G1 X4.7712 Z-0.1339
X4.7698 Z-0.1344
X4.7687 Z-0.1348
X4.7675 Z-0.135
G18 G2 X4.705 Z-0.1974 I0 K-0.0625
G1 Z-0.3016
G3 X4.6605 Z-0.3499 I-0.0476 K-0.0008
G1 X-4.661 Z-0.3498
G3 X-4.7048 Z-0.3053 I0.0035 K0.0473
G1 X-4.7052 Z-0.1929
G2 X-4.7675 Z-0.135 I-0.0623 K-0.0046
G1 X-4.7689 Z-0.1348
X-4.7702 Z-0.1344
X-4.7715 Z-0.1339
X-4.7729 Z-0.1337
G17 G2 Y-0.6225 I0 J0.005
G1 X-4.7726
X-4.7712 Z-0.1339
X-4.7699 Z-0.1344
X-4.7698
X-4.7687 Z-0.1348
X-4.7675 Z-0.135
G18 G3 X-4.705 Z-0.1973 I0 K-0.0625
G1 Z-0.3016
G2 X-4.6608 Z-0.3499 I0.0476 K-0.0008
G1 X4.0066 Z-0.35
X4.0897
X4.6605 Z-0.3499
G2 X4.705 Z-0.3014 I-0.0031 K0.0475
G1 Z-0.1972
G3 X4.7675 Z-0.135 I0.0625 K-0.0003
G1 X4.7687 Z-0.1348
X4.7698 Z-0.1344
X4.7712 Z-0.1339
X4.7726 Z-0.1337
G17 G3 Y-0.6125 I0 J0.005
G1 X4.7712 Z-0.1339
X4.7698 Z-0.1344
X4.7687 Z-0.1348
X4.7675 Z-0.135
G18 G2 X4.705 Z-0.1974 I0 K-0.0625
G1 Z-0.3016
G3 X4.6605 Z-0.3499 I-0.0476 K-0.0008
G1 X4.1225 Z-0.35
X4.1211 Z-0.3498
X4.1198 Z-0.3494
X4.1184 Z-0.3489
X4.117 Z-0.3487
G17 G2 Y-0.6025 I0 J0.005
G1 X4.1383
X4.1397 Z-0.3489
X4.141 Z-0.3494
X4.1424 Z-0.3498
X4.1438 Z-0.35
X4.6605 Z-0.3499
G18 G2 X4.705 Z-0.3014 I-0.0031 K0.0475
G1 Z-0.1972
G3 X4.7675 Z-0.135 I0.0625 K-0.0003
G1 X4.7687 Z-0.1348
X4.7698 Z-0.1344
X4.7712 Z-0.1339
X4.7726 Z-0.1337
G17 G3 Y-0.5925 I0 J0.005
G1 X4.7712 Z-0.1339
X4.7698 Z-0.1344
X4.7687 Z-0.1348
X4.7675 Z-0.135
G18 G2 X4.705 Z-0.1974 I0 K-0.0625
G1 Z-0.3016
G3 X4.6605 Z-0.3499 I-0.0476 K-0.0008
G1 X4.1602 Z-0.35
X4.1588 Z-0.3498
X4.1575 Z-0.3494
X4.1562 Z-0.3489
X4.1547 Z-0.3487
G17 G2 Y-0.5825 I0 J0.005
G1 X4.1682
X4.1696 Z-0.3489
X4.171 Z-0.3494
X4.1723 Z-0.3498
X4.1737 Z-0.35
X4.6605 Z-0.3499
G18 G2 X4.705 Z-0.3014 I-0.0031 K0.0475
G1 Z-0.1972
G3 X4.7675 Z-0.135 I0.0625 K-0.0003
G1 X4.7687 Z-0.1348
X4.7698 Z-0.1344
X4.7712 Z-0.1339
X4.7726 Z-0.1337
G17 G3 Y-0.5725 I0 J0.005
G1 X4.7712 Z-0.1339
X4.7698 Z-0.1344
X4.7687 Z-0.1348
X4.7675 Z-0.135
G18 G2 X4.705 Z-0.1974 I0 K-0.0625
G1 Z-0.3016
G3 X4.6605 Z-0.3499 I-0.0476 K-0.0008
G1 X4.1851 Z-0.35
X4.1837 Z-0.3498
X4.1824 Z-0.3494
X4.181 Z-0.3489
X4.1796 Z-0.3487
G17 G2 Y-0.5625 I0 J0.005
G1 X4.19
X4.1914 Z-0.3489
X4.1927 Z-0.3494
X4.194 Z-0.3498
X4.1955 Z-0.35
X4.6605 Z-0.3499
G18 G2 X4.705 Z-0.3014 I-0.0031 K0.0475
G1 Z-0.1972
G3 X4.7675 Z-0.135 I0.0625 K-0.0003
G1 X4.7687 Z-0.1348
X4.7698 Z-0.1344
X4.7712 Z-0.1339
X4.7726 Z-0.1337
G17 G3 Y-0.5525 I0 J0.005
G1 X4.7712 Z-0.1339
X4.7698 Z-0.1344
X4.7687 Z-0.1348
X4.7675 Z-0.135
G18 G2 X4.705 Z-0.1974 I0 K-0.0625
G1 Z-0.3016
G3 X4.6605 Z-0.3499 I-0.0476 K-0.0008
G1 X4.2054 Z-0.35
X4.204 Z-0.3498
X4.2027 Z-0.3494
X4.2013 Z-0.3489
X4.1999 Z-0.3487
G17 G2 Y-0.5425 I0 J0.005
G1 X4.2099
X4.2113 Z-0.3489
X4.2126 Z-0.3494
X4.214 Z-0.3498
X4.2154 Z-0.35
X4.6605 Z-0.3499
G18 G2 X4.705 Z-0.3014 I-0.0031 K0.0475
G1 Z-0.1972
G3 X4.7675 Z-0.135 I0.0625 K-0.0003
G1 X4.7687 Z-0.1348
X4.7698 Z-0.1344
X4.7712 Z-0.1339
X4.7726 Z-0.1337
G17 G3 Y-0.5325 I0 J0.005
G1 X4.7712 Z-0.1339
X4.7698 Z-0.1344
X4.7687 Z-0.1348
X4.7675 Z-0.135
G18 G2 X4.705 Z-0.1974 I0 K-0.0625
G1 Z-0.3016
G3 X4.6605 Z-0.3499 I-0.0476 K-0.0008
G1 X4.2253 Z-0.35
X4.2239 Z-0.3498
X4.2226 Z-0.3494
X4.2212 Z-0.3489
X4.2198 Z-0.3487
G17 G2 Y-0.5225 I0 J0.005
G1 X4.2298
X4.2312 Z-0.3489
X4.2325 Z-0.3494
X4.2339 Z-0.3498
X4.2353 Z-0.35
X4.6605 Z-0.3499
G18 G2 X4.705 Z-0.3014 I-0.0031 K0.0475
G1 Z-0.1972
G3 X4.7675 Z-0.135 I0.0625 K-0.0003
G1 X4.7687 Z-0.1348
X4.7698 Z-0.1344
X4.7712 Z-0.1339
X4.7726 Z-0.1337
G17 G3 Y-0.5125 I0 J0.005
G1 X4.7712 Z-0.1339
X4.7698 Z-0.1344
X4.7687 Z-0.1348
X4.7675 Z-0.135
G18 G2 X4.705 Z-0.1974 I0 K-0.0625
G1 Z-0.3016
G3 X4.6605 Z-0.3499 I-0.0476 K-0.0008
G1 X4.2453 Z-0.35
X4.2438 Z-0.3498
X4.2425 Z-0.3494
X4.2412 Z-0.3489
X4.2398 Z-0.3487
G17 G2 Y-0.5025 I0 J0.005
G1 X4.2497
X4.2511 Z-0.3489
X4.2525 Z-0.3494
X4.2538 Z-0.3498
X4.2552 Z-0.35
X4.6605 Z-0.3499
G18 G2 X4.705 Z-0.3014 I-0.0031 K0.0475
G1 Z-0.1972
G3 X4.7675 Z-0.135 I0.0625 K-0.0003
G1 X4.7687 Z-0.1348
X4.7698 Z-0.1344
X4.7712 Z-0.1339
X4.7726 Z-0.1337
G17 G3 Y-0.4925 I0 J0.005
G1 X4.7712 Z-0.1339
X4.7698 Z-0.1344
X4.7687 Z-0.1348
X4.7675 Z-0.135
G18 G2 X4.705 Z-0.1974 I0 K-0.0625
G1 Z-0.3016
G3 X4.6605 Z-0.3499 I-0.0476 K-0.0008
G1 X4.2652 Z-0.35
X4.2638 Z-0.3498
X4.2624 Z-0.3494
X4.2611 Z-0.3489
X4.2597 Z-0.3487
G17 G2 Y-0.4825 I0 J0.005
G1 X4.2696
X4.271 Z-0.3489
X4.2724 Z-0.3494
X4.2737 Z-0.3498
X4.2751 Z-0.35
X4.6605 Z-0.3499
G18 G2 X4.705 Z-0.3014 I-0.0031 K0.0475
G1 Z-0.1972
G3 X4.7675 Z-0.135 I0.0625 K-0.0003
G1 X4.7687 Z-0.1348
X4.7698 Z-0.1344
X4.7712 Z-0.1339
X4.7726 Z-0.1337
G17 G3 Y-0.4725 I0 J0.005
G1 X4.7712 Z-0.1339
X4.7698 Z-0.1344
X4.7687 Z-0.1348
X4.7675 Z-0.135
G18 G2 X4.705 Z-0.1974 I0 K-0.0625
G1 Z-0.3016
G3 X4.6605 Z-0.3499 I-0.0476 K-0.0008
G1 X4.2851 Z-0.35
X4.2837 Z-0.3498
X4.2823 Z-0.3494
X4.281 Z-0.3489
X4.2796 Z-0.3487
G17 G2 Y-0.4625 I0 J0.005
G1 X4.2895
X4.291 Z-0.3489
X4.2923 Z-0.3494
X4.2936 Z-0.3498
X4.2951 Z-0.35
X4.6605 Z-0.3499
G18 G2 X4.705 Z-0.3014 I-0.0031 K0.0475
G1 Z-0.1972
G3 X4.7675 Z-0.135 I0.0625 K-0.0003
G1 X4.7687 Z-0.1348
X4.7698 Z-0.1344
X4.7712 Z-0.1339
X4.7726 Z-0.1337
G17 G3 Y-0.4525 I0 J0.005
G1 X4.7712 Z-0.1339
X4.7698 Z-0.1344
X4.7687 Z-0.1348
X4.7675 Z-0.135
G18 G2 X4.705 Z-0.1974 I0 K-0.0625
G1 Z-0.3016
G3 X4.6605 Z-0.3499 I-0.0476 K-0.0008
G1 X4.305 Z-0.35
X4.3036 Z-0.3498
X4.3023 Z-0.3494
X4.3009 Z-0.3489
X4.2995 Z-0.3487
G17 G2 Y-0.4425 I0 J0.005
G1 X4.3095
X4.3109 Z-0.3489
X4.3122 Z-0.3494
X4.3136 Z-0.3498
X4.315 Z-0.35
X4.6605 Z-0.3499
G18 G2 X4.705 Z-0.3014 I-0.0031 K0.0475
G1 Z-0.1972
G3 X4.7675 Z-0.135 I0.0625 K-0.0003
G1 X4.7687 Z-0.1348
X4.7698 Z-0.1344
X4.7712 Z-0.1339
X4.7726 Z-0.1337
G17 G3 Y-0.4325 I0 J0.005
G1 X4.7712 Z-0.1339
X4.7698 Z-0.1344
X4.7687 Z-0.1348
X4.7675 Z-0.135
G18 G2 X4.705 Z-0.1974 I0 K-0.0625
G1 Z-0.3016
G3 X4.6605 Z-0.3499 I-0.0476 K-0.0008
G1 X4.3249 Z-0.35
X4.3235 Z-0.3498
X4.3222 Z-0.3494
X4.3208 Z-0.3489
X4.3194 Z-0.3487
G17 G2 Y-0.4225 I0 J0.005
G1 X4.3294
X4.3308 Z-0.3489
X4.3321 Z-0.3494
X4.3335 Z-0.3498
X4.3349 Z-0.35
X4.6605 Z-0.3499
G18 G2 X4.705 Z-0.3014 I-0.0031 K0.0475
G1 Z-0.1972
G3 X4.7675 Z-0.135 I0.0625 K-0.0003
G1 X4.7687 Z-0.1348
X4.7698 Z-0.1344
X4.7712 Z-0.1339
X4.7726 Z-0.1337
G17 G3 Y-0.4125 I0 J0.005
G1 X4.7712 Z-0.1339
X4.7698 Z-0.1344
X4.7687 Z-0.1348
X4.7675 Z-0.135
G18 G2 X4.705 Z-0.1974 I0 K-0.0625
G1 Z-0.3016
G3 X4.6605 Z-0.3499 I-0.0476 K-0.0008
G1 X4.3449 Z-0.35
X4.3434 Z-0.3498
X4.3421 Z-0.3494
X4.3408 Z-0.3489
X4.3393 Z-0.3487
G17 G2 Y-0.4025 I0 J0.005
G1 X4.3493
X4.3507 Z-0.3489
X4.3521 Z-0.3494
X4.3534 Z-0.3498
X4.3548 Z-0.35
X4.6605 Z-0.3499
G18 G2 X4.705 Z-0.3014 I-0.0031 K0.0475
G1 Z-0.1972
G3 X4.7675 Z-0.135 I0.0625 K-0.0003
G1 X4.7687 Z-0.1348
X4.7698 Z-0.1344
X4.7712 Z-0.1339
X4.7726 Z-0.1337
G17 G3 Y-0.3925 I0 J0.005
G1 X4.7712 Z-0.1339
X4.7698 Z-0.1344
X4.7687 Z-0.1348
X4.7675 Z-0.135
G18 G2 X4.705 Z-0.1974 I0 K-0.0625
G1 Z-0.3016
G3 X4.6605 Z-0.3499 I-0.0476 K-0.0008
G1 X4.3648 Z-0.35
X4.3634 Z-0.3498
X4.362 Z-0.3494
X4.3607 Z-0.3489
X4.3593 Z-0.3487
G17 G2 Y-0.3825 I0 J0.005
G1 X4.3692
X4.3706 Z-0.3489
X4.372 Z-0.3494
X4.3733 Z-0.3498
X4.3747 Z-0.35
X4.6605 Z-0.3499
G18 G2 X4.705 Z-0.3014 I-0.0031 K0.0475
G1 Z-0.1972
G3 X4.7675 Z-0.135 I0.0625 K-0.0003
G1 X4.7687 Z-0.1348
X4.7698 Z-0.1344
X4.7712 Z-0.1339
X4.7726 Z-0.1337
G17 G3 Y-0.3725 I0 J0.005
G1 X4.7712 Z-0.1339
X4.7698 Z-0.1344
X4.7687 Z-0.1348
X4.7675 Z-0.135
G18 G2 X4.705 Z-0.1974 I0 K-0.0625
G1 Z-0.3016
G3 X4.6605 Z-0.3499 I-0.0476 K-0.0008
G1 X4.3847 Z-0.35
X4.3833 Z-0.3498
X4.3819 Z-0.3494
X4.3806 Z-0.3489
X4.3792 Z-0.3487
G17 G2 Y-0.3625 I0 J0.005
G1 X4.3891
X4.3906 Z-0.3489
X4.3919 Z-0.3494
X4.3932 Z-0.3498
X4.3946 Z-0.35
X4.6605 Z-0.3499
G18 G2 X4.705 Z-0.3014 I-0.0031 K0.0475
G1 Z-0.1972
G3 X4.7675 Z-0.135 I0.0625 K-0.0003
G1 X4.7687 Z-0.1348
X4.7698 Z-0.1344
X4.7712 Z-0.1339
X4.7726 Z-0.1337
G17 G3 Y-0.3525 I0 J0.005
G1 X4.7712 Z-0.1339
X4.7698 Z-0.1344
X4.7687 Z-0.1348
X4.7675 Z-0.135
G18 G2 X4.705 Z-0.1974 I0 K-0.0625
G1 Z-0.3016
G3 X4.6605 Z-0.3499 I-0.0476 K-0.0008
G1 X4.4046 Z-0.35
X4.4032 Z-0.3498
X4.4019 Z-0.3494
X4.4005 Z-0.3489
X4.3991 Z-0.3487
G17 G2 Y-0.3425 I0 J0.005
G1 X4.4091
X4.4105 Z-0.3489
X4.4118 Z-0.3494
X4.4132 Z-0.3498
X4.4146 Z-0.35
X4.6605 Z-0.3499
G18 G2 X4.705 Z-0.3014 I-0.0031 K0.0475
G1 Z-0.1972
G3 X4.7675 Z-0.135 I0.0625 K-0.0003
G1 X4.7687 Z-0.1348
X4.7698 Z-0.1344
X4.7712 Z-0.1339
X4.7726 Z-0.1337
G17 G3 Y-0.3325 I0 J0.005
G1 X4.7712 Z-0.1339
X4.7698 Z-0.1344
X4.7687 Z-0.1348
X4.7675 Z-0.135
G18 G2 X4.705 Z-0.1974 I0 K-0.0625
G1 Z-0.3016
G3 X4.6605 Z-0.3499 I-0.0476 K-0.0008
G1 X4.4245 Z-0.35
X4.4231 Z-0.3498
X4.4218 Z-0.3494
X4.4204 Z-0.3489
X4.419 Z-0.3487
G17 G2 Y-0.3225 I0 J0.005
G1 X4.429
X4.4304 Z-0.3489
X4.4317 Z-0.3494
X4.4331 Z-0.3498
X4.4345 Z-0.35
X4.6605 Z-0.3499
G18 G2 X4.705 Z-0.3014 I-0.0031 K0.0475
G1 Z-0.1972
G3 X4.7675 Z-0.135 I0.0625 K-0.0003
G1 X4.7687 Z-0.1348
X4.7698 Z-0.1344
X4.7712 Z-0.1339
X4.7726 Z-0.1337
G17 G3 Y-0.3125 I0 J0.005
G1 X4.7712 Z-0.1339
X4.7698 Z-0.1344
X4.7687 Z-0.1348
X4.7675 Z-0.135
G18 G2 X4.705 Z-0.1974 I0 K-0.0625
G1 Z-0.3016
G3 X4.6605 Z-0.3499 I-0.0476 K-0.0008
G1 X4.4444 Z-0.35
X4.443 Z-0.3498
X4.4417 Z-0.3494
X4.4404 Z-0.3489
X4.4389 Z-0.3487
G17 G2 Y-0.3025 I0 J0.005
G1 X4.4489
X4.4503 Z-0.3489
X4.4517 Z-0.3494
X4.453 Z-0.3498
X4.4544 Z-0.35
X4.6605 Z-0.3499
G18 G2 X4.705 Z-0.3014 I-0.0031 K0.0475
G1 Z-0.1972
G3 X4.7675 Z-0.135 I0.0625 K-0.0003
G1 X4.7687 Z-0.1348
X4.7698 Z-0.1344
X4.7712 Z-0.1339
X4.7726 Z-0.1337
G17 G3 Y-0.2925 I0 J0.005
G1 X4.7712 Z-0.1339
X4.7698 Z-0.1344
X4.7687 Z-0.1348
X4.7675 Z-0.135
G18 G2 X4.705 Z-0.1974 I0 K-0.0625
G1 Z-0.3016
G3 X4.6605 Z-0.3499 I-0.0476 K-0.0008
G1 X4.4644 Z-0.35
X4.463 Z-0.3498
X4.4616 Z-0.3494
X4.4603 Z-0.3489
X4.4589 Z-0.3487
G17 G2 Y-0.2825 I0 J0.005
G1 X4.4688
X4.4702 Z-0.3489
X4.4716 Z-0.3494
X4.4729 Z-0.3498
X4.4743 Z-0.35
X4.6605 Z-0.3499
G18 G2 X4.705 Z-0.3014 I-0.0031 K0.0475
G1 Z-0.1972
G3 X4.7675 Z-0.135 I0.0625 K-0.0003
G1 X4.7687 Z-0.1348
X4.7698 Z-0.1344
X4.7712 Z-0.1339
X4.7726 Z-0.1337
G17 G3 Y-0.2725 I0 J0.005
G1 X4.7712 Z-0.1339
X4.7698 Z-0.1344
X4.7687 Z-0.1348
X4.7675 Z-0.135
G18 G2 X4.705 Z-0.1974 I0 K-0.0625
G1 Z-0.3016
G3 X4.6605 Z-0.3499 I-0.0476 K-0.0008
G1 X4.4843 Z-0.35
X4.4829 Z-0.3498
X4.4815 Z-0.3494
X4.4802 Z-0.3489
X4.4788 Z-0.3487
G17 G2 Y-0.2625 I0 J0.005
G1 X4.4884
X4.4898 Z-0.3489
X4.4911 Z-0.3494
X4.4925 Z-0.3498
X4.4939 Z-0.35
X4.6605 Z-0.3499
G18 G2 X4.705 Z-0.3014 I-0.0031 K0.0475
G1 Z-0.1972
G3 X4.7675 Z-0.135 I0.0625 K-0.0003
G1 X4.7687 Z-0.1348
X4.7698 Z-0.1344
X4.7712 Z-0.1339
X4.7726 Z-0.1337
G17 G3 Y-0.2525 I0 J0.005
G1 X4.7712 Z-0.1339
X4.7698 Z-0.1344
X4.7687 Z-0.1348
X4.7675 Z-0.135
G18 G2 X4.705 Z-0.1974 I0 K-0.0625
G1 Z-0.3016
G3 X4.6605 Z-0.3499 I-0.0476 K-0.0008
G1 X4.5028 Z-0.35
X4.5013 Z-0.3498
X4.5 Z-0.3494
X4.4987 Z-0.3489
X4.4973 Z-0.3487
G17 G2 Y-0.2425 I0 J0.005
G1 X4.5049
X4.5063 Z-0.3489
X4.5076 Z-0.3494
X4.509 Z-0.3498
X4.5104 Z-0.35
X4.6605 Z-0.3499
G18 G2 X4.705 Z-0.3014 I-0.0031 K0.0475
G1 Z-0.1972
G3 X4.7675 Z-0.135 I0.0625 K-0.0003
G1 X4.7687 Z-0.1348
X4.7698 Z-0.1344
X4.7712 Z-0.1339
X4.7726 Z-0.1337
G17 G3 Y-0.2325 I0 J0.005
G1 X4.7712 Z-0.1339
X4.7698 Z-0.1344
X4.7687 Z-0.1348
X4.7675 Z-0.135
G18 G2 X4.705 Z-0.1974 I0 K-0.0625
G1 Z-0.3016
G3 X4.6605 Z-0.3499 I-0.0476 K-0.0008
G1 X4.517 Z-0.35
X4.5156 Z-0.3498
X4.5143 Z-0.3494
X4.5129 Z-0.3489
X4.5115 Z-0.3487
G17 G2 Y-0.2225 I0 J0.005
G1 X4.5175
X4.5189 Z-0.3489
X4.5202 Z-0.3494
X4.5216 Z-0.3498
X4.523 Z-0.35
X4.6605 Z-0.3499
G18 G2 X4.705 Z-0.3014 I-0.0031 K0.0475
G1 Z-0.1972
G3 X4.7675 Z-0.135 I0.0625 K-0.0003
G1 X4.7687 Z-0.1348
X4.7698 Z-0.1344
X4.7712 Z-0.1339
X4.7726 Z-0.1337
G17 G3 Y-0.2125 I0 J0.005
G1 X4.7712 Z-0.1339
X4.7698 Z-0.1344
X4.7687 Z-0.1348
X4.7675 Z-0.135
G18 G2 X4.705 Z-0.1974 I0 K-0.0625
G1 Z-0.3016
G3 X4.6605 Z-0.3499 I-0.0476 K-0.0008
G1 X4.5282 Z-0.35
X4.5268 Z-0.3498
X4.5254 Z-0.3494
X4.5241 Z-0.3489
X4.5227 Z-0.3487
G17 G2 Y-0.2025 I0 J0.005
G1 X4.5271
X4.5285 Z-0.3489
X4.5298 Z-0.3494
X4.5312 Z-0.3498
X4.5326 Z-0.35
X4.6605 Z-0.3499
G18 G2 X4.705 Z-0.3014 I-0.0031 K0.0475
G1 Z-0.1972
G3 X4.7675 Z-0.135 I0.0625 K-0.0003
G1 X4.7687 Z-0.1348
X4.7698 Z-0.1344
X4.7712 Z-0.1339
X4.7726 Z-0.1337
G17 G3 Y-0.1925 I0 J0.005
G1 X4.7712 Z-0.1339
X4.7698 Z-0.1344
X4.7687 Z-0.1348
X4.7675 Z-0.135
G18 G2 X4.705 Z-0.1974 I0 K-0.0625
G1 Z-0.3016
G3 X4.6605 Z-0.3499 I-0.0476 K-0.0008
G1 X4.5365 Z-0.35
X4.5351 Z-0.3498
X4.5338 Z-0.3494
X4.5325 Z-0.3489
X4.531 Z-0.3487
G17 G2 Y-0.1825 I0 J0.005
G1 X4.5342
X4.5356 Z-0.3489
X4.5369 Z-0.3494
X4.5383 Z-0.3498
X4.5397 Z-0.35
X4.6605 Z-0.3499
G18 G2 X4.705 Z-0.3014 I-0.0031 K0.0475
G1 Z-0.1972
G3 X4.7675 Z-0.135 I0.0625 K-0.0003
G1 X4.7687 Z-0.1348
X4.7698 Z-0.1344
X4.7712 Z-0.1339
X4.7726 Z-0.1337
G17 G3 Y-0.1725 I0 J0.005
G1 X4.7712 Z-0.1339
X4.7698 Z-0.1344
X4.7687 Z-0.1348
X4.7675 Z-0.135
G18 G2 X4.705 Z-0.1974 I0 K-0.0625
G1 Z-0.3016
G3 X4.6605 Z-0.3499 I-0.0476 K-0.0008
G1 X4.5423 Z-0.35
X4.5409 Z-0.3498
X4.5396 Z-0.3494
X4.5383 Z-0.3489
X4.5368 Z-0.3487
G17 G2 Y-0.1625 I0 J0.005
G1 X4.539
X4.5404 Z-0.3489
X4.5418 Z-0.3494
X4.5431 Z-0.3498
X4.5445 Z-0.35
X4.6605 Z-0.3499
G18 G2 X4.705 Z-0.3014 I-0.0031 K0.0475
G1 Z-0.1972
G3 X4.7675 Z-0.135 I0.0625 K-0.0003
G1 X4.7687 Z-0.1348
X4.7698 Z-0.1344
X4.7712 Z-0.1339
X4.7726 Z-0.1337
G17 G3 Y-0.1525 I0 J0.005
G1 X4.7712 Z-0.1339
X4.7698 Z-0.1344
X4.7687 Z-0.1348
X4.7675 Z-0.135
G18 G2 X4.705 Z-0.1974 I0 K-0.0625
G1 Z-0.3016
G3 X4.6605 Z-0.3499 I-0.0476 K-0.0008
G1 X4.546 Z-0.35
X4.5446 Z-0.3498
X4.5433 Z-0.3494
X4.5419 Z-0.3489
X4.5405 Z-0.3487
G17 G2 Y-0.1425 I0 J0.005
G1 X4.5418
X4.5432 Z-0.3489
X4.5445 Z-0.3494
X4.5459 Z-0.3498
X4.5473 Z-0.35
X4.6605 Z-0.3499
G18 G2 X4.705 Z-0.3014 I-0.0031 K0.0475
G1 Z-0.1972
G3 X4.7675 Z-0.135 I0.0625 K-0.0003
G1 X4.7687 Z-0.1348
X4.7698 Z-0.1344
X4.7712 Z-0.1339
X4.7726 Z-0.1337
G17 G3 Y-0.1325 I0 J0.005
G1 X4.7712 Z-0.1339
X4.7698 Z-0.1344
X4.7687 Z-0.1348
X4.7675 Z-0.135
G18 G2 X4.705 Z-0.1974 I0 K-0.0625
G1 Z-0.3016
G3 X4.6605 Z-0.3499 I-0.0476 K-0.0008
G1 X4.5477 Z-0.35
X4.5463 Z-0.3498
X4.545 Z-0.3494
X4.5436 Z-0.3489
X4.5422 Z-0.3487
G17 G2 Y-0.1225 I0 J0.005
G1 X4.5424
X4.5438 Z-0.3489
X4.5451 Z-0.3494
X4.5465 Z-0.3498
X4.5479 Z-0.35
X4.6605 Z-0.3499
G18 G2 X4.705 Z-0.3014 I-0.0031 K0.0475
G1 Z-0.1972
G3 X4.7675 Z-0.135 I0.0625 K-0.0003
G1 X4.7687 Z-0.1348
X4.7698 Z-0.1344
X4.7712 Z-0.1339
X4.7726 Z-0.1337
G17 G3 Y-0.1125 I0 J0.005
G1 X4.7712 Z-0.1339
X4.7698 Z-0.1344
X4.7687 Z-0.1348
X4.7675 Z-0.135
G18 G2 X4.705 Z-0.1974 I0 K-0.0625
G1 Z-0.3016
G3 X4.6605 Z-0.3499 I-0.0476 K-0.0008
G1 X4.5474 Z-0.35
X4.546 Z-0.3498
X4.5447 Z-0.3494
X4.5433 Z-0.3489
X4.5419 Z-0.3487
X4.541
G17 G2 Y-0.1025 I0 J0.005
G1 X4.5424 Z-0.3489
X4.5437 Z-0.3494
X4.5451 Z-0.3498
X4.5465 Z-0.35
X4.6605 Z-0.3499
G18 G2 X4.705 Z-0.3014 I-0.0031 K0.0475
G1 Z-0.1972
G3 X4.7675 Z-0.135 I0.0625 K-0.0003
G1 X4.7687 Z-0.1348
X4.7698 Z-0.1344
X4.7712 Z-0.1339
X4.7726 Z-0.1337
G17 G3 Y-0.0925 I0 J0.005
G1 X4.7712 Z-0.1339
X4.7698 Z-0.1344
X4.7687 Z-0.1348
X4.7675 Z-0.135
G18 G2 X4.705 Z-0.1974 I0 K-0.0625
G1 Z-0.3016
G3 X4.6605 Z-0.3499 I-0.0476 K-0.0008
G1 X4.5451 Z-0.35
X4.5437 Z-0.3498
X4.5424 Z-0.3494
X4.5411 Z-0.3489
X4.5396 Z-0.3487
X4.5376
G17 G2 Y-0.0825 I0 J0.005
G1 X4.539 Z-0.3489
X4.5403 Z-0.3494
X4.5417 Z-0.3498
X4.5431 Z-0.35
X4.6605 Z-0.3499
G18 G2 X4.705 Z-0.3014 I-0.0031 K0.0475
G1 Z-0.1972
G3 X4.7675 Z-0.135 I0.0625 K-0.0003
G1 X4.7687 Z-0.1348
X4.7698 Z-0.1344
X4.7712 Z-0.1339
X4.7726 Z-0.1337
G17 G3 Y-0.0725 I0 J0.005
G1 X4.7712 Z-0.1339
X4.7698 Z-0.1344
X4.7687 Z-0.1348
X4.7675 Z-0.135
G18 G2 X4.705 Z-0.1974 I0 K-0.0625
G1 Z-0.3016
G3 X4.6605 Z-0.3499 I-0.0476 K-0.0008
G1 X4.5407 Z-0.35
X4.5393 Z-0.3498
X4.538 Z-0.3494
X4.5366 Z-0.3489
X4.5352 Z-0.3487
X4.532
G17 G2 Y-0.0625 I0 J0.005
G1 X4.5334 Z-0.3489
X4.5348 Z-0.3494
X4.5361 Z-0.3498
X4.5375 Z-0.35
X4.6605 Z-0.3499
G18 G2 X4.705 Z-0.3014 I-0.0031 K0.0475
G1 Z-0.1972
G3 X4.7675 Z-0.135 I0.0625 K-0.0003
G1 X4.7687 Z-0.1348
X4.7698 Z-0.1344
X4.7712 Z-0.1339
X4.7726 Z-0.1337
G17 G3 Y-0.0525 I0 J0.005
G1 X4.7712 Z-0.1339
X4.7698 Z-0.1344
X4.7687 Z-0.1348
X4.7675 Z-0.135
G18 G2 X4.705 Z-0.1974 I0 K-0.0625
G1 Z-0.3016
G3 X4.6605 Z-0.3499 I-0.0476 K-0.0008
G1 X4.5339 Z-0.35
X4.5325 Z-0.3498
X4.5311 Z-0.3494
X4.5298 Z-0.3489
X4.5284 Z-0.3487
X4.5242
G17 G2 Y-0.0425 I0 J0.005
G1 X4.5256 Z-0.3489
X4.527 Z-0.3494
X4.5283 Z-0.3498
X4.5297 Z-0.35
X4.6605 Z-0.3499
G18 G2 X4.705 Z-0.3014 I-0.0031 K0.0475
G1 Z-0.1972
G3 X4.7675 Z-0.135 I0.0625 K-0.0003
G1 X4.7687 Z-0.1348
X4.7698 Z-0.1344
X4.7712 Z-0.1339
X4.7726 Z-0.1337
G17 G3 Y-0.0325 I0 J0.005
G1 X4.7712 Z-0.1339
X4.7698 Z-0.1344
X4.7687 Z-0.1348
X4.7675 Z-0.135
G18 G2 X4.705 Z-0.1974 I0 K-0.0625
G1 Z-0.3016
G3 X4.6605 Z-0.3499 I-0.0476 K-0.0008
G1 X4.5247 Z-0.35
X4.5232 Z-0.3498
X4.5219 Z-0.3494
X4.5206 Z-0.3489
X4.5191 Z-0.3487
X4.5136
G17 G2 Y-0.0225 I0 J0.005
G1 X4.515 Z-0.3489
X4.5163 Z-0.3494
X4.5177 Z-0.3498
X4.5191 Z-0.35
X4.6605 Z-0.3499
G18 G2 X4.705 Z-0.3014 I-0.0031 K0.0475
G1 Z-0.1972
G3 X4.7675 Z-0.135 I0.0625 K-0.0003
G1 X4.7687 Z-0.1348
X4.7698 Z-0.1344
X4.7712 Z-0.1339
X4.7726 Z-0.1337
G17 G3 Y-0.0125 I0 J0.005
G1 X4.7712 Z-0.1339
X4.7698 Z-0.1344
X4.7687 Z-0.1348
X4.7675 Z-0.135
G18 G2 X4.705 Z-0.1974 I0 K-0.0625
G1 Z-0.3016
G3 X4.6605 Z-0.3499 I-0.0476 K-0.0008
G1 X4.5127 Z-0.35
X4.5113 Z-0.3498
X4.5099 Z-0.3494
X4.5086 Z-0.3489
X4.5072 Z-0.3487
X4.4997
G17 G2 Y-0.0025 I0 J0.005
G1 X4.5011 Z-0.3489
X4.5024 Z-0.3494
X4.5038 Z-0.3498
X4.5052 Z-0.35
X4.6605 Z-0.3499
G18 G2 X4.705 Z-0.3014 I-0.0031 K0.0475
G1 Z-0.1972
G3 X4.7675 Z-0.135 I0.0625 K-0.0003
G1 X4.7687 Z-0.1348
X4.7698 Z-0.1344
X4.7712 Z-0.1339
X4.7726 Z-0.1337
G17 G3 Y0.0075 I0 J0.005
G1 X4.7712 Z-0.1339
X4.7698 Z-0.1344
X4.7687 Z-0.1348
X4.7675 Z-0.135
G18 G2 X4.705 Z-0.1974 I0 K-0.0625
G1 Z-0.3016
G3 X4.6605 Z-0.3499 I-0.0476 K-0.0008
G1 X4.4968 Z-0.35
X4.4954 Z-0.3498
X4.494 Z-0.3494
X4.4927 Z-0.3489
X4.4913 Z-0.3487
X4.4819
G17 G2 Y0.0175 I0 J0.005
G1 X4.4833 Z-0.3489
X4.4847 Z-0.3494
X4.486 Z-0.3498
X4.4874 Z-0.35
X4.6605 Z-0.3499
G18 G2 X4.705 Z-0.3014 I-0.0031 K0.0475
G1 Z-0.1972
G3 X4.7675 Z-0.135 I0.0625 K-0.0003
G1 X4.7687 Z-0.1348
X4.7698 Z-0.1344
X4.7712 Z-0.1339
X4.7726 Z-0.1337
G17 G3 Y0.0275 I0 J0.005
G1 X4.7712 Z-0.1339
X4.7698 Z-0.1344
X4.7687 Z-0.1348
X4.7675 Z-0.135
G18 G2 X4.705 Z-0.1974 I0 K-0.0625
G1 Z-0.3016
G3 X4.6605 Z-0.3499 I-0.0476 K-0.0008
G1 X4.4774 Z-0.35
X4.476 Z-0.3498
X4.4746 Z-0.3494
X4.4733 Z-0.3489
X4.4719 Z-0.3487
X4.4619
G17 G2 Y0.0375 I0 J0.005
G1 X4.4633 Z-0.3489
X4.4646 Z-0.3494
X4.4659 Z-0.3498
X4.4674 Z-0.35
X4.6605 Z-0.3499
G18 G2 X4.705 Z-0.3014 I-0.0031 K0.0475
G1 Z-0.1972
G3 X4.7675 Z-0.135 I0.0625 K-0.0003
G1 X4.7687 Z-0.1348
X4.7698 Z-0.1344
X4.7712 Z-0.1339
X4.7726 Z-0.1337
G17 G3 Y0.0475 I0 J0.005
G1 X4.7712 Z-0.1339
X4.7698 Z-0.1344
X4.7687 Z-0.1348
X4.7675 Z-0.135
G18 G2 X4.705 Z-0.1974 I0 K-0.0625
G1 Z-0.3016
G3 X4.6605 Z-0.3499 I-0.0476 K-0.0008
G1 X4.4573 Z-0.35
X4.4559 Z-0.3498
X4.4546 Z-0.3494
X4.4532 Z-0.3489
X4.4518 Z-0.3487
X4.4418
G17 G2 Y0.0575 I0 J0.005
G1 X4.4432 Z-0.3489
X4.4445 Z-0.3494
X4.4459 Z-0.3498
X4.4473 Z-0.35
X4.6605 Z-0.3499
G18 G2 X4.705 Z-0.3014 I-0.0031 K0.0475
G1 Z-0.1972
G3 X4.7675 Z-0.135 I0.0625 K-0.0003
G1 X4.7687 Z-0.1348
X4.7698 Z-0.1344
X4.7712 Z-0.1339
X4.7726 Z-0.1337
G17 G3 Y0.0675 I0 J0.005
G1 X4.7712 Z-0.1339
X4.7698 Z-0.1344
X4.7687 Z-0.1348
X4.7675 Z-0.135
G18 G2 X4.705 Z-0.1974 I0 K-0.0625
G1 Z-0.3016
G3 X4.6605 Z-0.3499 I-0.0476 K-0.0008
G1 X4.4372 Z-0.35
X4.4358 Z-0.3498
X4.4345 Z-0.3494
X4.4331 Z-0.3489
X4.4317 Z-0.3487
X4.4217
G17 G2 Y0.0775 I0 J0.005
G1 X4.4231 Z-0.3489
X4.4244 Z-0.3494
X4.4258 Z-0.3498
X4.4272 Z-0.35
X4.6605 Z-0.3499
G18 G2 X4.705 Z-0.3014 I-0.0031 K0.0475
G1 Z-0.1972
G3 X4.7675 Z-0.135 I0.0625 K-0.0003
G1 X4.7687 Z-0.1348
X4.7698 Z-0.1344
X4.7712 Z-0.1339
X4.7726 Z-0.1337
G17 G3 Y0.0875 I0 J0.005
G1 X4.7712 Z-0.1339
X4.7698 Z-0.1344
X4.7687 Z-0.1348
X4.7675 Z-0.135
G18 G2 X4.705 Z-0.1974 I0 K-0.0625
G1 Z-0.3016
G3 X4.6605 Z-0.3499 I-0.0476 K-0.0008
G1 X4.4172 Z-0.35
X4.4157 Z-0.3498
X4.4144 Z-0.3494
X4.4131 Z-0.3489
X4.4117 Z-0.3487
X4.4016
G17 G2 Y0.0975 I0 J0.005
G1 X4.403 Z-0.3489
X4.4044 Z-0.3494
X4.4057 Z-0.3498
X4.4071 Z-0.35
X4.6605 Z-0.3499
G18 G2 X4.705 Z-0.3014 I-0.0031 K0.0475
G1 Z-0.1972
G3 X4.7675 Z-0.135 I0.0625 K-0.0003
G1 X4.7687 Z-0.1348
X4.7698 Z-0.1344
X4.7712 Z-0.1339
X4.7726 Z-0.1337
G17 G3 Y0.1075 I0 J0.005
G1 X4.7712 Z-0.1339
X4.7698 Z-0.1344
X4.7687 Z-0.1348
X4.7675 Z-0.135
G18 G2 X4.705 Z-0.1974 I0 K-0.0625
G1 Z-0.3016
G3 X4.6605 Z-0.3499 I-0.0476 K-0.0008
G1 X4.3971 Z-0.35
X4.3957 Z-0.3498
X4.3943 Z-0.3494
X4.393 Z-0.3489
X4.3916 Z-0.3487
X4.3815
G17 G2 Y0.1175 I0 J0.005
G1 X4.383 Z-0.3489
X4.3843 Z-0.3494
X4.3856 Z-0.3498
X4.387 Z-0.35
X4.6605 Z-0.3499
G18 G2 X4.705 Z-0.3014 I-0.0031 K0.0475
G1 Z-0.1972
G3 X4.7675 Z-0.135 I0.0625 K-0.0003
G1 X4.7687 Z-0.1348
X4.7698 Z-0.1344
X4.7712 Z-0.1339
X4.7726 Z-0.1337
G17 G3 Y0.1275 I0 J0.005
G1 X4.7712 Z-0.1339
X4.7698 Z-0.1344
X4.7687 Z-0.1348
X4.7675 Z-0.135
G18 G2 X4.705 Z-0.1974 I0 K-0.0625
G1 Z-0.3016
G3 X4.6605 Z-0.3499 I-0.0476 K-0.0008
G1 X4.377 Z-0.35
X4.3756 Z-0.3498
X4.3742 Z-0.3494
X4.3729 Z-0.3489
X4.3715 Z-0.3487
X4.3615
G17 G2 Y0.1375 I0 J0.005
G1 X4.3629 Z-0.3489
X4.3642 Z-0.3494
X4.3655 Z-0.3498
X4.367 Z-0.35
X4.6605 Z-0.3499
G18 G2 X4.705 Z-0.3014 I-0.0031 K0.0475
G1 Z-0.1972
G3 X4.7675 Z-0.135 I0.0625 K-0.0003
G1 X4.7687 Z-0.1348
X4.7698 Z-0.1344
X4.7712 Z-0.1339
X4.7726 Z-0.1337
G17 G3 Y0.1475 I0 J0.005
G1 X4.7712 Z-0.1339
X4.7698 Z-0.1344
X4.7687 Z-0.1348
X4.7675 Z-0.135
G18 G2 X4.705 Z-0.1974 I0 K-0.0625
G1 Z-0.3016
G3 X4.6605 Z-0.3499 I-0.0476 K-0.0008
G1 X4.3569 Z-0.35
X4.3555 Z-0.3498
X4.3542 Z-0.3494
X4.3528 Z-0.3489
X4.3514 Z-0.3487
X4.3414
G17 G2 Y0.1575 I0 J0.005
G1 X4.3428 Z-0.3489
X4.3441 Z-0.3494
X4.3455 Z-0.3498
X4.3469 Z-0.35
X4.6605 Z-0.3499
G18 G2 X4.705 Z-0.3014 I-0.0031 K0.0475
G1 Z-0.1972
G3 X4.7675 Z-0.135 I0.0625 K-0.0003
G1 X4.7687 Z-0.1348
X4.7698 Z-0.1344
X4.7712 Z-0.1339
X4.7726 Z-0.1337
G17 G3 Y0.1675 I0 J0.005
G1 X4.7712 Z-0.1339
X4.7698 Z-0.1344
X4.7687 Z-0.1348
X4.7675 Z-0.135
G18 G2 X4.705 Z-0.1974 I0 K-0.0625
G1 Z-0.3016
G3 X4.6605 Z-0.3499 I-0.0476 K-0.0008
G1 X4.3368 Z-0.35
X4.3354 Z-0.3498
X4.3341 Z-0.3494
X4.3328 Z-0.3489
X4.3313 Z-0.3487
X4.3213
G17 G2 Y0.1775 I0 J0.005
G1 X4.3227 Z-0.3489
X4.3241 Z-0.3494
X4.3254 Z-0.3498
X4.3268 Z-0.35
X4.6605 Z-0.3499
G18 G2 X4.705 Z-0.3014 I-0.0031 K0.0475
G1 Z-0.1972
G3 X4.7675 Z-0.135 I0.0625 K-0.0003
G1 X4.7687 Z-0.1348
X4.7698 Z-0.1344
X4.7712 Z-0.1339
X4.7726 Z-0.1337
G17 G3 Y0.1875 I0 J0.005
G1 X4.7712 Z-0.1339
X4.7698 Z-0.1344
X4.7687 Z-0.1348
X4.7675 Z-0.135
G18 G2 X4.705 Z-0.1974 I0 K-0.0625
G1 Z-0.3016
G3 X4.6605 Z-0.3499 I-0.0476 K-0.0008
G1 X4.3168 Z-0.35
X4.3154 Z-0.3498
X4.314 Z-0.3494
X4.3127 Z-0.3489
X4.3113 Z-0.3487
X4.3012
G17 G2 Y0.1975 I0 J0.005
G1 X4.3026 Z-0.3489
X4.304 Z-0.3494
X4.3053 Z-0.3498
X4.3067 Z-0.35
X4.6605 Z-0.3499
G18 G2 X4.705 Z-0.3014 I-0.0031 K0.0475
G1 Z-0.1972
G3 X4.7675 Z-0.135 I0.0625 K-0.0003
G1 X4.7687 Z-0.1348
X4.7698 Z-0.1344
X4.7712 Z-0.1339
X4.7726 Z-0.1337
G17 G3 Y0.2075 I0 J0.005
G1 X4.7712 Z-0.1339
X4.7698 Z-0.1344
X4.7687 Z-0.1348
X4.7675 Z-0.135
G18 G2 X4.705 Z-0.1974 I0 K-0.0625
G1 Z-0.3016
G3 X4.6605 Z-0.3499 I-0.0476 K-0.0008
G1 X4.2967 Z-0.35
X4.2953 Z-0.3498
X4.2939 Z-0.3494
X4.2926 Z-0.3489
X4.2912 Z-0.3487
X4.2811
G17 G2 Y0.2175 I0 J0.005
G1 X4.2826 Z-0.3489
X4.2839 Z-0.3494
X4.2852 Z-0.3498
X4.2866 Z-0.35
X4.6605 Z-0.3499
G18 G2 X4.705 Z-0.3014 I-0.0031 K0.0475
G1 Z-0.1972
G3 X4.7675 Z-0.135 I0.0625 K-0.0003
G1 X4.7687 Z-0.1348
X4.7698 Z-0.1344
X4.7712 Z-0.1339
X4.7726 Z-0.1337
G17 G3 Y0.2275 I0 J0.005
G1 X4.7712 Z-0.1339
X4.7698 Z-0.1344
X4.7687 Z-0.1348
X4.7675 Z-0.135
G18 G2 X4.705 Z-0.1974 I0 K-0.0625
G1 Z-0.3016
G3 X4.6605 Z-0.3499 I-0.0476 K-0.0008
G1 X4.2766 Z-0.35
X4.2752 Z-0.3498
X4.2739 Z-0.3494
X4.2725 Z-0.3489
X4.2711 Z-0.3487
X4.2611
G17 G2 Y0.2375 I0 J0.005
G1 X4.2625 Z-0.3489
X4.2638 Z-0.3494
X4.2652 Z-0.3498
X4.2666 Z-0.35
X4.6605 Z-0.3499
G18 G2 X4.705 Z-0.3014 I-0.0031 K0.0475
G1 Z-0.1972
G3 X4.7675 Z-0.135 I0.0625 K-0.0003
G1 X4.7687 Z-0.1348
X4.7698 Z-0.1344
X4.7712 Z-0.1339
X4.7726 Z-0.1337
G17 G3 Y0.2475 I0 J0.005
G1 X4.7712 Z-0.1339
X4.7698 Z-0.1344
X4.7687 Z-0.1348
X4.7675 Z-0.135
G18 G2 X4.705 Z-0.1974 I0 K-0.0625
G1 Z-0.3016
G3 X4.6605 Z-0.3499 I-0.0476 K-0.0008
G1 X4.2565 Z-0.35
X4.2551 Z-0.3498
X4.2538 Z-0.3494
X4.2524 Z-0.3489
X4.251 Z-0.3487
X4.241
G17 G2 Y0.2575 I0 J0.005
G1 X4.2424 Z-0.3489
X4.2437 Z-0.3494
X4.2451 Z-0.3498
X4.2465 Z-0.35
X4.6605 Z-0.3499
G18 G2 X4.705 Z-0.3014 I-0.0031 K0.0475
G1 Z-0.1972
G3 X4.7675 Z-0.135 I0.0625 K-0.0003
G1 X4.7687 Z-0.1348
X4.7698 Z-0.1344
X4.7712 Z-0.1339
X4.7726 Z-0.1337
G17 G3 Y0.2675 I0 J0.005
G1 X4.7712 Z-0.1339
X4.7698 Z-0.1344
X4.7687 Z-0.1348
X4.7675 Z-0.135
G18 G2 X4.705 Z-0.1974 I0 K-0.0625
G1 Z-0.3016
G3 X4.6605 Z-0.3499 I-0.0476 K-0.0008
G1 X4.2364 Z-0.35
X4.235 Z-0.3498
X4.2337 Z-0.3494
X4.2324 Z-0.3489
X4.2309 Z-0.3487
X4.2209
G17 G2 Y0.2775 I0 J0.005
G1 X4.2223 Z-0.3489
X4.2237 Z-0.3494
X4.225 Z-0.3498
X4.2264 Z-0.35
X4.6605 Z-0.3499
G18 G2 X4.705 Z-0.3014 I-0.0031 K0.0475
G1 Z-0.1972
G3 X4.7675 Z-0.135 I0.0625 K-0.0003
G1 X4.7687 Z-0.1348
X4.7698 Z-0.1344
X4.7712 Z-0.1339
X4.7726 Z-0.1337
G17 G3 Y0.2875 I0 J0.005
G1 X4.7712 Z-0.1339
X4.7698 Z-0.1344
X4.7687 Z-0.1348
X4.7675 Z-0.135
G18 G2 X4.705 Z-0.1974 I0 K-0.0625
G1 Z-0.3016
G3 X4.6605 Z-0.3499 I-0.0476 K-0.0008
G1 X4.2164 Z-0.35
X4.215 Z-0.3498
X4.2136 Z-0.3494
X4.2123 Z-0.3489
X4.2109 Z-0.3487
X4.2008
G17 G2 Y0.2975 I0 J0.005
G1 X4.2022 Z-0.3489
X4.2036 Z-0.3494
X4.2049 Z-0.3498
X4.2063 Z-0.35
X4.6605 Z-0.3499
G18 G2 X4.705 Z-0.3014 I-0.0031 K0.0475
G1 Z-0.1972
G3 X4.7675 Z-0.135 I0.0625 K-0.0003
G1 X4.7687 Z-0.1348
X4.7698 Z-0.1344
X4.7712 Z-0.1339
X4.7726 Z-0.1337
G17 G3 Y0.3075 I0 J0.005
G1 X4.7712 Z-0.1339
X4.7698 Z-0.1344
X4.7687 Z-0.1348
X4.7675 Z-0.135
G18 G2 X4.705 Z-0.1974 I0 K-0.0625
G1 Z-0.3016
G3 X4.6605 Z-0.3499 I-0.0476 K-0.0008
G1 X4.1963 Z-0.35
X4.1949 Z-0.3498
X4.1935 Z-0.3494
X4.1922 Z-0.3489
X4.1908 Z-0.3487
X4.1806
G17 G2 Y0.3175 I0 J0.005
G1 X4.182 Z-0.3489
X4.1833 Z-0.3494
X4.1847 Z-0.3498
X4.1861 Z-0.35
X4.6605 Z-0.3499
G18 G2 X4.705 Z-0.3014 I-0.0031 K0.0475
G1 Z-0.1972
G3 X4.7675 Z-0.135 I0.0625 K-0.0003
G1 X4.7687 Z-0.1348
X4.7698 Z-0.1344
X4.7712 Z-0.1339
X4.7726 Z-0.1337
G17 G3 Y0.3275 I0 J0.005
G1 X4.7712 Z-0.1339
X4.7698 Z-0.1344
X4.7687 Z-0.1348
X4.7675 Z-0.135
G18 G2 X4.705 Z-0.1974 I0 K-0.0625
G1 Z-0.3016
G3 X4.6605 Z-0.3499 I-0.0476 K-0.0008
G1 X4.1751 Z-0.35
X4.1737 Z-0.3498
X4.1724 Z-0.3494
X4.171 Z-0.3489
X4.1696 Z-0.3487
X4.1565
G17 G2 Y0.3375 I0 J0.005
G1 X4.1579 Z-0.3489
X4.1593 Z-0.3494
X4.1606 Z-0.3498
X4.162 Z-0.35
X4.6605 Z-0.3499
G18 G2 X4.705 Z-0.3014 I-0.0031 K0.0475
G1 Z-0.1972
G3 X4.7675 Z-0.135 I0.0625 K-0.0003
G1 X4.7687 Z-0.1348
X4.7698 Z-0.1344
X4.7712 Z-0.1339
X4.7726 Z-0.1337
G17 G3 Y0.3475 I0 J0.005
G1 X4.7712 Z-0.1339
X4.7698 Z-0.1344
X4.7687 Z-0.1348
X4.7675 Z-0.135
G18 G2 X4.705 Z-0.1974 I0 K-0.0625
G1 Z-0.3016
G3 X4.6605 Z-0.3499 I-0.0476 K-0.0008
G1 X4.1464 Z-0.35
X4.145 Z-0.3498
X4.1436 Z-0.3494
X4.1423 Z-0.3489
X4.1409 Z-0.3487
X4.1206
G17 G2 Y0.3575 I0 J0.005
G1 X4.122 Z-0.3489
X4.1233 Z-0.3494
X4.1246 Z-0.3498
X4.1261 Z-0.35
X4.6605 Z-0.3499
G18 G2 X4.705 Z-0.3014 I-0.0031 K0.0475
G1 Z-0.1972
G3 X4.7675 Z-0.135 I0.0625 K-0.0003
G1 X4.7687 Z-0.1348
X4.7698 Z-0.1344
X4.7712 Z-0.1339
X4.7726 Z-0.1337
G17 G3 Y0.3675 I0 J0.005
G1 X4.7712 Z-0.1339
X4.7698 Z-0.1344
X4.7687 Z-0.1348
X4.7675 Z-0.135
G18 G2 X4.705 Z-0.1974 I0 K-0.0625
G1 Z-0.3016
G3 X4.6605 Z-0.3499 I-0.0476 K-0.0008
G1 X4.0974 Z-0.35
G3 X4.0849 Z-0.3375 I0 K0.0125
G1 Z0.13
X3.9862 Y-0.6125
Z-0.2701
Z-0.3375 F10
G3 X3.9737 Z-0.35 I-0.0125 K0 F50
G1 X-4.6589 Z-0.3499
G3 X-4.705 Z-0.3014 I0.0014 K0.0475
G1 X-4.7051 Z-0.1932
G2 X-4.7675 Z-0.135 I-0.0624 K-0.0043
G1 X-4.7689 Z-0.1348
X-4.7702 Z-0.1344
X-4.7715 Z-0.1339
X-4.7729 Z-0.1337
G17 G2 Y-0.6025 I0 J0.005
G1 X-4.7726
X-4.7712 Z-0.1339
X-4.7699 Z-0.1344
X-4.7698
X-4.7687 Z-0.1348
X-4.7675 Z-0.135
G18 G3 X-4.705 Z-0.1971 I0 K-0.0625
G1 Z-0.3016
G2 X-4.6608 Z-0.3499 I0.0476 K-0.0008
G1 X3.9524 Z-0.35
X3.9538 Z-0.3498
X3.9552 Z-0.3494
X3.9565 Z-0.3489
X3.9579 Z-0.3487
G17 G3 Y-0.5925 I0 J0.005
G1 X3.9414
X3.94 Z-0.3489
X3.9387 Z-0.3494
X3.9373 Z-0.3498
X3.9359 Z-0.35
X-4.658
G18 G3 X-4.7051 Z-0.3014 I0.0005 K0.0476
G1 X-4.705 Z-0.1972
G2 X-4.7675 Z-0.135 I-0.0625 K-0.0003
G1 X-4.7688 Z-0.1348
X-4.7701 Z-0.1344
X-4.7714 Z-0.1339
X-4.7728 Z-0.1337
G17 G2 Y-0.5825 I0 J0.005
G1 X-4.7714 Z-0.1339
X-4.7701 Z-0.1344
X-4.7688 Z-0.1348
X-4.7675 Z-0.135
G18 G3 X-4.705 Z-0.1973 I0 K-0.0625
G1 Z-0.3016
G2 X-4.6598 Z-0.3499 I0.0476 K-0.0008
G1 X3.9225 Z-0.35
X3.9239 Z-0.3498
X3.9252 Z-0.3494
X3.9266 Z-0.3489
X3.928 Z-0.3487
G17 G3 Y-0.5725 I0 J0.005
G1 X3.9166
X3.9152 Z-0.3489
X3.9138 Z-0.3494
X3.9125 Z-0.3498
X3.9111 Z-0.35
X-4.6596 Z-0.3499
G18 G3 X-4.705 Z-0.3014 I0.0021 K0.0475
G1 Z-0.1975
G2 X-4.7675 Z-0.135 I-0.0625 K0
G1 X-4.7687 Z-0.1348
X-4.7698 Z-0.1344
X-4.7712 Z-0.1339
X-4.7726 Z-0.1337
X-4.7728
